; G-Code originally generated by Simplify3D(R) Version 4.1.2
; This calibration test gcode modified by the Teaching Tech Calibration website: https://teachingtechyt.github.io/calibration.html
;M80 ; power supply on
G90
M82
M106 S0
M140 S55 ; custom bed temp
M190 S55 ; custom bed temp
M104 S145 T0 ; custom hot end temp minus 50 degrees
G28 ; home all axes
;G29 ; probe ABL
M420 S1 ; restore ABL mesh
M109 S195 T0 ; custom hot end temp 
;customstart
G0 Z3; fix for delta printers that home at max
; square 1
;process Process
;layer 1, Z = 0.200
T0
G92 E0.0000
G1 E-5 F2400 ; custom retraction
;fan1;
G1 Z0.200 F1200
G1 X24.6360 Y26.3140 F6000
G1 E0 F2400 ; custom un-retraction/prime
G92 E0.0000
G1 X26.3140 Y24.6360 E0.1023 F1800
G1 X53.6860 Y24.6360 E1.2822
G1 X55.3640 Y26.3140 E1.3844
G1 X55.3640 Y53.6860 E2.5643
G1 X53.6860 Y55.3640 E2.6666
G1 X26.3140 Y55.3640 E3.8465
G1 X24.6360 Y53.6860 E3.9487
G1 X24.6360 Y26.3140 E5.1286
G92 E0.0000
G1 E-5 F2400 ; custom retraction
;zhop1
G1 X25.2120 Y26.5520 F6000
G1 Z0.200 F1200
G1 E0 F2400 ; custom un-retraction/prime
G92 E0.0000
G1 X26.5520 Y25.2120 E0.0817 F1800
G1 X53.4480 Y25.2120 E1.2410
G1 X54.7880 Y26.5520 E1.3227
G1 X54.7880 Y53.4480 E2.4820
G1 X53.4480 Y54.7880 E2.5637
G1 X26.5520 Y54.7880 E3.7231
G1 X25.2120 Y53.4480 E3.8048
G1 X25.2120 Y26.5520 E4.9641
G92 E0.0000
G1 E-5 F2400 ; custom retraction
;zhop1
G1 X27.7880 Y27.7880 F6000
G1 X27.7880 Y28.2020
G1 X28.9400 Y28.9400
G1 Z0.200 F1200
G1 E0 F2400 ; custom un-retraction/prime
G92 E0.0000
G1 X51.0600 Y28.9400 E0.9535 F1440
G1 X51.0600 Y51.0600 E1.9069
G1 X28.9400 Y51.0600 E2.8604
G1 X28.9400 Y28.9400 E3.8139
G1 X28.3640 Y28.3640 F6000
G92 E0.0000
G1 X51.6360 Y28.3640 E1.0031 F1440
G1 X51.6360 Y51.6360 E2.0063
G1 X28.3640 Y51.6360 E3.0094
G1 X28.3640 Y28.3640 E4.0125
G1 X27.7880 Y27.7880 F6000
G92 E0.0000
G1 X52.2120 Y27.7880 E1.0528 F1080
G1 X52.2120 Y52.2120 E2.1056
G1 X27.7880 Y52.2120 E3.1584
G1 X27.7880 Y27.7880 E4.2111
G1 X50.4650 Y29.2860 F6000
G92 E0.0000
G1 X50.7140 Y29.5350 E0.0152 F1440
G1 X50.7140 Y30.3500 E0.0503
G1 X49.6500 Y29.2860 E0.1152
G1 X48.8360 Y29.2860 E0.1503
G1 X50.7140 Y31.1640 E0.2648
G1 X50.7140 Y31.9790 E0.2999
G1 X48.0210 Y29.2860 E0.4640
G1 X47.2070 Y29.2860 E0.4992
G1 X50.7140 Y32.7930 E0.7130
G1 X50.7140 Y33.6080 E0.7481
G1 X46.3920 Y29.2860 E1.0116
G1 X45.5780 Y29.2860 E1.0467
G1 X50.7140 Y34.4220 E1.3598
G1 X50.7140 Y35.2370 E1.3949
G1 X44.7630 Y29.2860 E1.7577
G1 X43.9480 Y29.2860 E1.7928
G1 X50.7140 Y36.0520 E2.2053
G1 X50.7140 Y36.8660 E2.2404
G1 X43.1340 Y29.2860 E2.7025
G1 X42.3190 Y29.2860 E2.7376
G1 X50.7140 Y37.6810 E3.2494
G1 X50.7140 Y38.4950 E3.2845
G1 X41.5050 Y29.2860 E3.8459
G1 X40.6900 Y29.2860 E3.8810
G1 X50.7140 Y39.3100 E4.4921
G1 X50.7140 Y40.1250 E4.5272
G1 X39.8750 Y29.2860 E5.1879
G1 X39.0610 Y29.2860 E5.2231
G1 X50.7140 Y40.9390 E5.9334
G1 X50.7140 Y41.7540 E5.9686
G1 X38.2460 Y29.2860 E6.7286
G1 X37.4320 Y29.2860 E6.7637
G1 X50.7140 Y42.5680 E7.5734
G1 X50.7140 Y43.3830 E7.6085
G1 X36.6170 Y29.2860 E8.4679
G1 X35.8020 Y29.2860 E8.5030
G1 X50.7140 Y44.1980 E9.4120
G1 X50.7140 Y45.0120 E9.4471
G1 X34.9880 Y29.2860 E10.4058
G1 X34.1730 Y29.2860 E10.4409
G1 X50.7140 Y45.8270 E11.4493
G1 X50.7140 Y46.6410 E11.4844
G1 X33.3590 Y29.2860 E12.5424
G1 X32.5440 Y29.2860 E12.5775
G1 X50.7140 Y47.4560 E13.6851
G1 X50.7140 Y48.2700 E13.7202
G1 X31.7300 Y29.2860 E14.8775
G1 X30.9150 Y29.2860 E14.9127
G1 X50.7140 Y49.0850 E16.1196
G1 X50.7140 Y49.9000 E16.1547
G1 X30.1000 Y29.2860 E17.4113
G1 X29.2860 Y29.2860 E17.4465
G1 X50.7140 Y50.7140 E18.7527
G1 X49.9000 Y50.7140 E18.7879
G1 X29.2860 Y30.1000 E20.0445
G1 X29.2860 Y30.9150 E20.0796
G1 X49.0850 Y50.7140 E21.2865
G1 X48.2700 Y50.7140 E21.3217
G1 X29.2860 Y31.7300 E22.4790
G1 X29.2860 Y32.5440 E22.5141
G1 X47.4560 Y50.7140 E23.6217
G1 X46.6410 Y50.7140 E23.6568
G1 X29.2860 Y33.3590 E24.7148
G1 X29.2860 Y34.1730 E24.7499
G1 X45.8270 Y50.7140 E25.7583
G1 X45.0120 Y50.7140 E25.7934
G1 X29.2860 Y34.9880 E26.7521
G1 X29.2860 Y35.8020 E26.7872
G1 X44.1980 Y50.7140 E27.6962
G1 X43.3830 Y50.7140 E27.7313
G1 X29.2860 Y36.6170 E28.5907
G1 X29.2860 Y37.4320 E28.6258
G1 X42.5680 Y50.7140 E29.4355
G1 X41.7540 Y50.7140 E29.4706
G1 X29.2860 Y38.2460 E30.2307
G1 X29.2860 Y39.0610 E30.2658
G1 X40.9390 Y50.7140 E30.9762
G1 X40.1250 Y50.7140 E31.0113
G1 X29.2860 Y39.8750 E31.6720
G1 X29.2860 Y40.6900 E31.7071
G1 X39.3100 Y50.7140 E32.3182
G1 X38.4950 Y50.7140 E32.3533
G1 X29.2860 Y41.5050 E32.9147
G1 X29.2860 Y42.3190 E32.9499
G1 X37.6810 Y50.7140 E33.4616
G1 X36.8660 Y50.7140 E33.4967
G1 X29.2860 Y43.1340 E33.9588
G1 X29.2860 Y43.9480 E33.9939
G1 X36.0520 Y50.7140 E34.4064
G1 X35.2370 Y50.7140 E34.4415
G1 X29.2860 Y44.7630 E34.8043
G1 X29.2860 Y45.5770 E34.8394
G1 X34.4230 Y50.7140 E35.1525
G1 X33.6080 Y50.7140 E35.1877
G1 X29.2860 Y46.3920 E35.4511
G1 X29.2860 Y47.2070 E35.4863
G1 X32.7930 Y50.7140 E35.7001
G1 X31.9790 Y50.7140 E35.7352
G1 X29.2860 Y48.0210 E35.8994
G1 X29.2860 Y48.8360 E35.9345
G1 X31.1640 Y50.7140 E36.0490
G1 X30.3500 Y50.7140 E36.0841
G1 X29.2860 Y49.6500 E36.1489
G1 X29.2860 Y50.4650 E36.1840
G1 X29.5350 Y50.7140 E36.1992
G92 E0.0000
G1 E-5 F2400 ; custom retraction

; square 2
;process Process
;layer 1, Z = 0.200
T0
G92 E0.0000
G1 E-5 F2400 ; custom retraction
;fan1;
G1 Z0.200 F1200
G1 X24.6360 Y176.3140 F6000
G1 E0 F2400 ; custom un-retraction/prime
G92 E0.0000
G1 X26.3140 Y174.6360 E0.1023 F1800
G1 X53.6860 Y174.6360 E1.2822
G1 X55.3640 Y176.3140 E1.3844
G1 X55.3640 Y203.6860 E2.5643
G1 X53.6860 Y205.3640 E2.6666
G1 X26.3140 Y205.3640 E3.8465
G1 X24.6360 Y203.6860 E3.9487
G1 X24.6360 Y176.3140 E5.1286
G92 E0.0000
G1 E-5 F2400 ; custom retraction
;zhop1
G1 X25.2120 Y176.5520 F6000
G1 Z0.200 F1200
G1 E0 F2400 ; custom un-retraction/prime
G92 E0.0000
G1 X26.5520 Y175.2120 E0.0817 F1800
G1 X53.4480 Y175.2120 E1.2410
G1 X54.7880 Y176.5520 E1.3227
G1 X54.7880 Y203.4480 E2.4820
G1 X53.4480 Y204.7880 E2.5637
G1 X26.5520 Y204.7880 E3.7231
G1 X25.2120 Y203.4480 E3.8048
G1 X25.2120 Y176.5520 E4.9641
G92 E0.0000
G1 E-5 F2400 ; custom retraction
;zhop1
G1 X27.7880 Y177.7880 F6000
G1 X27.7880 Y178.2020
G1 X28.9400 Y178.9400
G1 Z0.200 F1200
G1 E0 F2400 ; custom un-retraction/prime
G92 E0.0000
G1 X51.0600 Y178.9400 E0.9535 F1440
G1 X51.0600 Y201.0600 E1.9069
G1 X28.9400 Y201.0600 E2.8604
G1 X28.9400 Y178.9400 E3.8139
G1 X28.3640 Y178.3640 F6000
G92 E0.0000
G1 X51.6360 Y178.3640 E1.0031 F1440
G1 X51.6360 Y201.6360 E2.0063
G1 X28.3640 Y201.6360 E3.0094
G1 X28.3640 Y178.3640 E4.0125
G1 X27.7880 Y177.7880 F6000
G92 E0.0000
G1 X52.2120 Y177.7880 E1.0528 F1080
G1 X52.2120 Y202.2120 E2.1056
G1 X27.7880 Y202.2120 E3.1584
G1 X27.7880 Y177.7880 E4.2111
G1 X50.4650 Y179.2860 F6000
G92 E0.0000
G1 X50.7140 Y179.5350 E0.0152 F1440
G1 X50.7140 Y180.3500 E0.0503
G1 X49.6500 Y179.2860 E0.1152
G1 X48.8360 Y179.2860 E0.1503
G1 X50.7140 Y181.1640 E0.2648
G1 X50.7140 Y181.9790 E0.2999
G1 X48.0210 Y179.2860 E0.4640
G1 X47.2070 Y179.2860 E0.4992
G1 X50.7140 Y182.7930 E0.7130
G1 X50.7140 Y183.6080 E0.7481
G1 X46.3920 Y179.2860 E1.0116
G1 X45.5780 Y179.2860 E1.0467
G1 X50.7140 Y184.4220 E1.3598
G1 X50.7140 Y185.2370 E1.3949
G1 X44.7630 Y179.2860 E1.7577
G1 X43.9480 Y179.2860 E1.7928
G1 X50.7140 Y186.0520 E2.2053
G1 X50.7140 Y186.8660 E2.2404
G1 X43.1340 Y179.2860 E2.7025
G1 X42.3190 Y179.2860 E2.7376
G1 X50.7140 Y187.6810 E3.2494
G1 X50.7140 Y188.4950 E3.2845
G1 X41.5050 Y179.2860 E3.8459
G1 X40.6900 Y179.2860 E3.8810
G1 X50.7140 Y189.3100 E4.4921
G1 X50.7140 Y190.1250 E4.5272
G1 X39.8750 Y179.2860 E5.1879
G1 X39.0610 Y179.2860 E5.2231
G1 X50.7140 Y190.9390 E5.9334
G1 X50.7140 Y191.7540 E5.9686
G1 X38.2460 Y179.2860 E6.7286
G1 X37.4320 Y179.2860 E6.7637
G1 X50.7140 Y192.5680 E7.5734
G1 X50.7140 Y193.3830 E7.6085
G1 X36.6170 Y179.2860 E8.4679
G1 X35.8020 Y179.2860 E8.5030
G1 X50.7140 Y194.1980 E9.4120
G1 X50.7140 Y195.0120 E9.4471
G1 X34.9880 Y179.2860 E10.4058
G1 X34.1730 Y179.2860 E10.4409
G1 X50.7140 Y195.8270 E11.4493
G1 X50.7140 Y196.6410 E11.4844
G1 X33.3590 Y179.2860 E12.5424
G1 X32.5440 Y179.2860 E12.5775
G1 X50.7140 Y197.4560 E13.6851
G1 X50.7140 Y198.2700 E13.7202
G1 X31.7300 Y179.2860 E14.8775
G1 X30.9150 Y179.2860 E14.9127
G1 X50.7140 Y199.0850 E16.1196
G1 X50.7140 Y199.9000 E16.1547
G1 X30.1000 Y179.2860 E17.4113
G1 X29.2860 Y179.2860 E17.4465
G1 X50.7140 Y200.7140 E18.7527
G1 X49.9000 Y200.7140 E18.7879
G1 X29.2860 Y180.1000 E20.0445
G1 X29.2860 Y180.9150 E20.0796
G1 X49.0850 Y200.7140 E21.2865
G1 X48.2700 Y200.7140 E21.3217
G1 X29.2860 Y181.7300 E22.4790
G1 X29.2860 Y182.5440 E22.5141
G1 X47.4560 Y200.7140 E23.6217
G1 X46.6410 Y200.7140 E23.6568
G1 X29.2860 Y183.3590 E24.7148
G1 X29.2860 Y184.1730 E24.7499
G1 X45.8270 Y200.7140 E25.7583
G1 X45.0120 Y200.7140 E25.7934
G1 X29.2860 Y184.9880 E26.7521
G1 X29.2860 Y185.8020 E26.7872
G1 X44.1980 Y200.7140 E27.6962
G1 X43.3830 Y200.7140 E27.7313
G1 X29.2860 Y186.6170 E28.5907
G1 X29.2860 Y187.4320 E28.6258
G1 X42.5680 Y200.7140 E29.4355
G1 X41.7540 Y200.7140 E29.4706
G1 X29.2860 Y188.2460 E30.2307
G1 X29.2860 Y189.0610 E30.2658
G1 X40.9390 Y200.7140 E30.9762
G1 X40.1250 Y200.7140 E31.0113
G1 X29.2860 Y189.8750 E31.6720
G1 X29.2860 Y190.6900 E31.7071
G1 X39.3100 Y200.7140 E32.3182
G1 X38.4950 Y200.7140 E32.3533
G1 X29.2860 Y191.5050 E32.9147
G1 X29.2860 Y192.3190 E32.9499
G1 X37.6810 Y200.7140 E33.4616
G1 X36.8660 Y200.7140 E33.4967
G1 X29.2860 Y193.1340 E33.9588
G1 X29.2860 Y193.9480 E33.9939
G1 X36.0520 Y200.7140 E34.4064
G1 X35.2370 Y200.7140 E34.4415
G1 X29.2860 Y194.7630 E34.8043
G1 X29.2860 Y195.5770 E34.8394
G1 X34.4230 Y200.7140 E35.1525
G1 X33.6080 Y200.7140 E35.1877
G1 X29.2860 Y196.3920 E35.4511
G1 X29.2860 Y197.2070 E35.4863
G1 X32.7930 Y200.7140 E35.7001
G1 X31.9790 Y200.7140 E35.7352
G1 X29.2860 Y198.0210 E35.8994
G1 X29.2860 Y198.8360 E35.9345
G1 X31.1640 Y200.7140 E36.0490
G1 X30.3500 Y200.7140 E36.0841
G1 X29.2860 Y199.6500 E36.1489
G1 X29.2860 Y200.4650 E36.1840
G1 X29.5350 Y200.7140 E36.1992
G92 E0.0000
G1 E-5 F2400 ; custom retraction

; square 3
;process Process
;layer 1, Z = 0.200
T0
G92 E0.0000
G1 E-5 F2400 ; custom retraction
;fan1;
G1 Z0.200 F1200
G1 X99.6360 Y101.3140 F6000
G1 E0 F2400 ; custom un-retraction/prime
G92 E0.0000
G1 X101.3140 Y99.6360 E0.1023 F1800
G1 X128.6860 Y99.6360 E1.2822
G1 X130.3640 Y101.3140 E1.3844
G1 X130.3640 Y128.6860 E2.5643
G1 X128.6860 Y130.3640 E2.6666
G1 X101.3140 Y130.3640 E3.8465
G1 X99.6360 Y128.6860 E3.9487
G1 X99.6360 Y101.3140 E5.1286
G92 E0.0000
G1 E-5 F2400 ; custom retraction
;zhop1
G1 X100.2120 Y101.5520 F6000
G1 Z0.200 F1200
G1 E0 F2400 ; custom un-retraction/prime
G92 E0.0000
G1 X101.5520 Y100.2120 E0.0817 F1800
G1 X128.4480 Y100.2120 E1.2410
G1 X129.7880 Y101.5520 E1.3227
G1 X129.7880 Y128.4480 E2.4820
G1 X128.4480 Y129.7880 E2.5637
G1 X101.5520 Y129.7880 E3.7231
G1 X100.2120 Y128.4480 E3.8048
G1 X100.2120 Y101.5520 E4.9641
G92 E0.0000
G1 E-5 F2400 ; custom retraction
;zhop1
G1 X102.7880 Y102.7880 F6000
G1 X102.7880 Y103.2020
G1 X103.9400 Y103.9400
G1 Z0.200 F1200
G1 E0 F2400 ; custom un-retraction/prime
G92 E0.0000
G1 X126.0600 Y103.9400 E0.9535 F1440
G1 X126.0600 Y126.0600 E1.9069
G1 X103.9400 Y126.0600 E2.8604
G1 X103.9400 Y103.9400 E3.8139
G1 X103.3640 Y103.3640 F6000
G92 E0.0000
G1 X126.6360 Y103.3640 E1.0031 F1440
G1 X126.6360 Y126.6360 E2.0063
G1 X103.3640 Y126.6360 E3.0094
G1 X103.3640 Y103.3640 E4.0125
G1 X102.7880 Y102.7880 F6000
G92 E0.0000
G1 X127.2120 Y102.7880 E1.0528 F1080
G1 X127.2120 Y127.2120 E2.1056
G1 X102.7880 Y127.2120 E3.1584
G1 X102.7880 Y102.7880 E4.2111
G1 X125.4650 Y104.2860 F6000
G92 E0.0000
G1 X125.7140 Y104.5350 E0.0152 F1440
G1 X125.7140 Y105.3500 E0.0503
G1 X124.6500 Y104.2860 E0.1152
G1 X123.8360 Y104.2860 E0.1503
G1 X125.7140 Y106.1640 E0.2648
G1 X125.7140 Y106.9790 E0.2999
G1 X123.0210 Y104.2860 E0.4640
G1 X122.2070 Y104.2860 E0.4992
G1 X125.7140 Y107.7930 E0.7130
G1 X125.7140 Y108.6080 E0.7481
G1 X121.3920 Y104.2860 E1.0116
G1 X120.5780 Y104.2860 E1.0467
G1 X125.7140 Y109.4220 E1.3598
G1 X125.7140 Y110.2370 E1.3949
G1 X119.7630 Y104.2860 E1.7577
G1 X118.9480 Y104.2860 E1.7928
G1 X125.7140 Y111.0520 E2.2053
G1 X125.7140 Y111.8660 E2.2404
G1 X118.1340 Y104.2860 E2.7025
G1 X117.3190 Y104.2860 E2.7376
G1 X125.7140 Y112.6810 E3.2494
G1 X125.7140 Y113.4950 E3.2845
G1 X116.5050 Y104.2860 E3.8459
G1 X115.6900 Y104.2860 E3.8810
G1 X125.7140 Y114.3100 E4.4921
G1 X125.7140 Y115.1250 E4.5272
G1 X114.8750 Y104.2860 E5.1879
G1 X114.0610 Y104.2860 E5.2231
G1 X125.7140 Y115.9390 E5.9334
G1 X125.7140 Y116.7540 E5.9686
G1 X113.2460 Y104.2860 E6.7286
G1 X112.4320 Y104.2860 E6.7637
G1 X125.7140 Y117.5680 E7.5734
G1 X125.7140 Y118.3830 E7.6085
G1 X111.6170 Y104.2860 E8.4679
G1 X110.8020 Y104.2860 E8.5030
G1 X125.7140 Y119.1980 E9.4120
G1 X125.7140 Y120.0120 E9.4471
G1 X109.9880 Y104.2860 E10.4058
G1 X109.1730 Y104.2860 E10.4409
G1 X125.7140 Y120.8270 E11.4493
G1 X125.7140 Y121.6410 E11.4844
G1 X108.3590 Y104.2860 E12.5424
G1 X107.5440 Y104.2860 E12.5775
G1 X125.7140 Y122.4560 E13.6851
G1 X125.7140 Y123.2700 E13.7202
G1 X106.7300 Y104.2860 E14.8775
G1 X105.9150 Y104.2860 E14.9127
G1 X125.7140 Y124.0850 E16.1196
G1 X125.7140 Y124.9000 E16.1547
G1 X105.1000 Y104.2860 E17.4113
G1 X104.2860 Y104.2860 E17.4465
G1 X125.7140 Y125.7140 E18.7527
G1 X124.9000 Y125.7140 E18.7879
G1 X104.2860 Y105.1000 E20.0445
G1 X104.2860 Y105.9150 E20.0796
G1 X124.0850 Y125.7140 E21.2865
G1 X123.2700 Y125.7140 E21.3217
G1 X104.2860 Y106.7300 E22.4790
G1 X104.2860 Y107.5440 E22.5141
G1 X122.4560 Y125.7140 E23.6217
G1 X121.6410 Y125.7140 E23.6568
G1 X104.2860 Y108.3590 E24.7148
G1 X104.2860 Y109.1730 E24.7499
G1 X120.8270 Y125.7140 E25.7583
G1 X120.0120 Y125.7140 E25.7934
G1 X104.2860 Y109.9880 E26.7521
G1 X104.2860 Y110.8020 E26.7872
G1 X119.1980 Y125.7140 E27.6962
G1 X118.3830 Y125.7140 E27.7313
G1 X104.2860 Y111.6170 E28.5907
G1 X104.2860 Y112.4320 E28.6258
G1 X117.5680 Y125.7140 E29.4355
G1 X116.7540 Y125.7140 E29.4706
G1 X104.2860 Y113.2460 E30.2307
G1 X104.2860 Y114.0610 E30.2658
G1 X115.9390 Y125.7140 E30.9762
G1 X115.1250 Y125.7140 E31.0113
G1 X104.2860 Y114.8750 E31.6720
G1 X104.2860 Y115.6900 E31.7071
G1 X114.3100 Y125.7140 E32.3182
G1 X113.4950 Y125.7140 E32.3533
G1 X104.2860 Y116.5050 E32.9147
G1 X104.2860 Y117.3190 E32.9499
G1 X112.6810 Y125.7140 E33.4616
G1 X111.8660 Y125.7140 E33.4967
G1 X104.2860 Y118.1340 E33.9588
G1 X104.2860 Y118.9480 E33.9939
G1 X111.0520 Y125.7140 E34.4064
G1 X110.2370 Y125.7140 E34.4415
G1 X104.2860 Y119.7630 E34.8043
G1 X104.2860 Y120.5770 E34.8394
G1 X109.4230 Y125.7140 E35.1525
G1 X108.6080 Y125.7140 E35.1877
G1 X104.2860 Y121.3920 E35.4511
G1 X104.2860 Y122.2070 E35.4863
G1 X107.7930 Y125.7140 E35.7001
G1 X106.9790 Y125.7140 E35.7352
G1 X104.2860 Y123.0210 E35.8994
G1 X104.2860 Y123.8360 E35.9345
G1 X106.1640 Y125.7140 E36.0490
G1 X105.3500 Y125.7140 E36.0841
G1 X104.2860 Y124.6500 E36.1489
G1 X104.2860 Y125.4650 E36.1840
G1 X104.5350 Y125.7140 E36.1992
G92 E0.0000
G1 E-5 F2400 ; custom retraction

; square 4
;process Process
;layer 1, Z = 0.200
T0
G92 E0.0000
G1 E-5 F2400 ; custom retraction
;fan1;
G1 Z0.200 F1200
G1 X174.6360 Y26.3140 F6000
G1 E0 F2400 ; custom un-retraction/prime
G92 E0.0000
G1 X176.3140 Y24.6360 E0.1023 F1800
G1 X203.6860 Y24.6360 E1.2822
G1 X205.3640 Y26.3140 E1.3844
G1 X205.3640 Y53.6860 E2.5643
G1 X203.6860 Y55.3640 E2.6666
G1 X176.3140 Y55.3640 E3.8465
G1 X174.6360 Y53.6860 E3.9487
G1 X174.6360 Y26.3140 E5.1286
G92 E0.0000
G1 E-5 F2400 ; custom retraction
;zhop1
G1 X175.2120 Y26.5520 F6000
G1 Z0.200 F1200
G1 E0 F2400 ; custom un-retraction/prime
G92 E0.0000
G1 X176.5520 Y25.2120 E0.0817 F1800
G1 X203.4480 Y25.2120 E1.2410
G1 X204.7880 Y26.5520 E1.3227
G1 X204.7880 Y53.4480 E2.4820
G1 X203.4480 Y54.7880 E2.5637
G1 X176.5520 Y54.7880 E3.7231
G1 X175.2120 Y53.4480 E3.8048
G1 X175.2120 Y26.5520 E4.9641
G92 E0.0000
G1 E-5 F2400 ; custom retraction
;zhop1
G1 X177.7880 Y27.7880 F6000
G1 X177.7880 Y28.2020
G1 X178.9400 Y28.9400
G1 Z0.200 F1200
G1 E0 F2400 ; custom un-retraction/prime
G92 E0.0000
G1 X201.0600 Y28.9400 E0.9535 F1440
G1 X201.0600 Y51.0600 E1.9069
G1 X178.9400 Y51.0600 E2.8604
G1 X178.9400 Y28.9400 E3.8139
G1 X178.3640 Y28.3640 F6000
G92 E0.0000
G1 X201.6360 Y28.3640 E1.0031 F1440
G1 X201.6360 Y51.6360 E2.0063
G1 X178.3640 Y51.6360 E3.0094
G1 X178.3640 Y28.3640 E4.0125
G1 X177.7880 Y27.7880 F6000
G92 E0.0000
G1 X202.2120 Y27.7880 E1.0528 F1080
G1 X202.2120 Y52.2120 E2.1056
G1 X177.7880 Y52.2120 E3.1584
G1 X177.7880 Y27.7880 E4.2111
G1 X200.4650 Y29.2860 F6000
G92 E0.0000
G1 X200.7140 Y29.5350 E0.0152 F1440
G1 X200.7140 Y30.3500 E0.0503
G1 X199.6500 Y29.2860 E0.1152
G1 X198.8360 Y29.2860 E0.1503
G1 X200.7140 Y31.1640 E0.2648
G1 X200.7140 Y31.9790 E0.2999
G1 X198.0210 Y29.2860 E0.4640
G1 X197.2070 Y29.2860 E0.4992
G1 X200.7140 Y32.7930 E0.7130
G1 X200.7140 Y33.6080 E0.7481
G1 X196.3920 Y29.2860 E1.0116
G1 X195.5780 Y29.2860 E1.0467
G1 X200.7140 Y34.4220 E1.3598
G1 X200.7140 Y35.2370 E1.3949
G1 X194.7630 Y29.2860 E1.7577
G1 X193.9480 Y29.2860 E1.7928
G1 X200.7140 Y36.0520 E2.2053
G1 X200.7140 Y36.8660 E2.2404
G1 X193.1340 Y29.2860 E2.7025
G1 X192.3190 Y29.2860 E2.7376
G1 X200.7140 Y37.6810 E3.2494
G1 X200.7140 Y38.4950 E3.2845
G1 X191.5050 Y29.2860 E3.8459
G1 X190.6900 Y29.2860 E3.8810
G1 X200.7140 Y39.3100 E4.4921
G1 X200.7140 Y40.1250 E4.5272
G1 X189.8750 Y29.2860 E5.1879
G1 X189.0610 Y29.2860 E5.2231
G1 X200.7140 Y40.9390 E5.9334
G1 X200.7140 Y41.7540 E5.9686
G1 X188.2460 Y29.2860 E6.7286
G1 X187.4320 Y29.2860 E6.7637
G1 X200.7140 Y42.5680 E7.5734
G1 X200.7140 Y43.3830 E7.6085
G1 X186.6170 Y29.2860 E8.4679
G1 X185.8020 Y29.2860 E8.5030
G1 X200.7140 Y44.1980 E9.4120
G1 X200.7140 Y45.0120 E9.4471
G1 X184.9880 Y29.2860 E10.4058
G1 X184.1730 Y29.2860 E10.4409
G1 X200.7140 Y45.8270 E11.4493
G1 X200.7140 Y46.6410 E11.4844
G1 X183.3590 Y29.2860 E12.5424
G1 X182.5440 Y29.2860 E12.5775
G1 X200.7140 Y47.4560 E13.6851
G1 X200.7140 Y48.2700 E13.7202
G1 X181.7300 Y29.2860 E14.8775
G1 X180.9150 Y29.2860 E14.9127
G1 X200.7140 Y49.0850 E16.1196
G1 X200.7140 Y49.9000 E16.1547
G1 X180.1000 Y29.2860 E17.4113
G1 X179.2860 Y29.2860 E17.4465
G1 X200.7140 Y50.7140 E18.7527
G1 X199.9000 Y50.7140 E18.7879
G1 X179.2860 Y30.1000 E20.0445
G1 X179.2860 Y30.9150 E20.0796
G1 X199.0850 Y50.7140 E21.2865
G1 X198.2700 Y50.7140 E21.3217
G1 X179.2860 Y31.7300 E22.4790
G1 X179.2860 Y32.5440 E22.5141
G1 X197.4560 Y50.7140 E23.6217
G1 X196.6410 Y50.7140 E23.6568
G1 X179.2860 Y33.3590 E24.7148
G1 X179.2860 Y34.1730 E24.7499
G1 X195.8270 Y50.7140 E25.7583
G1 X195.0120 Y50.7140 E25.7934
G1 X179.2860 Y34.9880 E26.7521
G1 X179.2860 Y35.8020 E26.7872
G1 X194.1980 Y50.7140 E27.6962
G1 X193.3830 Y50.7140 E27.7313
G1 X179.2860 Y36.6170 E28.5907
G1 X179.2860 Y37.4320 E28.6258
G1 X192.5680 Y50.7140 E29.4355
G1 X191.7540 Y50.7140 E29.4706
G1 X179.2860 Y38.2460 E30.2307
G1 X179.2860 Y39.0610 E30.2658
G1 X190.9390 Y50.7140 E30.9762
G1 X190.1250 Y50.7140 E31.0113
G1 X179.2860 Y39.8750 E31.6720
G1 X179.2860 Y40.6900 E31.7071
G1 X189.3100 Y50.7140 E32.3182
G1 X188.4950 Y50.7140 E32.3533
G1 X179.2860 Y41.5050 E32.9147
G1 X179.2860 Y42.3190 E32.9499
G1 X187.6810 Y50.7140 E33.4616
G1 X186.8660 Y50.7140 E33.4967
G1 X179.2860 Y43.1340 E33.9588
G1 X179.2860 Y43.9480 E33.9939
G1 X186.0520 Y50.7140 E34.4064
G1 X185.2370 Y50.7140 E34.4415
G1 X179.2860 Y44.7630 E34.8043
G1 X179.2860 Y45.5770 E34.8394
G1 X184.4230 Y50.7140 E35.1525
G1 X183.6080 Y50.7140 E35.1877
G1 X179.2860 Y46.3920 E35.4511
G1 X179.2860 Y47.2070 E35.4863
G1 X182.7930 Y50.7140 E35.7001
G1 X181.9790 Y50.7140 E35.7352
G1 X179.2860 Y48.0210 E35.8994
G1 X179.2860 Y48.8360 E35.9345
G1 X181.1640 Y50.7140 E36.0490
G1 X180.3500 Y50.7140 E36.0841
G1 X179.2860 Y49.6500 E36.1489
G1 X179.2860 Y50.4650 E36.1840
G1 X179.5350 Y50.7140 E36.1992
G92 E0.0000
G1 E-5 F2400 ; custom retraction

; square 5
;process Process
;layer 1, Z = 0.200
T0
G92 E0.0000
G1 E-5 F2400 ; custom retraction
;fan1;
G1 Z0.200 F1200
G1 X174.6360 Y176.3140 F6000
G1 E0 F2400 ; custom un-retraction/prime
G92 E0.0000
G1 X176.3140 Y174.6360 E0.1023 F1800
G1 X203.6860 Y174.6360 E1.2822
G1 X205.3640 Y176.3140 E1.3844
G1 X205.3640 Y203.6860 E2.5643
G1 X203.6860 Y205.3640 E2.6666
G1 X176.3140 Y205.3640 E3.8465
G1 X174.6360 Y203.6860 E3.9487
G1 X174.6360 Y176.3140 E5.1286
G92 E0.0000
G1 E-5 F2400 ; custom retraction
;zhop1
G1 X175.2120 Y176.5520 F6000
G1 Z0.200 F1200
G1 E0 F2400 ; custom un-retraction/prime
G92 E0.0000
G1 X176.5520 Y175.2120 E0.0817 F1800
G1 X203.4480 Y175.2120 E1.2410
G1 X204.7880 Y176.5520 E1.3227
G1 X204.7880 Y203.4480 E2.4820
G1 X203.4480 Y204.7880 E2.5637
G1 X176.5520 Y204.7880 E3.7231
G1 X175.2120 Y203.4480 E3.8048
G1 X175.2120 Y176.5520 E4.9641
G92 E0.0000
G1 E-5 F2400 ; custom retraction
;zhop1
G1 X177.7880 Y177.7880 F6000
G1 X177.7880 Y178.2020
G1 X178.9400 Y178.9400
G1 Z0.200 F1200
G1 E0 F2400 ; custom un-retraction/prime
G92 E0.0000
G1 X201.0600 Y178.9400 E0.9535 F1440
G1 X201.0600 Y201.0600 E1.9069
G1 X178.9400 Y201.0600 E2.8604
G1 X178.9400 Y178.9400 E3.8139
G1 X178.3640 Y178.3640 F6000
G92 E0.0000
G1 X201.6360 Y178.3640 E1.0031 F1440
G1 X201.6360 Y201.6360 E2.0063
G1 X178.3640 Y201.6360 E3.0094
G1 X178.3640 Y178.3640 E4.0125
G1 X177.7880 Y177.7880 F6000
G92 E0.0000
G1 X202.2120 Y177.7880 E1.0528 F1080
G1 X202.2120 Y202.2120 E2.1056
G1 X177.7880 Y202.2120 E3.1584
G1 X177.7880 Y177.7880 E4.2111
G1 X200.4650 Y179.2860 F6000
G92 E0.0000
G1 X200.7140 Y179.5350 E0.0152 F1440
G1 X200.7140 Y180.3500 E0.0503
G1 X199.6500 Y179.2860 E0.1152
G1 X198.8360 Y179.2860 E0.1503
G1 X200.7140 Y181.1640 E0.2648
G1 X200.7140 Y181.9790 E0.2999
G1 X198.0210 Y179.2860 E0.4640
G1 X197.2070 Y179.2860 E0.4992
G1 X200.7140 Y182.7930 E0.7130
G1 X200.7140 Y183.6080 E0.7481
G1 X196.3920 Y179.2860 E1.0116
G1 X195.5780 Y179.2860 E1.0467
G1 X200.7140 Y184.4220 E1.3598
G1 X200.7140 Y185.2370 E1.3949
G1 X194.7630 Y179.2860 E1.7577
G1 X193.9480 Y179.2860 E1.7928
G1 X200.7140 Y186.0520 E2.2053
G1 X200.7140 Y186.8660 E2.2404
G1 X193.1340 Y179.2860 E2.7025
G1 X192.3190 Y179.2860 E2.7376
G1 X200.7140 Y187.6810 E3.2494
G1 X200.7140 Y188.4950 E3.2845
G1 X191.5050 Y179.2860 E3.8459
G1 X190.6900 Y179.2860 E3.8810
G1 X200.7140 Y189.3100 E4.4921
G1 X200.7140 Y190.1250 E4.5272
G1 X189.8750 Y179.2860 E5.1879
G1 X189.0610 Y179.2860 E5.2231
G1 X200.7140 Y190.9390 E5.9334
G1 X200.7140 Y191.7540 E5.9686
G1 X188.2460 Y179.2860 E6.7286
G1 X187.4320 Y179.2860 E6.7637
G1 X200.7140 Y192.5680 E7.5734
G1 X200.7140 Y193.3830 E7.6085
G1 X186.6170 Y179.2860 E8.4679
G1 X185.8020 Y179.2860 E8.5030
G1 X200.7140 Y194.1980 E9.4120
G1 X200.7140 Y195.0120 E9.4471
G1 X184.9880 Y179.2860 E10.4058
G1 X184.1730 Y179.2860 E10.4409
G1 X200.7140 Y195.8270 E11.4493
G1 X200.7140 Y196.6410 E11.4844
G1 X183.3590 Y179.2860 E12.5424
G1 X182.5440 Y179.2860 E12.5775
G1 X200.7140 Y197.4560 E13.6851
G1 X200.7140 Y198.2700 E13.7202
G1 X181.7300 Y179.2860 E14.8775
G1 X180.9150 Y179.2860 E14.9127
G1 X200.7140 Y199.0850 E16.1196
G1 X200.7140 Y199.9000 E16.1547
G1 X180.1000 Y179.2860 E17.4113
G1 X179.2860 Y179.2860 E17.4465
G1 X200.7140 Y200.7140 E18.7527
G1 X199.9000 Y200.7140 E18.7879
G1 X179.2860 Y180.1000 E20.0445
G1 X179.2860 Y180.9150 E20.0796
G1 X199.0850 Y200.7140 E21.2865
G1 X198.2700 Y200.7140 E21.3217
G1 X179.2860 Y181.7300 E22.4790
G1 X179.2860 Y182.5440 E22.5141
G1 X197.4560 Y200.7140 E23.6217
G1 X196.6410 Y200.7140 E23.6568
G1 X179.2860 Y183.3590 E24.7148
G1 X179.2860 Y184.1730 E24.7499
G1 X195.8270 Y200.7140 E25.7583
G1 X195.0120 Y200.7140 E25.7934
G1 X179.2860 Y184.9880 E26.7521
G1 X179.2860 Y185.8020 E26.7872
G1 X194.1980 Y200.7140 E27.6962
G1 X193.3830 Y200.7140 E27.7313
G1 X179.2860 Y186.6170 E28.5907
G1 X179.2860 Y187.4320 E28.6258
G1 X192.5680 Y200.7140 E29.4355
G1 X191.7540 Y200.7140 E29.4706
G1 X179.2860 Y188.2460 E30.2307
G1 X179.2860 Y189.0610 E30.2658
G1 X190.9390 Y200.7140 E30.9762
G1 X190.1250 Y200.7140 E31.0113
G1 X179.2860 Y189.8750 E31.6720
G1 X179.2860 Y190.6900 E31.7071
G1 X189.3100 Y200.7140 E32.3182
G1 X188.4950 Y200.7140 E32.3533
G1 X179.2860 Y191.5050 E32.9147
G1 X179.2860 Y192.3190 E32.9499
G1 X187.6810 Y200.7140 E33.4616
G1 X186.8660 Y200.7140 E33.4967
G1 X179.2860 Y193.1340 E33.9588
G1 X179.2860 Y193.9480 E33.9939
G1 X186.0520 Y200.7140 E34.4064
G1 X185.2370 Y200.7140 E34.4415
G1 X179.2860 Y194.7630 E34.8043
G1 X179.2860 Y195.5770 E34.8394
G1 X184.4230 Y200.7140 E35.1525
G1 X183.6080 Y200.7140 E35.1877
G1 X179.2860 Y196.3920 E35.4511
G1 X179.2860 Y197.2070 E35.4863
G1 X182.7930 Y200.7140 E35.7001
G1 X181.9790 Y200.7140 E35.7352
G1 X179.2860 Y198.0210 E35.8994
G1 X179.2860 Y198.8360 E35.9345
G1 X181.1640 Y200.7140 E36.0490
G1 X180.3500 Y200.7140 E36.0841
G1 X179.2860 Y199.6500 E36.1489
G1 X179.2860 Y200.4650 E36.1840
G1 X179.5350 Y200.7140 E36.1992
G92 E0.0000
G1 E-5 F2400 ; custom retraction

G28 X0 ; home X axis
M106 S0 ; turn off cooling fan
M104 S0 ; turn off extruder
M140 S0 ; turn off bed
M84 ; disable motors
;customend
