; generated by PrusaSlicer 2.5.2 on 2023-05-16 at 07:58:44 UTC

; 

; external perimeters extrusion width = 0.40mm
; perimeters extrusion width = 0.40mm
; infill extrusion width = 0.44mm
; solid infill extrusion width = 0.44mm
; top infill extrusion width = 0.40mm
; first layer extrusion width = 0.42mm

M201 X500 Y500 Z100 E5000 ; sets maximum accelerations, mm/sec^2
M203 X500 Y500 Z10 E60 ; sets maximum feedrates, mm / sec
M204 P500 R1000 T500 ; sets acceleration (P, T) and retract acceleration (R), mm/sec^2
M205 X8.00 Y8.00 Z0.40 E5.00 ; sets the jerk limits, mm/sec
M205 S0 T0 ; sets the minimum extruding and travel feed rate, mm/sec
M107
;TYPE:Custom
G90 ; use absolute coordinates
M83 ; extruder relative mode
M104 S150 ; set temporary nozzle temp to prevent oozing during homing
M140 S60 ; set final bed temp
G4 S30 ; allow partial nozzle warmup
G28 ; home all axis
G1 Z50 F240
G1 X2.0 Y10 F3000
M104 S215 ; set final nozzle temp
M190 S60 ; wait for bed temp to stabilize
M109 S215 ; wait for nozzle temp to stabilize
M420 S1 ; restore saved meshes
G1 Z0.28 F240
G92 E0
G1 X2.0 Y140 E10 F1500 ; prime the nozzle
G1 X2.3 Y140 F5000
G92 E0
G1 X2.3 Y10 E10 F1200 ; prime the nozzle
G92 E0
G21 ; set units to millimeters
G90 ; use absolute coordinates
M83 ; use relative distances for extrusion
; Filament gcode
M107
;LAYER_CHANGE
;Z:0.2
;HEIGHT:0.2
;BEFORE_LAYER_CHANGE
G92 E0
;0.2


G1 Z.2 F9000
;AFTER_LAYER_CHANGE
;0.2
G1 E-5 F3600
G1 X97.742 Y97.001 F9000
G1 E5 F2400
M204 P500
;TYPE:Skirt/Brim
;WIDTH:0.42
G1 F1200
G1 X100 Y96.246 E.07467
G1 X120 Y96.246 E.62709
G1 X121.676 Y96.641 E.05397
G1 X122.999 Y97.742 E.05397
G1 X123.754 Y100 E.07467
G1 X123.754 Y120 E.62709
G1 X123.359 Y121.676 E.05397
G1 X122.258 Y122.999 E.05397
G1 X120 Y123.754 E.07467
G1 X100 Y123.754 E.62709
G1 X98.324 Y123.359 E.05397
G1 X97.001 Y122.258 E.05397
G1 X96.246 Y120 E.07467
G1 X96.246 Y100 E.62709
G1 X96.641 Y98.324 E.05397
G1 X97.703 Y97.047 E.05209
G1 X98.004 Y97.318 F9000
G1 F1200
G1 X98.107 Y97.203 E.00483
G1 X100 Y96.623 E.06207
G1 X120 Y96.623 E.62709
G1 X121.583 Y97.017 E.05115
G1 X122.797 Y98.107 E.05115
G1 X123.377 Y100 E.06207
G1 X123.377 Y120 E.62709
G1 X122.983 Y121.583 E.05115
G1 X121.893 Y122.797 E.05115
G1 X120 Y123.377 E.06207
G1 X100 Y123.377 E.62709
G1 X98.417 Y122.983 E.05115
G1 X97.203 Y121.893 E.05115
G1 X96.623 Y120 E.06207
G1 X96.623 Y100 E.62709
G1 X97.017 Y98.417 E.05115
G1 X97.964 Y97.362 E.04444
; printing object Shape-Box id:0 copy 0
G1 E-3.5 F3600
;WIPE_START
G1 F7200
G1 X98.107 Y97.203 E-.10168
G1 X100 Y96.623 E-.94035
G1 X100.806 Y96.623 E-.38297
;WIPE_END
G1 E-.075 F3600
G1 X100.31 Y100.31 F9000
G1 E5 F2400
;TYPE:External perimeter
;WIDTH:0.419999
G1 F1200
G1 X119.69 Y100.31 E.60765
G1 X119.69 Y119.69 E.60765
G1 X100.31 Y119.69 E.60765
G1 X100.31 Y100.37 E.60576
G1 E-3.5 F3600
;WIPE_START
G1 F7200
G1 X103.31 Y100.361 E-1.425
;WIPE_END
G1 E-.075 F3600
G1 X119.569 Y101.203 F9000
G1 E5 F2400
;TYPE:Solid infill
;WIDTH:0.424885
G1 F1200
G1 X118.966 Y100.6 E.02708
G1 X118.426 Y100.6 E.01716
G1 X119.4 Y101.574 E.04372
G1 X119.4 Y102.114 E.01716
G1 X117.886 Y100.6 E.06799
G1 X117.346 Y100.6 E.01716
G1 X119.4 Y102.654 E.09225
G1 X119.4 Y103.194 E.01716
G1 X116.806 Y100.6 E.11651
G1 X116.265 Y100.6 E.01716
G1 X119.4 Y103.735 E.14077
G1 X119.4 Y104.275 E.01716
G1 X115.725 Y100.6 E.16504
G1 X115.185 Y100.6 E.01716
G1 X119.4 Y104.815 E.1893
G1 X119.4 Y105.355 E.01716
G1 X114.645 Y100.6 E.21356
G1 X114.105 Y100.6 E.01716
G1 X119.4 Y105.895 E.23783
G1 X119.4 Y106.435 E.01716
G1 X113.565 Y100.6 E.26209
G1 X113.024 Y100.6 E.01716
G1 X119.4 Y106.976 E.28635
G1 X119.4 Y107.516 E.01716
G1 X112.484 Y100.6 E.31061
G1 X111.944 Y100.6 E.01716
G1 X119.4 Y108.056 E.33488
G1 X119.4 Y108.596 E.01716
G1 X111.404 Y100.6 E.35914
G1 X110.864 Y100.6 E.01716
G1 X119.4 Y109.136 E.3834
G1 X119.4 Y109.676 E.01716
G1 X110.324 Y100.6 E.40767
G1 X109.783 Y100.6 E.01716
G1 X119.4 Y110.217 E.43193
G1 X119.4 Y110.757 E.01716
G1 X109.243 Y100.6 E.45619
G1 X108.703 Y100.6 E.01716
G1 X119.4 Y111.297 E.48045
G1 X119.4 Y111.837 E.01716
G1 X108.163 Y100.6 E.50472
G1 X107.623 Y100.6 E.01716
G1 X119.4 Y112.377 E.52898
G1 X119.4 Y112.918 E.01716
G1 X107.082 Y100.6 E.55324
G1 X106.542 Y100.6 E.01716
G1 X119.4 Y113.458 E.57751
G1 X119.4 Y113.998 E.01716
G1 X106.002 Y100.6 E.60177
G1 X105.462 Y100.6 E.01716
G1 X119.4 Y114.538 E.62603
G1 X119.4 Y115.078 E.01716
G1 X104.922 Y100.6 E.65029
G1 X104.382 Y100.6 E.01716
G1 X119.4 Y115.618 E.67456
G1 X119.4 Y116.159 E.01716
G1 X103.841 Y100.6 E.69882
G1 X103.301 Y100.6 E.01716
G1 X119.4 Y116.699 E.72308
G1 X119.4 Y117.239 E.01716
G1 X102.761 Y100.6 E.74734
G1 X102.221 Y100.6 E.01716
G1 X119.4 Y117.779 E.77161
G1 X119.4 Y118.319 E.01716
G1 X101.681 Y100.6 E.79587
G1 X101.14 Y100.6 E.01716
G1 X119.4 Y118.86 E.82013
G1 X119.4 Y119.4 E.01715
G1 X100.6 Y100.6 E.84439
G1 X100.6 Y101.141 E.01716
G1 X118.859 Y119.4 E.82013
G1 X118.319 Y119.4 E.01716
G1 X100.6 Y101.681 E.79587
G1 X100.6 Y102.221 E.01716
G1 X117.779 Y119.4 E.7716
G1 X117.239 Y119.4 E.01716
G1 X100.6 Y102.761 E.74734
G1 X100.6 Y103.301 E.01716
G1 X116.699 Y119.4 E.72308
G1 X116.159 Y119.4 E.01716
G1 X100.6 Y103.841 E.69881
G1 X100.6 Y104.382 E.01716
G1 X115.618 Y119.4 E.67455
G1 X115.078 Y119.4 E.01716
G1 X100.6 Y104.922 E.65029
G1 X100.6 Y105.462 E.01716
G1 X114.538 Y119.4 E.62603
G1 X113.998 Y119.4 E.01716
G1 X100.6 Y106.002 E.60176
G1 X100.6 Y106.542 E.01716
G1 X113.458 Y119.4 E.5775
G1 X112.917 Y119.4 E.01716
G1 X100.6 Y107.083 E.55324
G1 X100.6 Y107.623 E.01716
G1 X112.377 Y119.4 E.52897
G1 X111.837 Y119.4 E.01716
G1 X100.6 Y108.163 E.50471
G1 X100.6 Y108.703 E.01716
G1 X111.297 Y119.4 E.48045
G1 X110.757 Y119.4 E.01716
G1 X100.6 Y109.243 E.45619
G1 X100.6 Y109.783 E.01716
G1 X110.217 Y119.4 E.43192
G1 X109.676 Y119.4 E.01716
G1 X100.6 Y110.324 E.40766
G1 X100.6 Y110.864 E.01716
G1 X109.136 Y119.4 E.3834
G1 X108.596 Y119.4 E.01716
G1 X100.6 Y111.404 E.35913
G1 X100.6 Y111.944 E.01716
G1 X108.056 Y119.4 E.33487
G1 X107.516 Y119.4 E.01716
G1 X100.6 Y112.484 E.31061
G1 X100.6 Y113.025 E.01716
G1 X106.975 Y119.4 E.28635
G1 X106.435 Y119.4 E.01716
G1 X100.6 Y113.565 E.26208
G1 X100.6 Y114.105 E.01716
G1 X105.895 Y119.4 E.23782
G1 X105.355 Y119.4 E.01716
G1 X100.6 Y114.645 E.21356
G1 X100.6 Y115.185 E.01716
G1 X104.815 Y119.4 E.18929
G1 X104.275 Y119.4 E.01716
G1 X100.6 Y115.725 E.16503
G1 X100.6 Y116.266 E.01716
G1 X103.734 Y119.4 E.14077
G1 X103.194 Y119.4 E.01716
G1 X100.6 Y116.806 E.11651
G1 X100.6 Y117.346 E.01716
G1 X102.654 Y119.4 E.09224
G1 X102.114 Y119.4 E.01716
G1 X100.6 Y117.886 E.06798
G1 X100.6 Y118.426 E.01716
G1 X101.574 Y119.4 E.04372
G1 X101.033 Y119.4 E.01716
G1 X100.431 Y118.797 E.02708
; stop printing object Shape-Box id:0 copy 0
M106 S255
;LAYER_CHANGE
;Z:0.4
;HEIGHT:0.2
;BEFORE_LAYER_CHANGE
G92 E0
;0.4


G1 Z0.200 F9000
;AFTER_LAYER_CHANGE
;0.4
M104 S210 ; set temperature
; printing object Shape-Box id:0 copy 0
;TYPE:External perimeter
;WIDTH:0.4
G1 F900
G1 Z0.247 X100.2 Y100.2 E0.131
G1 Z0.297 X119.8 Y100.2 E0.284
G1 Z0.347 X119.8 Y119.8 E0.429
G1 Z0.397 X100.2 Y119.8 E0.575
G1 Z0.400 X100.2 Y118.797 E0.030
; stop printing object Shape-Box id:0 copy 0
;LAYER_CHANGE
;Z:0.6
;HEIGHT:0.2
;BEFORE_LAYER_CHANGE
G92 E0
;0.6


G1 Z0.400 F9000
;AFTER_LAYER_CHANGE
;0.6
; printing object Shape-Box id:0 copy 0
G1 F900
G1 Z0.447 X100.2 Y100.2 E.55216
G1 Z0.497 X119.8 Y100.2 E.58195
G1 Z0.547 X119.8 Y119.8 E.58195
G1 Z0.597 X100.2 Y119.8 E.58195
G1 Z0.600 X100.2 Y118.797 E.02979
; stop printing object Shape-Box id:0 copy 0
;LAYER_CHANGE
;Z:0.8
;HEIGHT:0.2
;BEFORE_LAYER_CHANGE
G92 E0
;0.8


G1 Z0.600 F9000
;AFTER_LAYER_CHANGE
;0.8
; printing object Shape-Box id:0 copy 0
G1 F900
G1 Z0.647 X100.2 Y100.2 E.55216
G1 Z0.697 X119.8 Y100.2 E.58195
G1 Z0.747 X119.8 Y119.8 E.58195
G1 Z0.797 X100.2 Y119.8 E.58195
G1 Z0.800 X100.2 Y118.797 E.02979
; stop printing object Shape-Box id:0 copy 0
;LAYER_CHANGE
;Z:1
;HEIGHT:0.2
;BEFORE_LAYER_CHANGE
G92 E0
;1


G1 Z0.800 F9000
;AFTER_LAYER_CHANGE
;1
; printing object Shape-Box id:0 copy 0
G1 F900
G1 Z0.847 X100.2 Y100.2 E.55216
G1 Z0.897 X119.8 Y100.2 E.58195
G1 Z0.947 X119.8 Y119.8 E.58195
G1 Z0.997 X100.2 Y119.8 E.58195
G1 Z1.000 X100.2 Y118.797 E.02979
; stop printing object Shape-Box id:0 copy 0
;LAYER_CHANGE
;Z:1.2
;HEIGHT:0.2
;BEFORE_LAYER_CHANGE
G92 E0
;1.2


G1 Z1.000 F9000
;AFTER_LAYER_CHANGE
;1.2
; printing object Shape-Box id:0 copy 0
G1 F900
G1 Z1.047 X100.2 Y100.2 E.55216
G1 Z1.097 X119.8 Y100.2 E.58195
G1 Z1.147 X119.8 Y119.8 E.58195
G1 Z1.197 X100.2 Y119.8 E.58195
G1 Z1.200 X100.2 Y118.797 E.02979
; stop printing object Shape-Box id:0 copy 0
;LAYER_CHANGE
;Z:1.4
;HEIGHT:0.2
;BEFORE_LAYER_CHANGE
G92 E0
;1.4


G1 Z1.200 F9000
;AFTER_LAYER_CHANGE
;1.4
; printing object Shape-Box id:0 copy 0
G1 F900
G1 Z1.247 X100.2 Y100.2 E.55216
G1 Z1.297 X119.8 Y100.2 E.58195
G1 Z1.347 X119.8 Y119.8 E.58195
G1 Z1.397 X100.2 Y119.8 E.58195
G1 Z1.400 X100.2 Y118.797 E.02979
; stop printing object Shape-Box id:0 copy 0
;LAYER_CHANGE
;Z:1.6
;HEIGHT:0.2
;BEFORE_LAYER_CHANGE
G92 E0
;1.6


G1 Z1.400 F9000
;AFTER_LAYER_CHANGE
;1.6
; printing object Shape-Box id:0 copy 0
G1 F900
G1 Z1.447 X100.2 Y100.2 E.55216
G1 Z1.497 X119.8 Y100.2 E.58195
G1 Z1.547 X119.8 Y119.8 E.58195
G1 Z1.597 X100.2 Y119.8 E.58195
G1 Z1.600 X100.2 Y118.797 E.02979
; stop printing object Shape-Box id:0 copy 0
;LAYER_CHANGE
;Z:1.8
;HEIGHT:0.2
;BEFORE_LAYER_CHANGE
G92 E0
;1.8


G1 Z1.600 F9000
;AFTER_LAYER_CHANGE
;1.8
; printing object Shape-Box id:0 copy 0
G1 F900
G1 Z1.647 X100.2 Y100.2 E.55216
G1 Z1.697 X119.8 Y100.2 E.58195
G1 Z1.747 X119.8 Y119.8 E.58195
G1 Z1.797 X100.2 Y119.8 E.58195
G1 Z1.800 X100.2 Y118.797 E.02979
; stop printing object Shape-Box id:0 copy 0
;LAYER_CHANGE
;Z:2
;HEIGHT:0.2
;BEFORE_LAYER_CHANGE
G92 E0
;2


G1 Z1.800 F9000
;AFTER_LAYER_CHANGE
;2
; printing object Shape-Box id:0 copy 0
G1 F900
G1 Z1.847 X100.2 Y100.2 E.55216
G1 Z1.897 X119.8 Y100.2 E.58195
G1 Z1.947 X119.8 Y119.8 E.58195
G1 Z1.997 X100.2 Y119.8 E.58195
G1 Z2.000 X100.2 Y118.797 E.02979
; stop printing object Shape-Box id:0 copy 0
;LAYER_CHANGE
;Z:2.2
;HEIGHT:0.2
;BEFORE_LAYER_CHANGE
G92 E0
;2.2


G1 Z2.000 F9000
;AFTER_LAYER_CHANGE
;2.2
; printing object Shape-Box id:0 copy 0
G1 F900
G1 Z2.047 X100.2 Y100.2 E.55216
G1 Z2.097 X119.8 Y100.2 E.58195
G1 Z2.147 X119.8 Y119.8 E.58195
G1 Z2.197 X100.2 Y119.8 E.58195
G1 Z2.200 X100.2 Y118.797 E.02979
; stop printing object Shape-Box id:0 copy 0
;LAYER_CHANGE
;Z:2.4
;HEIGHT:0.2
;BEFORE_LAYER_CHANGE
G92 E0
;2.4


G1 Z2.200 F9000
;AFTER_LAYER_CHANGE
;2.4
; printing object Shape-Box id:0 copy 0
G1 F900
G1 Z2.247 X100.2 Y100.2 E.55216
G1 Z2.297 X119.8 Y100.2 E.58195
G1 Z2.347 X119.8 Y119.8 E.58195
G1 Z2.397 X100.2 Y119.8 E.58195
G1 Z2.400 X100.2 Y118.797 E.02979
; stop printing object Shape-Box id:0 copy 0
;LAYER_CHANGE
;Z:2.6
;HEIGHT:0.2
;BEFORE_LAYER_CHANGE
G92 E0
;2.6


G1 Z2.400 F9000
;AFTER_LAYER_CHANGE
;2.6
; printing object Shape-Box id:0 copy 0
G1 F900
G1 Z2.447 X100.2 Y100.2 E.55216
G1 Z2.497 X119.8 Y100.2 E.58195
G1 Z2.547 X119.8 Y119.8 E.58195
G1 Z2.597 X100.2 Y119.8 E.58195
G1 Z2.600 X100.2 Y118.797 E.02979
; stop printing object Shape-Box id:0 copy 0
;LAYER_CHANGE
;Z:2.8
;HEIGHT:0.2
;BEFORE_LAYER_CHANGE
G92 E0
;2.8


G1 Z2.600 F9000
;AFTER_LAYER_CHANGE
;2.8
; printing object Shape-Box id:0 copy 0
G1 F900
G1 Z2.647 X100.2 Y100.2 E.55216
G1 Z2.697 X119.8 Y100.2 E.58195
G1 Z2.747 X119.8 Y119.8 E.58195
G1 Z2.797 X100.2 Y119.8 E.58195
G1 Z2.800 X100.2 Y118.797 E.02979
; stop printing object Shape-Box id:0 copy 0
;LAYER_CHANGE
;Z:3
;HEIGHT:0.2
;BEFORE_LAYER_CHANGE
G92 E0
;3


G1 Z2.800 F9000
;AFTER_LAYER_CHANGE
;3
; printing object Shape-Box id:0 copy 0
G1 F900
G1 Z2.847 X100.2 Y100.2 E.55216
G1 Z2.897 X119.8 Y100.2 E.58195
G1 Z2.947 X119.8 Y119.8 E.58195
G1 Z2.997 X100.2 Y119.8 E.58195
G1 Z3.000 X100.2 Y118.797 E.02979
; stop printing object Shape-Box id:0 copy 0
;LAYER_CHANGE
;Z:3.2
;HEIGHT:0.2
;BEFORE_LAYER_CHANGE
G92 E0
;3.2


G1 Z3.000 F9000
;AFTER_LAYER_CHANGE
;3.2
; printing object Shape-Box id:0 copy 0
G1 F900
G1 Z3.047 X100.2 Y100.2 E.55216
G1 Z3.097 X119.8 Y100.2 E.58195
G1 Z3.147 X119.8 Y119.8 E.58195
G1 Z3.197 X100.2 Y119.8 E.58195
G1 Z3.200 X100.2 Y118.797 E.02979
; stop printing object Shape-Box id:0 copy 0
;LAYER_CHANGE
;Z:3.4
;HEIGHT:0.2
;BEFORE_LAYER_CHANGE
G92 E0
;3.4


G1 Z3.200 F9000
;AFTER_LAYER_CHANGE
;3.4
; printing object Shape-Box id:0 copy 0
G1 F900
G1 Z3.247 X100.2 Y100.2 E.55216
G1 Z3.297 X119.8 Y100.2 E.58195
G1 Z3.347 X119.8 Y119.8 E.58195
G1 Z3.397 X100.2 Y119.8 E.58195
G1 Z3.400 X100.2 Y118.797 E.02979
; stop printing object Shape-Box id:0 copy 0
;LAYER_CHANGE
;Z:3.6
;HEIGHT:0.2
;BEFORE_LAYER_CHANGE
G92 E0
;3.6


G1 Z3.400 F9000
;AFTER_LAYER_CHANGE
;3.6
; printing object Shape-Box id:0 copy 0
G1 F900
G1 Z3.447 X100.2 Y100.2 E.55216
G1 Z3.497 X119.8 Y100.2 E.58195
G1 Z3.547 X119.8 Y119.8 E.58195
G1 Z3.597 X100.2 Y119.8 E.58195
G1 Z3.600 X100.2 Y118.797 E.02979
; stop printing object Shape-Box id:0 copy 0
;LAYER_CHANGE
;Z:3.8
;HEIGHT:0.2
;BEFORE_LAYER_CHANGE
G92 E0
;3.8


G1 Z3.600 F9000
;AFTER_LAYER_CHANGE
;3.8
; printing object Shape-Box id:0 copy 0
G1 F900
G1 Z3.647 X100.2 Y100.2 E.55216
G1 Z3.697 X119.8 Y100.2 E.58195
G1 Z3.747 X119.8 Y119.8 E.58195
G1 Z3.797 X100.2 Y119.8 E.58195
G1 Z3.800 X100.2 Y118.797 E.02979
; stop printing object Shape-Box id:0 copy 0
;LAYER_CHANGE
;Z:4
;HEIGHT:0.2
;BEFORE_LAYER_CHANGE
G92 E0
;4


G1 Z3.800 F9000
;AFTER_LAYER_CHANGE
;4
; printing object Shape-Box id:0 copy 0
G1 F900
G1 Z3.847 X100.2 Y100.2 E.55216
G1 Z3.897 X119.8 Y100.2 E.58195
G1 Z3.947 X119.8 Y119.8 E.58195
G1 Z3.997 X100.2 Y119.8 E.58195
G1 Z4.000 X100.2 Y118.797 E.02979
; stop printing object Shape-Box id:0 copy 0
;LAYER_CHANGE
;Z:4.2
;HEIGHT:0.2
;BEFORE_LAYER_CHANGE
G92 E0
;4.2


G1 Z4.000 F9000
;AFTER_LAYER_CHANGE
;4.2
; printing object Shape-Box id:0 copy 0
G1 F900
G1 Z4.047 X100.2 Y100.2 E.55216
G1 Z4.097 X119.8 Y100.2 E.58195
G1 Z4.147 X119.8 Y119.8 E.58195
G1 Z4.197 X100.2 Y119.8 E.58195
G1 Z4.200 X100.2 Y118.797 E.02979
; stop printing object Shape-Box id:0 copy 0
;LAYER_CHANGE
;Z:4.4
;HEIGHT:0.2
;BEFORE_LAYER_CHANGE
G92 E0
;4.4


G1 Z4.200 F9000
;AFTER_LAYER_CHANGE
;4.4
; printing object Shape-Box id:0 copy 0
G1 F900
G1 Z4.247 X100.2 Y100.2 E.55216
G1 Z4.297 X119.8 Y100.2 E.58195
G1 Z4.347 X119.8 Y119.8 E.58195
G1 Z4.397 X100.2 Y119.8 E.58195
G1 Z4.400 X100.2 Y118.797 E.02979
; stop printing object Shape-Box id:0 copy 0
;LAYER_CHANGE
;Z:4.6
;HEIGHT:0.2
;BEFORE_LAYER_CHANGE
G92 E0
;4.6


G1 Z4.400 F9000
;AFTER_LAYER_CHANGE
;4.6
; printing object Shape-Box id:0 copy 0
G1 F900
G1 Z4.447 X100.2 Y100.2 E.55216
G1 Z4.497 X119.8 Y100.2 E.58195
G1 Z4.547 X119.8 Y119.8 E.58195
G1 Z4.597 X100.2 Y119.8 E.58195
G1 Z4.600 X100.2 Y118.797 E.02979
; stop printing object Shape-Box id:0 copy 0
;LAYER_CHANGE
;Z:4.8
;HEIGHT:0.2
;BEFORE_LAYER_CHANGE
G92 E0
;4.8


G1 Z4.600 F9000
;AFTER_LAYER_CHANGE
;4.8
; printing object Shape-Box id:0 copy 0
G1 F900
G1 Z4.647 X100.2 Y100.2 E.55216
G1 Z4.697 X119.8 Y100.2 E.58195
G1 Z4.747 X119.8 Y119.8 E.58195
G1 Z4.797 X100.2 Y119.8 E.58195
G1 Z4.800 X100.2 Y118.797 E.02979
; stop printing object Shape-Box id:0 copy 0
;LAYER_CHANGE
;Z:5
;HEIGHT:0.2
;BEFORE_LAYER_CHANGE
G92 E0
;5


G1 Z4.800 F9000
;AFTER_LAYER_CHANGE
;5
; printing object Shape-Box id:0 copy 0
G1 F900
G1 Z4.847 X100.2 Y100.2 E.55216
G1 Z4.897 X119.8 Y100.2 E.58195
G1 Z4.947 X119.8 Y119.8 E.58195
G1 Z4.997 X100.2 Y119.8 E.58195
G1 Z5.000 X100.2 Y118.797 E.02979
; stop printing object Shape-Box id:0 copy 0
;LAYER_CHANGE
;Z:5.2
;HEIGHT:0.2
;BEFORE_LAYER_CHANGE
G92 E0
;5.2


G1 Z5.000 F9000
;AFTER_LAYER_CHANGE
;5.2
; printing object Shape-Box id:0 copy 0
G1 F900
G1 Z5.047 X100.2 Y100.2 E.55216
G1 Z5.097 X119.8 Y100.2 E.58195
G1 Z5.147 X119.8 Y119.8 E.58195
G1 Z5.197 X100.2 Y119.8 E.58195
G1 Z5.200 X100.2 Y118.797 E.02979
; stop printing object Shape-Box id:0 copy 0
;LAYER_CHANGE
;Z:5.4
;HEIGHT:0.2
;BEFORE_LAYER_CHANGE
G92 E0
;5.4


G1 Z5.200 F9000
;AFTER_LAYER_CHANGE
;5.4
