; G-Code originally generated by Simplify3D(R) Version 4.1.2
; This calibration test gcode modified by the Teaching Tech Calibration website: https://teachingtechyt.github.io/calibration.html
;M80 ; power supply on
G90
M82
M106 S0
M140 S55 ; custom bed temp
M190 S55 ; custom bed temp
M104 S150 T0 ; custom hot end temp minus 50 degrees
G28 ; home all axes
;G29 ; probe ABL
M420 S1 ; restore ABL mesh
M109 S200 T0 ; custom hot end temp 
;customstart
G0 Z3; fix for delta printers that home at max
;process Process-1
;layer 1, Z = 0.200
T0
G92 E0.0000
G1 E-5 F1800 ; custom retraction - A
;fan1;
G1 Z0.200 F1200
G1 X87.9380 Y103.1360 F6000
G1 E0 F1800 ; custom un-retraction/prime - A
G92 E0.0000
G1 X142.0470 Y103.1360 E2.3324 F1800
G1 X142.1410 Y103.1390 E2.3364
G1 X142.9330 Y103.1910 E2.3707
G1 X143.1190 Y103.2160 E2.3788
G1 X143.9450 Y103.3800 E2.4150
G1 X144.1260 Y103.4280 E2.4231
G1 X144.9230 Y103.6990 E2.4594
G1 X145.0960 Y103.7700 E2.4675
G1 X145.8650 Y104.1500 E2.5044
G1 X146.0530 Y104.2610 E2.5139
G1 X146.9460 Y104.8860 E2.5609
G1 X147.1150 Y105.0250 E2.5703
G1 X147.7350 Y105.6180 E2.6072
G1 X147.8610 Y105.7560 E2.6153
G1 X148.3780 Y106.4000 E2.6509
G1 X148.4690 Y106.5270 E2.6577
G1 X148.7790 Y107.0140 E2.6825
G1 X148.8420 Y107.1220 E2.6879
G1 X149.1080 Y107.6340 E2.7128
G1 X149.1720 Y107.7760 E2.7195
G1 X149.4720 Y108.5460 E2.7551
G1 X149.5280 Y108.7250 E2.7632
G1 X149.7320 Y109.5570 E2.8001
G1 X149.7680 Y109.7730 E2.8096
G1 X149.8590 Y110.8130 E2.8546
G1 X149.8640 Y110.9380 E2.8599
G1 X149.8640 Y119.0470 E3.2095
G1 X149.8610 Y119.1410 E3.2135
G1 X149.8080 Y119.9490 E3.2485
G1 X149.7770 Y120.1660 E3.2579
G1 X149.5440 Y121.2150 E3.3042
G1 X149.4920 Y121.3950 E3.3123
G1 X149.2790 Y121.9810 E3.3392
G1 X149.2030 Y122.1530 E3.3473
G1 X148.7000 Y123.1200 E3.3943
G1 X148.5650 Y123.3310 E3.4051
G1 X147.9010 Y124.1960 E3.4521
G1 X147.7780 Y124.3370 E3.4601
G1 X147.3370 Y124.7780 E3.4870
G1 X147.1960 Y124.9010 E3.4951
G1 X146.3560 Y125.5460 E3.5408
G1 X146.2000 Y125.6500 E3.5488
G1 X145.6870 Y125.9470 E3.5744
G1 X145.5760 Y126.0040 E3.5798
G1 X145.0530 Y126.2480 E3.6046
G1 X144.9080 Y126.3060 E3.6114
G1 X144.1110 Y126.5770 E3.6476
G1 X143.8990 Y126.6310 E3.6571
G1 X142.8410 Y126.8180 E3.7034
G1 X142.6540 Y126.8380 E3.7115
G1 X142.0940 Y126.8630 E3.7357
G1 X142.0310 Y126.8640 E3.7384
G1 X87.9530 Y126.8640 E6.0694
G1 X87.8590 Y126.8610 E6.0734
G1 X87.0660 Y126.8090 E6.1077
G1 X86.8810 Y126.7840 E6.1158
G1 X86.0550 Y126.6200 E6.1521
G1 X85.8740 Y126.5720 E6.1601
G1 X85.0920 Y126.3060 E6.1957
G1 X84.9470 Y126.2480 E6.2025
G1 X84.4240 Y126.0040 E6.2273
G1 X84.3130 Y125.9470 E6.2327
G1 X83.8140 Y125.6580 E6.2576
G1 X83.6830 Y125.5730 E6.2643
G1 X83.0170 Y125.0840 E6.2999
G1 X82.8730 Y124.9640 E6.3080
G1 X82.2650 Y124.3820 E6.3443
G1 X82.1390 Y124.2440 E6.3524
G1 X81.6020 Y123.5750 E6.3893
G1 X81.4790 Y123.3950 E6.3987
G1 X80.9330 Y122.4500 E6.4457
G1 X80.8390 Y122.2530 E6.4552
G1 X80.5280 Y121.4540 E6.4921
G1 X80.4720 Y121.2750 E6.5002
G1 X80.2720 Y120.4580 E6.5365
G1 X80.2390 Y120.2730 E6.5446
G1 X80.1490 Y119.4520 E6.5802
G1 X80.1410 Y119.2960 E6.5869
G1 X80.1410 Y110.6880 E6.9580
G1 X80.1530 Y110.5010 E6.9660
G1 X80.2910 Y109.4510 E7.0117
G1 X80.3280 Y109.2670 E7.0198
G1 X80.4890 Y108.6650 E7.0467
G1 X80.5500 Y108.4870 E7.0547
G1 X80.9550 Y107.5090 E7.1004
G1 X81.0380 Y107.3400 E7.1085
G1 X81.3500 Y106.8000 E7.1354
G1 X81.4540 Y106.6440 E7.1434
G1 X82.1180 Y105.7790 E7.1904
G1 X82.2870 Y105.5950 E7.2012
G1 X83.1020 Y104.8480 E7.2489
G1 X83.2740 Y104.7130 E7.2583
G1 X84.0000 Y104.2280 E7.2960
G1 X84.1900 Y104.1200 E7.3054
G1 X85.1640 Y103.6660 E7.3517
G1 X85.3390 Y103.5980 E7.3598
G1 X85.9040 Y103.4200 E7.3853
G1 X86.0250 Y103.3880 E7.3907
G1 X86.6030 Y103.2600 E7.4163
G1 X86.7890 Y103.2310 E7.4243
G1 X87.8130 Y103.1410 E7.4686
G1 X87.9380 Y103.1360 E7.4740
G92 E0.0000
G1 E-5 F1800 ; custom retraction - A
;zhop1
G1 X87.9500 Y103.7120 F6000
G1 Z0.200 F1200
G1 E0 F1800 ; custom un-retraction/prime - A
G92 E0.0000
G1 X142.0370 Y103.7120 E2.3314 F1800
G1 X142.1120 Y103.7140 E2.3347
G1 X142.8770 Y103.7650 E2.3677
G1 X143.0260 Y103.7840 E2.3742
G1 X143.8140 Y103.9410 E2.4088
G1 X143.9590 Y103.9800 E2.4153
G1 X144.7200 Y104.2380 E2.4499
G1 X144.8580 Y104.2950 E2.4564
G1 X145.5900 Y104.6560 E2.4916
G1 X145.7410 Y104.7460 E2.4991
G1 X146.5980 Y105.3460 E2.5442
G1 X146.7330 Y105.4570 E2.5517
G1 X147.3230 Y106.0210 E2.5869
G1 X147.4240 Y106.1320 E2.5934
G1 X147.9190 Y106.7490 E2.6275
G1 X147.9920 Y106.8500 E2.6329
G1 X148.2870 Y107.3130 E2.6565
G1 X148.3370 Y107.3990 E2.6608
G1 X148.5900 Y107.8860 E2.6845
G1 X148.6410 Y107.9990 E2.6898
G1 X148.9280 Y108.7370 E2.7240
G1 X148.9730 Y108.8800 E2.7304
G1 X149.1670 Y109.6730 E2.7656
G1 X149.1960 Y109.8450 E2.7731
G1 X149.2840 Y110.8500 E2.8166
G1 X149.2880 Y110.9500 E2.8209
G1 X149.2880 Y119.0370 E3.1695
G1 X149.2860 Y119.1120 E3.1728
G1 X149.2350 Y119.8890 E3.2063
G1 X149.2100 Y120.0630 E3.2139
G1 X148.9860 Y121.0720 E3.2584
G1 X148.9440 Y121.2160 E3.2649
G1 X148.7440 Y121.7660 E3.2902
G1 X148.6830 Y121.9030 E3.2966
G1 X148.2000 Y122.8320 E3.3417
G1 X148.0930 Y123.0000 E3.3503
G1 X147.4560 Y123.8300 E3.3954
G1 X147.3570 Y123.9430 E3.4019
G1 X146.9430 Y124.3570 E3.4271
G1 X146.8300 Y124.4560 E3.4336
G1 X146.0200 Y125.0780 E3.4776
G1 X145.8950 Y125.1610 E3.4841
G1 X145.4100 Y125.4410 E3.5083
G1 X145.3210 Y125.4880 E3.5126
G1 X144.8240 Y125.7190 E3.5362
G1 X144.7080 Y125.7660 E3.5416
G1 X143.9470 Y126.0240 E3.5762
G1 X143.7770 Y126.0680 E3.5838
G1 X142.7590 Y126.2470 E3.6283
G1 X142.6100 Y126.2640 E3.6348
G1 X142.0750 Y126.2870 E3.6579
G1 X142.0250 Y126.2880 E3.6601
G1 X87.9630 Y126.2880 E5.9904
G1 X87.8880 Y126.2860 E5.9937
G1 X87.1230 Y126.2350 E6.0267
G1 X86.9740 Y126.2160 E6.0331
G1 X86.1860 Y126.0590 E6.0678
G1 X86.0410 Y126.0200 E6.0743
G1 X85.2920 Y125.7660 E6.1084
G1 X85.1760 Y125.7190 E6.1137
G1 X84.6790 Y125.4880 E6.1374
G1 X84.5900 Y125.4410 E6.1417
G1 X84.1150 Y125.1670 E6.1653
G1 X84.0110 Y125.0990 E6.1707
G1 X83.3730 Y124.6310 E6.2048
G1 X83.2580 Y124.5350 E6.2113
G1 X82.6770 Y123.9790 E6.2459
G1 X82.5760 Y123.8680 E6.2524
G1 X82.0650 Y123.2320 E6.2876
G1 X81.9660 Y123.0880 E6.2951
G1 X81.4430 Y122.1810 E6.3402
G1 X81.3680 Y122.0240 E6.3478
G1 X81.0720 Y121.2630 E6.3829
G1 X81.0270 Y121.1200 E6.3894
G1 X80.8360 Y120.3390 E6.4240
G1 X80.8100 Y120.1920 E6.4305
G1 X80.7240 Y119.4050 E6.4646
G1 X80.7170 Y119.2810 E6.4700
G1 X80.7170 Y110.7070 E6.8396
G1 X80.7270 Y110.5580 E6.8460
G1 X80.8600 Y109.5450 E6.8900
G1 X80.8890 Y109.3980 E6.8965
G1 X81.0410 Y108.8320 E6.9218
G1 X81.0890 Y108.6900 E6.9282
G1 X81.4800 Y107.7460 E6.9722
G1 X81.5460 Y107.6120 E6.9787
G1 X81.8390 Y107.1050 E7.0040
G1 X81.9220 Y106.9800 E7.0104
G1 X82.5590 Y106.1500 E7.0555
G1 X82.6940 Y106.0030 E7.0641
G1 X83.4750 Y105.2870 E7.1098
G1 X83.6120 Y105.1790 E7.1173
G1 X84.3020 Y104.7190 E7.1530
G1 X84.4540 Y104.6330 E7.1606
G1 X85.3910 Y104.1960 E7.2051
G1 X85.5300 Y104.1420 E7.2116
G1 X86.0650 Y103.9730 E7.2358
G1 X86.1620 Y103.9470 E7.2401
G1 X86.7100 Y103.8260 E7.2643
G1 X86.8580 Y103.8030 E7.2707
G1 X87.8500 Y103.7160 E7.3137
G1 X87.9500 Y103.7120 E7.3180
G92 E0.0000
G1 E-5 F1800 ; custom retraction - A
;zhop1
G1 X88.0060 Y106.2880 F6000
G1 X88.0310 Y107.4400
G1 Z0.200 F1200
G1 E0 F1800 ; custom un-retraction/prime - A
G92 E0.0000
G1 X141.9530 Y107.4400 E2.3243 F1440
G1 X142.4640 Y107.4740 E2.3464
G1 X142.9210 Y107.5640 E2.3664
G1 X143.3610 Y107.7140 E2.3865
G1 X143.7930 Y107.9270 E2.4072
G1 X144.0410 Y108.0850 E2.4199
G1 X144.2750 Y108.2640 E2.4326
G1 X144.6220 Y108.5970 E2.4534
G1 X144.9240 Y108.9720 E2.4741
G1 X145.0820 Y109.2210 E2.4868
G1 X145.2180 Y109.4820 E2.4995
G1 X145.3920 Y109.9300 E2.5203
G1 X145.5070 Y110.3980 E2.5410
G1 X145.5450 Y110.6900 E2.5537
G1 X145.5600 Y111.0310 E2.5684
G1 X145.5600 Y118.9530 E2.9099
G1 X145.5250 Y119.4800 E2.9327
G1 X145.4740 Y119.7700 E2.9454
G1 X145.3940 Y120.0700 E2.9587
G1 X145.2880 Y120.3620 E2.9721
G1 X145.1570 Y120.6430 E2.9855
G1 X145.0010 Y120.9120 E2.9989
G1 X144.8230 Y121.1660 E3.0123
G1 X144.6240 Y121.4040 E3.0257
G1 X144.4040 Y121.6240 E3.0390
G1 X144.1660 Y121.8230 E3.0524
G1 X143.9120 Y122.0010 E3.0658
G1 X143.6430 Y122.1570 E3.0792
G1 X143.3760 Y122.2810 E3.0919
G1 X142.9060 Y122.4410 E3.1133
G1 X142.6180 Y122.5050 E3.1260
G1 X142.3100 Y122.5450 E3.1394
G1 X141.9690 Y122.5600 E3.1541
G1 X88.0470 Y122.5600 E5.4784
G1 X87.5360 Y122.5260 E5.5005
G1 X87.0790 Y122.4360 E5.5206
G1 X86.6240 Y122.2810 E5.5413
G1 X86.3570 Y122.1570 E5.5540
G1 X86.1010 Y122.0090 E5.5667
G1 X85.7140 Y121.7250 E5.5874
G1 X85.3780 Y121.4030 E5.6075
G1 X85.0770 Y121.0280 E5.6282
G1 X84.9180 Y120.7790 E5.6409
G1 X84.7820 Y120.5180 E5.6536
G1 X84.6080 Y120.0690 E5.6744
G1 X84.4970 Y119.6180 E5.6944
G1 X84.4450 Y119.1390 E5.7152
G1 X84.4450 Y110.8450 E6.0727
G1 X84.4720 Y110.5350 E6.0861
G1 X84.5260 Y110.2300 E6.0995
G1 X84.6060 Y109.9300 E6.1128
G1 X84.7120 Y109.6380 E6.1262
G1 X84.8430 Y109.3570 E6.1396
G1 X84.9990 Y109.0880 E6.1530
G1 X85.1770 Y108.8340 E6.1664
G1 X85.3760 Y108.5960 E6.1798
G1 X85.5960 Y108.3760 E6.1931
G1 X85.8220 Y108.1870 E6.2058
G1 X86.2350 Y107.9110 E6.2272
G1 X86.4960 Y107.7750 E6.2400
G1 X86.7830 Y107.6560 E6.2533
G1 X87.0790 Y107.5630 E6.2667
G1 X87.3820 Y107.4950 E6.2801
G1 X87.6900 Y107.4550 E6.2935
G1 X88.0310 Y107.4400 E6.3082
G1 X88.0190 Y106.8640 F6000
G92 E0.0000
G1 X141.9720 Y106.8640 E2.3256 F1440
G1 X142.5400 Y106.9010 E2.3502
G1 X143.0700 Y107.0070 E2.3735
G1 X143.5820 Y107.1810 E2.3968
G1 X144.0760 Y107.4240 E2.4205
G1 X144.3720 Y107.6130 E2.4357
G1 X144.6500 Y107.8260 E2.4508
G1 X145.0480 Y108.2070 E2.4745
G1 X145.3920 Y108.6360 E2.4982
G1 X145.5810 Y108.9320 E2.5134
G1 X145.7430 Y109.2440 E2.5285
G1 X145.9430 Y109.7570 E2.5522
G1 X146.0740 Y110.2910 E2.5760
G1 X146.1190 Y110.6400 E2.5911
G1 X146.1360 Y111.0190 E2.6075
G1 X146.1360 Y118.9720 E2.9503
G1 X146.0980 Y119.5490 E2.9752
G1 X146.0370 Y119.8950 E2.9904
G1 X145.9440 Y120.2430 E3.0059
G1 X145.8200 Y120.5820 E3.0215
G1 X145.6680 Y120.9090 E3.0370
G1 X145.4880 Y121.2220 E3.0526
G1 X145.2810 Y121.5170 E3.0681
G1 X145.0490 Y121.7940 E3.0837
G1 X144.7940 Y122.0490 E3.0992
G1 X144.5170 Y122.2810 E3.1148
G1 X144.2220 Y122.4870 E3.1303
G1 X143.9090 Y122.6680 E3.1459
G1 X143.5910 Y122.8160 E3.1610
G1 X143.0610 Y122.9960 E3.1851
G1 X142.7180 Y123.0720 E3.2003
G1 X142.3600 Y123.1190 E3.2158
G1 X141.9810 Y123.1360 E3.2322
G1 X88.0280 Y123.1360 E5.5578
G1 X87.4600 Y123.0990 E5.5824
G1 X86.9300 Y122.9930 E5.6057
G1 X86.4090 Y122.8160 E5.6294
G1 X86.0910 Y122.6680 E5.6445
G1 X85.7860 Y122.4920 E5.6597
G1 X85.3430 Y122.1670 E5.6834
G1 X84.9520 Y121.7930 E5.7067
G1 X84.6080 Y121.3640 E5.7304
G1 X84.4190 Y121.0680 E5.7456
G1 X84.2570 Y120.7560 E5.7607
G1 X84.0570 Y120.2430 E5.7844
G1 X83.9290 Y119.7180 E5.8077
G1 X83.8690 Y119.1710 E5.8315
G1 X83.8690 Y110.8200 E6.1914
G1 X83.9000 Y110.4600 E6.2070
G1 X83.9630 Y110.1050 E6.2225
G1 X84.0560 Y109.7570 E6.2381
G1 X84.1800 Y109.4170 E6.2536
G1 X84.3320 Y109.0910 E6.2692
G1 X84.5120 Y108.7780 E6.2847
G1 X84.7190 Y108.4830 E6.3003
G1 X84.9510 Y108.2060 E6.3158
G1 X85.2060 Y107.9510 E6.3314
G1 X85.4750 Y107.7250 E6.3465
G1 X85.9410 Y107.4140 E6.3707
G1 X86.2520 Y107.2520 E6.3858
G1 X86.5860 Y107.1140 E6.4013
G1 X86.9300 Y107.0060 E6.4169
G1 X87.2820 Y106.9280 E6.4325
G1 X87.6400 Y106.8810 E6.4480
G1 X88.0190 Y106.8640 E6.4644
G1 X88.0060 Y106.2880 F6000
G92 E0.0000
G1 X141.9910 Y106.2880 E2.3270 F1080
G1 X142.6150 Y106.3290 E2.3540
G1 X143.2190 Y106.4490 E2.3805
G1 X143.8030 Y106.6470 E2.4071
G1 X144.3590 Y106.9210 E2.4338
G1 X144.7030 Y107.1400 E2.4514
G1 X145.0260 Y107.3890 E2.4690
G1 X145.4740 Y107.8170 E2.4957
G1 X145.8610 Y108.3000 E2.5224
G1 X146.0800 Y108.6440 E2.5399
G1 X146.2690 Y109.0060 E2.5575
G1 X146.4930 Y109.5830 E2.5842
G1 X146.6410 Y110.1850 E2.6109
G1 X146.6940 Y110.5890 E2.6285
G1 X146.7120 Y111.0060 E2.6465
G1 X146.7120 Y118.9910 E2.9907
G1 X146.6710 Y119.6180 E3.0178
G1 X146.6000 Y120.0200 E3.0354
G1 X146.4940 Y120.4170 E3.0531
G1 X146.3530 Y120.8030 E3.0708
G1 X146.1790 Y121.1760 E3.0885
G1 X145.9740 Y121.5320 E3.1062
G1 X145.7380 Y121.8680 E3.1240
G1 X145.4740 Y122.1830 E3.1417
G1 X145.1830 Y122.4740 E3.1594
G1 X144.8680 Y122.7380 E3.1771
G1 X144.5320 Y122.9740 E3.1948
G1 X144.1760 Y123.1790 E3.2125
G1 X143.8060 Y123.3520 E3.2301
G1 X143.2160 Y123.5520 E3.2570
G1 X142.8180 Y123.6400 E3.2745
G1 X142.4110 Y123.6940 E3.2923
G1 X141.9940 Y123.7120 E3.3103
G1 X88.0090 Y123.7120 E5.6372
G1 X87.3850 Y123.6710 E5.6642
G1 X86.7810 Y123.5510 E5.6908
G1 X86.1940 Y123.3520 E5.7175
G1 X85.8240 Y123.1790 E5.7351
G1 X85.4710 Y122.9750 E5.7526
G1 X84.9720 Y122.6090 E5.7794
G1 X84.5260 Y122.1830 E5.8059
G1 X84.1390 Y121.7000 E5.8326
G1 X83.9200 Y121.3560 E5.8502
G1 X83.7310 Y120.9940 E5.8678
G1 X83.5070 Y120.4170 E5.8945
G1 X83.3600 Y119.8180 E5.9210
G1 X83.2930 Y119.2020 E5.9477
G1 X83.2930 Y110.7940 E6.3102
G1 X83.3290 Y110.3850 E6.3279
G1 X83.4000 Y109.9800 E6.3456
G1 X83.5060 Y109.5830 E6.3633
G1 X83.6470 Y109.1970 E6.3810
G1 X83.8210 Y108.8240 E6.3988
G1 X84.0260 Y108.4680 E6.4165
G1 X84.2620 Y108.1320 E6.4342
G1 X84.5260 Y107.8170 E6.4519
G1 X84.8170 Y107.5260 E6.4696
G1 X85.1290 Y107.2640 E6.4872
G1 X85.6470 Y106.9180 E6.5141
G1 X86.0090 Y106.7300 E6.5316
G1 X86.3890 Y106.5720 E6.5494
G1 X86.7810 Y106.4490 E6.5671
G1 X87.1820 Y106.3600 E6.5848
G1 X87.5890 Y106.3060 E6.6025
G1 X88.0060 Y106.2880 E6.6205
G1 X87.0250 Y122.0520 F6000
G92 E0.0000
G1 X84.9380 Y119.9650 E0.1272 F1440
G1 X84.8380 Y119.5580 E0.1453
G1 X84.7900 Y119.1210 E0.1643
G1 X84.7900 Y119.0030 E0.1693
G1 X87.9980 Y122.2100 E0.3649
G1 X88.0580 Y122.2140 E0.3675
G1 X88.8160 Y122.2140 E0.4002
G1 X84.7900 Y118.1880 E0.6456
G1 X84.7900 Y117.3740 E0.6807
G1 X89.6310 Y122.2140 E0.9758
G1 X90.4460 Y122.2140 E1.0109
G1 X84.7900 Y116.5590 E1.3556
G1 X84.7900 Y115.7450 E1.3907
G1 X91.2600 Y122.2140 E1.7851
G1 X92.0750 Y122.2140 E1.8202
G1 X84.7900 Y114.9300 E2.2643
G1 X84.7900 Y114.1150 E2.2994
G1 X92.8890 Y122.2140 E2.7931
G1 X93.7040 Y122.2140 E2.8282
G1 X84.7900 Y113.3010 E3.3716
G1 X84.7900 Y112.4860 E3.4067
G1 X94.5180 Y122.2140 E3.9997
G1 X95.3330 Y122.2140 E4.0348
G1 X84.7900 Y111.6720 E4.6775
G1 X84.7900 Y110.8600 E4.7125
G1 X96.1480 Y122.2140 E5.4050
G1 X96.9620 Y122.2140 E5.4401
G1 X84.9030 Y110.1560 E6.1752
G1 X84.9360 Y110.0340 E6.1806
G1 X85.0320 Y109.7700 E6.1927
G1 X85.1280 Y109.5650 E6.2024
G1 X97.7770 Y122.2140 E6.9735
G1 X98.5910 Y122.2140 E7.0087
G1 X85.4390 Y109.0620 E7.8104
G1 X85.4510 Y109.0440 E7.8114
G1 X85.6310 Y108.8300 E7.8234
G1 X85.8260 Y108.6350 E7.8353
G1 X99.4060 Y122.2140 E8.6631
G1 X100.2210 Y122.2140 E8.6983
G1 X86.2930 Y108.2870 E9.5473
G1 X86.4110 Y108.2090 E9.5533
G1 X86.6420 Y108.0880 E9.5646
G1 X86.8310 Y108.0100 E9.5734
G1 X101.0350 Y122.2140 E10.4393
G1 X101.8500 Y122.2140 E10.4744
G1 X87.4680 Y107.8330 E11.3511
G1 X87.7200 Y107.8000 E11.3620
G1 X88.0390 Y107.7860 E11.3758
G1 X88.2360 Y107.7860 E11.3843
G1 X102.6640 Y122.2140 E12.2639
G1 X103.4790 Y122.2140 E12.2990
G1 X89.0500 Y107.7860 E13.1786
G1 X89.8650 Y107.7860 E13.2137
G1 X104.2930 Y122.2140 E14.0932
G1 X105.1080 Y122.2140 E14.1284
G1 X90.6790 Y107.7860 E15.0079
G1 X91.4940 Y107.7860 E15.0430
G1 X105.9230 Y122.2140 E15.9226
G1 X106.7370 Y122.2140 E15.9577
G1 X92.3080 Y107.7860 E16.8373
G1 X93.1230 Y107.7860 E16.8724
G1 X107.5520 Y122.2140 E17.7520
G1 X108.3660 Y122.2140 E17.7871
G1 X93.9380 Y107.7860 E18.6667
G1 X94.7520 Y107.7860 E18.7018
G1 X109.1810 Y122.2140 E19.5814
G1 X109.9960 Y122.2140 E19.6165
G1 X95.5670 Y107.7860 E20.4961
G1 X96.3810 Y107.7860 E20.5312
G1 X110.8100 Y122.2140 E21.4108
G1 X111.6250 Y122.2140 E21.4459
G1 X97.1960 Y107.7860 E22.3255
G1 X98.0110 Y107.7860 E22.3606
G1 X112.4390 Y122.2140 E23.2402
G1 X113.2540 Y122.2140 E23.2753
G1 X98.8250 Y107.7860 E24.1548
G1 X99.6400 Y107.7860 E24.1900
G1 X114.0690 Y122.2140 E25.0695
G1 X114.8830 Y122.2140 E25.1046
G1 X100.4540 Y107.7860 E25.9842
G1 X101.2690 Y107.7860 E26.0193
G1 X115.6980 Y122.2140 E26.8989
G1 X116.5120 Y122.2140 E26.9340
G1 X102.0840 Y107.7860 E27.8136
G1 X102.8980 Y107.7860 E27.8487
G1 X117.3270 Y122.2140 E28.7283
G1 X118.1410 Y122.2140 E28.7634
G1 X103.7130 Y107.7860 E29.6430
G1 X104.5270 Y107.7860 E29.6781
G1 X118.9560 Y122.2140 E30.5577
G1 X119.7710 Y122.2140 E30.5928
G1 X105.3420 Y107.7860 E31.4724
G1 X106.1560 Y107.7860 E31.5075
G1 X120.5850 Y122.2140 E32.3871
G1 X121.4000 Y122.2140 E32.4222
G1 X106.9710 Y107.7860 E33.3017
G1 X107.7860 Y107.7860 E33.3369
G1 X122.2140 Y122.2140 E34.2164
G1 X123.0290 Y122.2140 E34.2516
G1 X108.6000 Y107.7860 E35.1311
G1 X109.4150 Y107.7860 E35.1662
G1 X123.8440 Y122.2140 E36.0458
G1 X124.6580 Y122.2140 E36.0809
G1 X110.2290 Y107.7860 E36.9605
G1 X111.0440 Y107.7860 E36.9956
G1 X125.4730 Y122.2140 E37.8752
G1 X126.2870 Y122.2140 E37.9103
G1 X111.8590 Y107.7860 E38.7899
G1 X112.6730 Y107.7860 E38.8250
G1 X127.1020 Y122.2140 E39.7046
G1 X127.9170 Y122.2140 E39.7397
G1 X113.4880 Y107.7860 E40.6193
G1 X114.3020 Y107.7860 E40.6544
G1 X128.7310 Y122.2140 E41.5340
G1 X129.5460 Y122.2140 E41.5691
G1 X115.1170 Y107.7860 E42.4487
G1 X115.9310 Y107.7860 E42.4838
G1 X130.3600 Y122.2140 E43.3633
G1 X131.1750 Y122.2140 E43.3985
G1 X116.7460 Y107.7860 E44.2780
G1 X117.5610 Y107.7860 E44.3131
G1 X131.9890 Y122.2140 E45.1927
G1 X132.8040 Y122.2140 E45.2278
G1 X118.3750 Y107.7860 E46.1074
G1 X119.1900 Y107.7860 E46.1425
G1 X133.6190 Y122.2140 E47.0221
G1 X134.4330 Y122.2140 E47.0572
G1 X120.0040 Y107.7860 E47.9368
G1 X120.8190 Y107.7860 E47.9719
G1 X135.2480 Y122.2140 E48.8515
G1 X136.0620 Y122.2140 E48.8866
G1 X121.6340 Y107.7860 E49.7662
G1 X122.4480 Y107.7860 E49.8013
G1 X136.8770 Y122.2140 E50.6809
G1 X137.6920 Y122.2140 E50.7160
G1 X123.2630 Y107.7860 E51.5956
G1 X124.0770 Y107.7860 E51.6307
G1 X138.5060 Y122.2140 E52.5103
G1 X139.3210 Y122.2140 E52.5454
G1 X124.8920 Y107.7860 E53.4249
G1 X125.7070 Y107.7860 E53.4601
G1 X140.1350 Y122.2140 E54.3396
G1 X140.9500 Y122.2140 E54.3747
G1 X126.5210 Y107.7860 E55.2543
G1 X127.3360 Y107.7860 E55.2894
G1 X141.7650 Y122.2140 E56.1690
G1 X141.9610 Y122.2140 E56.1775
G1 X142.2800 Y122.2000 E56.1912
G1 X142.5320 Y122.1670 E56.2022
G1 X128.1500 Y107.7860 E57.0789
G1 X128.9650 Y107.7860 E57.1140
G1 X143.1670 Y121.9870 E57.9798
G1 X143.2470 Y121.9600 E57.9834
G1 X143.4830 Y121.8500 E57.9947
G1 X143.7120 Y121.7180 E58.0060
G1 X129.7790 Y107.7860 E58.8553
G1 X130.5940 Y107.7860 E58.8904
G1 X144.1740 Y121.3650 E59.7183
G1 X144.3690 Y121.1700 E59.7301
G1 X144.5490 Y120.9560 E59.7422
G1 X144.5610 Y120.9380 E59.7432
G1 X131.4090 Y107.7860 E60.5449
G1 X132.2230 Y107.7860 E60.5800
G1 X144.8720 Y120.4350 E61.3511
G1 X144.9680 Y120.2290 E61.3609
G1 X145.0640 Y119.9660 E61.3730
G1 X145.0970 Y119.8440 E61.3784
G1 X133.0380 Y107.7860 E62.1135
G1 X133.8520 Y107.7860 E62.1486
G1 X145.2020 Y119.1350 E62.8405
G1 X145.2140 Y118.9420 E62.8488
G1 X145.2140 Y118.3330 E62.8751
G1 X134.6670 Y107.7860 E63.5180
G1 X135.4820 Y107.7860 E63.5531
G1 X145.2140 Y117.5180 E64.1465
G1 X145.2140 Y116.7040 E64.1816
G1 X136.2960 Y107.7860 E64.7252
G1 X137.1110 Y107.7860 E64.7603
G1 X145.2140 Y115.8890 E65.2543
G1 X145.2140 Y115.0750 E65.2895
G1 X137.9250 Y107.7860 E65.7338
G1 X138.7400 Y107.7860 E65.7689
G1 X145.2140 Y114.2600 E66.1636
G1 X145.2140 Y113.4450 E66.1987
G1 X139.5550 Y107.7860 E66.5437
G1 X140.3690 Y107.7860 E66.5788
G1 X145.2140 Y112.6310 E66.8742
G1 X145.2140 Y111.8160 E66.9093
G1 X141.1840 Y107.7860 E67.1550
G1 X141.9420 Y107.7860 E67.1877
G1 X142.0020 Y107.7900 E67.1903
G1 X145.2130 Y111.0000 E67.3860
G1 X145.2000 Y110.7200 E67.3981
G1 X145.1660 Y110.4610 E67.4094
G1 X145.0620 Y110.0350 E67.4283
G1 X142.9750 Y107.9480 E67.5555
G92 E0.0000
G1 E-5 F1800 ; custom retraction - A
;layer 2, Z = 0.400
M106 S255; custom fan 100% from layer 2
G1 Z0.400 F1200
G1 X88.0260 Y107.2000 F6000
G1 E0 F1800 ; custom un-retraction/prime - A
G92 E0.0000
G1 X141.9610 Y107.2000 E1.9374 F2880
G1 X142.4960 Y107.2350 E1.9566
G1 X142.9830 Y107.3320 E1.9745
G1 X143.4530 Y107.4920 E1.9923
G1 X143.9110 Y107.7170 E2.0106
G1 X144.1790 Y107.8880 E2.0221
G1 X144.4310 Y108.0820 E2.0335
G1 X144.8000 Y108.4340 E2.0518
G1 X145.1190 Y108.8320 E2.0701
G1 X145.2900 Y109.1010 E2.0816
G1 X145.4370 Y109.3830 E2.0930
G1 X145.6220 Y109.8580 E2.1113
G1 X145.7430 Y110.3530 E2.1296
G1 X145.7840 Y110.6690 E2.1411
G1 X145.8000 Y111.0260 E2.1539
G1 X145.8000 Y118.9610 E2.4389
G1 X145.7640 Y119.5090 E2.4587
G1 X145.7090 Y119.8220 E2.4701
G1 X145.6230 Y120.1420 E2.4820
G1 X145.5100 Y120.4540 E2.4939
G1 X145.3700 Y120.7540 E2.5058
G1 X145.2040 Y121.0410 E2.5177
G1 X145.0140 Y121.3130 E2.5296
G1 X144.8010 Y121.5670 E2.5415
G1 X144.5670 Y121.8010 E2.5534
G1 X144.3130 Y122.0140 E2.5653
G1 X144.0410 Y122.2040 E2.5772
G1 X143.7540 Y122.3700 E2.5891
G1 X143.4660 Y122.5040 E2.6006
G1 X142.9700 Y122.6720 E2.6194
G1 X142.6600 Y122.7410 E2.6308
G1 X142.3310 Y122.7840 E2.6427
G1 X141.9740 Y122.8000 E2.6555
G1 X88.0390 Y122.8000 E4.5929
G1 X87.5040 Y122.7650 E4.6122
G1 X87.0170 Y122.6680 E4.6300
G1 X86.5340 Y122.5040 E4.6483
G1 X86.2460 Y122.3700 E4.6598
G1 X85.9700 Y122.2100 E4.6712
G1 X85.5590 Y121.9090 E4.6895
G1 X85.2000 Y121.5660 E4.7074
G1 X84.8810 Y121.1680 E4.7257
G1 X84.7100 Y120.8990 E4.7371
G1 X84.5630 Y120.6170 E4.7485
G1 X84.3780 Y120.1420 E4.7669
G1 X84.2600 Y119.6600 E4.7847
G1 X84.2050 Y119.1520 E4.8030
G1 X84.2050 Y110.8340 E5.1018
G1 X84.2340 Y110.5040 E5.1137
G1 X84.2910 Y110.1780 E5.1256
G1 X84.3770 Y109.8580 E5.1375
G1 X84.4900 Y109.5460 E5.1494
G1 X84.6300 Y109.2460 E5.1613
G1 X84.7960 Y108.9590 E5.1732
G1 X84.9860 Y108.6870 E5.1851
G1 X85.1990 Y108.4330 E5.1970
G1 X85.4340 Y108.1990 E5.2089
G1 X85.6770 Y107.9950 E5.2204
G1 X86.1120 Y107.7040 E5.2392
G1 X86.3950 Y107.5570 E5.2506
G1 X86.7010 Y107.4300 E5.2625
G1 X87.0170 Y107.3310 E5.2744
G1 X87.3400 Y107.2590 E5.2863
G1 X87.6690 Y107.2160 E5.2982
G1 X88.0260 Y107.2000 E5.3111
G1 X88.0160 Y106.7200 F6000
G92 E0.0000
G1 X141.9770 Y106.7200 E1.9383 F2880
G1 X142.5580 Y106.7580 E1.9593
G1 X143.1070 Y106.8670 E1.9794
G1 X143.6370 Y107.0470 E1.9995
G1 X144.1460 Y107.2980 E2.0199
G1 X144.4540 Y107.4950 E2.0330
G1 X144.7440 Y107.7170 E2.0461
G1 X145.1540 Y108.1090 E2.0665
G1 X145.5100 Y108.5520 E2.0869
G1 X145.7060 Y108.8600 E2.1000
G1 X145.8750 Y109.1850 E2.1132
G1 X146.0800 Y109.7130 E2.1335
G1 X146.2150 Y110.2650 E2.1539
G1 X146.2630 Y110.6270 E2.1670
G1 X146.2800 Y111.0160 E2.1810
G1 X146.2800 Y118.9770 E2.4670
G1 X146.2410 Y119.5660 E2.4882
G1 X146.1780 Y119.9260 E2.5013
G1 X146.0810 Y120.2870 E2.5147
G1 X145.9540 Y120.6380 E2.5282
G1 X145.7960 Y120.9760 E2.5416
G1 X145.6090 Y121.2990 E2.5550
G1 X145.3950 Y121.6050 E2.5684
G1 X145.1550 Y121.8910 E2.5818
G1 X144.8910 Y122.1550 E2.5952
G1 X144.6050 Y122.3950 E2.6086
G1 X144.2990 Y122.6090 E2.6220
G1 X143.9760 Y122.7960 E2.6354
G1 X143.6450 Y122.9500 E2.6486
G1 X143.1000 Y123.1350 E2.6692
G1 X142.7430 Y123.2140 E2.6824
G1 X142.3730 Y123.2630 E2.6958
G1 X141.9840 Y123.2800 E2.7097
G1 X88.0230 Y123.2800 E4.6481
G1 X87.4420 Y123.2420 E4.6690
G1 X86.8930 Y123.1330 E4.6891
G1 X86.3550 Y122.9500 E4.7095
G1 X86.0240 Y122.7960 E4.7226
G1 X85.7080 Y122.6130 E4.7358
G1 X85.2500 Y122.2780 E4.7561
G1 X84.8460 Y121.8900 E4.7763
G1 X84.4900 Y121.4480 E4.7966
G1 X84.2940 Y121.1400 E4.8098
G1 X84.1250 Y120.8160 E4.8229
G1 X83.9200 Y120.2860 E4.8433
G1 X83.7870 Y119.7430 E4.8634
G1 X83.7250 Y119.1790 E4.8838
G1 X83.7250 Y110.8130 E5.1843
G1 X83.7570 Y110.4420 E5.1977
G1 X83.8220 Y110.0740 E5.2111
G1 X83.9190 Y109.7130 E5.2245
G1 X84.0460 Y109.3620 E5.2379
G1 X84.2040 Y109.0240 E5.2513
G1 X84.3910 Y108.7010 E5.2647
G1 X84.6050 Y108.3950 E5.2781
G1 X84.8450 Y108.1090 E5.2915
G1 X85.1090 Y107.8450 E5.3050
G1 X85.3890 Y107.6100 E5.3181
G1 X85.8670 Y107.2900 E5.3388
G1 X86.1920 Y107.1220 E5.3519
G1 X86.5370 Y106.9790 E5.3653
G1 X86.8920 Y106.8670 E5.3787
G1 X87.2570 Y106.7860 E5.3921
G1 X87.6270 Y106.7370 E5.4055
G1 X88.0160 Y106.7200 E5.4195
G1 X88.0050 Y106.2400 F6000
G92 E0.0000
G1 X141.9920 Y106.2400 E1.9393 F2160
G1 X142.6210 Y106.2810 E1.9619
G1 X143.2320 Y106.4030 E1.9843
G1 X143.8210 Y106.6030 E2.0066
G1 X144.3820 Y106.8790 E2.0291
G1 X144.7300 Y107.1010 E2.0439
G1 X145.0570 Y107.3520 E2.0587
G1 X145.5090 Y107.7850 E2.0812
G1 X145.9000 Y108.2720 E2.1036
G1 X146.1220 Y108.6200 E2.1185
G1 X146.3130 Y108.9860 E2.1333
G1 X146.5390 Y109.5690 E2.1558
G1 X146.6880 Y110.1760 E2.1782
G1 X146.7420 Y110.5850 E2.1930
G1 X146.7600 Y111.0050 E2.2081
G1 X146.7600 Y118.9920 E2.4950
G1 X146.7190 Y119.6240 E2.5178
G1 X146.6470 Y120.0300 E2.5326
G1 X146.5390 Y120.4310 E2.5475
G1 X146.3970 Y120.8220 E2.5624
G1 X146.2220 Y121.1980 E2.5773
G1 X146.0140 Y121.5570 E2.5923
G1 X145.7760 Y121.8980 E2.6072
G1 X145.5090 Y122.2160 E2.6221
G1 X145.2160 Y122.5090 E2.6370
G1 X144.8980 Y122.7760 E2.6519
G1 X144.5570 Y123.0140 E2.6668
G1 X144.1980 Y123.2220 E2.6817
G1 X143.8240 Y123.3960 E2.6966
G1 X143.2290 Y123.5980 E2.7191
G1 X142.8270 Y123.6870 E2.7339
G1 X142.4150 Y123.7420 E2.7489
G1 X141.9950 Y123.7600 E2.7640
G1 X88.0080 Y123.7600 E4.7032
G1 X87.3790 Y123.7190 E4.7259
G1 X86.7680 Y123.5970 E4.7482
G1 X86.1760 Y123.3960 E4.7707
G1 X85.8020 Y123.2220 E4.7855
G1 X85.4450 Y123.0160 E4.8003
G1 X84.9410 Y122.6460 E4.8228
G1 X84.4910 Y122.2150 E4.8452
G1 X84.1000 Y121.7280 E4.8676
G1 X83.8780 Y121.3800 E4.8824
G1 X83.6870 Y121.0140 E4.8973
G1 X83.4610 Y120.4310 E4.9197
G1 X83.3130 Y119.8260 E4.9421
G1 X83.2450 Y119.2050 E4.9645
G1 X83.2450 Y110.7920 E5.2667
G1 X83.2810 Y110.3790 E5.2816
G1 X83.3530 Y109.9700 E5.2966
G1 X83.4600 Y109.5690 E5.3115
G1 X83.6030 Y109.1790 E5.3264
G1 X83.7780 Y108.8020 E5.3413
G1 X83.9860 Y108.4420 E5.3562
G1 X84.2240 Y108.1020 E5.3711
G1 X84.4910 Y107.7840 E5.3860
G1 X84.7840 Y107.4910 E5.4010
G1 X85.1000 Y107.2250 E5.4158
G1 X85.6220 Y106.8770 E5.4383
G1 X85.9880 Y106.6860 E5.4532
G1 X86.3720 Y106.5270 E5.4681
G1 X86.7680 Y106.4020 E5.4830
G1 X87.1730 Y106.3130 E5.4979
G1 X87.5850 Y106.2580 E5.5128
G1 X88.0050 Y106.2400 E5.5279
G1 X84.6130 Y110.0880 F6000
G92 E0.0000
G1 X87.0920 Y107.6090 E0.1259 F2880
G1 X87.3900 Y107.5430 E0.1369
G1 X87.6940 Y107.5030 E0.1479
G1 X87.8860 Y107.4940 E0.1548
G1 X84.4930 Y110.8870 E0.3271
G1 X84.4930 Y111.5660 E0.3515
G1 X88.5710 Y107.4880 E0.5587
G1 X89.2500 Y107.4880 E0.5831
G1 X84.4930 Y112.2450 E0.8247
G1 X84.4930 Y112.9240 E0.8491
G1 X89.9290 Y107.4880 E1.1253
G1 X90.6070 Y107.4880 E1.1496
G1 X84.4930 Y113.6030 E1.4603
G1 X84.4930 Y114.2810 E1.4847
G1 X91.2860 Y107.4880 E1.8298
G1 X91.9650 Y107.4880 E1.8541
G1 X84.4930 Y114.9600 E2.2337
G1 X84.4930 Y115.6390 E2.2581
G1 X92.6440 Y107.4880 E2.6722
G1 X93.3230 Y107.4880 E2.6966
G1 X84.4930 Y116.3180 E3.1451
G1 X84.4930 Y116.9970 E3.1695
G1 X94.0010 Y107.4880 E3.6526
G1 X94.6800 Y107.4880 E3.6769
G1 X84.4930 Y117.6760 E4.1945
G1 X84.4930 Y118.3540 E4.2189
G1 X95.3590 Y107.4880 E4.7709
G1 X96.0380 Y107.4880 E4.7953
G1 X84.4930 Y119.0330 E5.3817
G1 X84.4930 Y119.1370 E5.3855
G1 X84.5440 Y119.6090 E5.4025
G1 X84.5550 Y119.6500 E5.4041
G1 X96.7170 Y107.4880 E6.0219
G1 X97.3960 Y107.4880 E6.0463
G1 X84.7030 Y120.1810 E6.6911
G1 X84.8260 Y120.4980 E6.7033
G1 X84.9070 Y120.6550 E6.7097
G1 X98.0740 Y107.4880 E7.3785
G1 X98.7530 Y107.4880 E7.4029
G1 X85.1720 Y121.0700 E8.0929
G1 X85.4130 Y121.3700 E8.1067
G1 X85.4830 Y121.4370 E8.1102
G1 X99.4320 Y107.4880 E8.8188
G1 X100.1110 Y107.4880 E8.8432
G1 X85.8410 Y121.7580 E9.5681
G1 X86.1280 Y121.9690 E9.5809
G1 X86.2430 Y122.0350 E9.5857
G1 X100.7900 Y107.4880 E10.3247
G1 X101.4690 Y107.4880 E10.3491
G1 X86.7000 Y122.2560 E11.0993
G1 X87.0920 Y122.3890 E11.1141
G1 X87.2210 Y122.4150 E11.1189
G1 X102.1470 Y107.4880 E11.8771
G1 X102.8260 Y107.4880 E11.9015
G1 X87.8170 Y122.4970 E12.6640
G1 X88.0490 Y122.5120 E12.6723
G1 X88.4810 Y122.5120 E12.6878
G1 X103.5050 Y107.4880 E13.4510
G1 X104.1840 Y107.4880 E13.4754
G1 X89.1600 Y122.5120 E14.2386
G1 X89.8390 Y122.5120 E14.2630
G1 X104.8630 Y107.4880 E15.0262
G1 X105.5410 Y107.4880 E15.0506
G1 X90.5170 Y122.5120 E15.8138
G1 X91.1960 Y122.5120 E15.8382
G1 X106.2200 Y107.4880 E16.6014
G1 X106.8990 Y107.4880 E16.6258
G1 X91.8750 Y122.5120 E17.3891
G1 X92.5540 Y122.5120 E17.4134
G1 X107.5780 Y107.4880 E18.1767
G1 X108.2570 Y107.4880 E18.2010
G1 X93.2330 Y122.5120 E18.9643
G1 X93.9120 Y122.5120 E18.9886
G1 X108.9360 Y107.4880 E19.7519
G1 X109.6140 Y107.4880 E19.7762
G1 X94.5900 Y122.5120 E20.5395
G1 X95.2690 Y122.5120 E20.5638
G1 X110.2930 Y107.4880 E21.3271
G1 X110.9720 Y107.4880 E21.3514
G1 X95.9480 Y122.5120 E22.1147
G1 X96.6270 Y122.5120 E22.1390
G1 X111.6510 Y107.4880 E22.9023
G1 X112.3300 Y107.4880 E22.9266
G1 X97.3060 Y122.5120 E23.6899
G1 X97.9850 Y122.5120 E23.7142
G1 X113.0090 Y107.4880 E24.4775
G1 X113.6870 Y107.4880 E24.5018
G1 X98.6630 Y122.5120 E25.2651
G1 X99.3420 Y122.5120 E25.2894
G1 X114.3660 Y107.4880 E26.0527
G1 X115.0450 Y107.4880 E26.0771
G1 X100.0210 Y122.5120 E26.8403
G1 X100.7000 Y122.5120 E26.8647
G1 X115.7240 Y107.4880 E27.6279
G1 X116.4030 Y107.4880 E27.6523
G1 X101.3790 Y122.5120 E28.4155
G1 X102.0570 Y122.5120 E28.4399
G1 X117.0810 Y107.4880 E29.2031
G1 X117.7600 Y107.4880 E29.2275
G1 X102.7360 Y122.5120 E29.9907
G1 X103.4150 Y122.5120 E30.0151
G1 X118.4390 Y107.4880 E30.7783
G1 X119.1180 Y107.4880 E30.8027
G1 X104.0940 Y122.5120 E31.5659
G1 X104.7730 Y122.5120 E31.5903
G1 X119.7970 Y107.4880 E32.3535
G1 X120.4760 Y107.4880 E32.3779
G1 X105.4520 Y122.5120 E33.1411
G1 X106.1300 Y122.5120 E33.1655
G1 X121.1540 Y107.4880 E33.9287
G1 X121.8330 Y107.4880 E33.9531
G1 X106.8090 Y122.5120 E34.7163
G1 X107.4880 Y122.5120 E34.7407
G1 X122.5120 Y107.4880 E35.5039
G1 X123.1910 Y107.4880 E35.5283
G1 X108.1670 Y122.5120 E36.2915
G1 X108.8460 Y122.5120 E36.3159
G1 X123.8700 Y107.4880 E37.0791
G1 X124.5490 Y107.4880 E37.1035
G1 X109.5250 Y122.5120 E37.8667
G1 X110.2030 Y122.5120 E37.8911
G1 X125.2270 Y107.4880 E38.6543
G1 X125.9060 Y107.4880 E38.6787
G1 X110.8820 Y122.5120 E39.4419
G1 X111.5610 Y122.5120 E39.4663
G1 X126.5850 Y107.4880 E40.2295
G1 X127.2640 Y107.4880 E40.2539
G1 X112.2400 Y122.5120 E41.0171
G1 X112.9190 Y122.5120 E41.0415
G1 X127.9430 Y107.4880 E41.8047
G1 X128.6210 Y107.4880 E41.8291
G1 X113.5970 Y122.5120 E42.5923
G1 X114.2760 Y122.5120 E42.6167
G1 X129.3000 Y107.4880 E43.3799
G1 X129.9790 Y107.4880 E43.4043
G1 X114.9550 Y122.5120 E44.1675
G1 X115.6340 Y122.5120 E44.1919
G1 X130.6580 Y107.4880 E44.9551
G1 X131.3370 Y107.4880 E44.9795
G1 X116.3130 Y122.5120 E45.7427
G1 X116.9920 Y122.5120 E45.7671
G1 X132.0160 Y107.4880 E46.5303
G1 X132.6940 Y107.4880 E46.5547
G1 X117.6700 Y122.5120 E47.3179
G1 X118.3490 Y122.5120 E47.3423
G1 X133.3730 Y107.4880 E48.1055
G1 X134.0520 Y107.4880 E48.1299
G1 X119.0280 Y122.5120 E48.8931
G1 X119.7070 Y122.5120 E48.9175
G1 X134.7310 Y107.4880 E49.6807
G1 X135.4100 Y107.4880 E49.7051
G1 X120.3860 Y122.5120 E50.4683
G1 X121.0640 Y122.5120 E50.4927
G1 X136.0880 Y107.4880 E51.2559
G1 X136.7670 Y107.4880 E51.2803
G1 X121.7430 Y122.5120 E52.0435
G1 X122.4220 Y122.5120 E52.0679
G1 X137.4460 Y107.4880 E52.8311
G1 X138.1250 Y107.4880 E52.8555
G1 X123.1010 Y122.5120 E53.6187
G1 X123.7800 Y122.5120 E53.6431
G1 X138.8040 Y107.4880 E54.4063
G1 X139.4830 Y107.4880 E54.4307
G1 X124.4590 Y122.5120 E55.1939
G1 X125.1370 Y122.5120 E55.2183
G1 X140.1610 Y107.4880 E55.9815
G1 X140.8400 Y107.4880 E56.0059
G1 X125.8160 Y122.5120 E56.7691
G1 X126.4950 Y122.5120 E56.7935
G1 X141.5190 Y107.4880 E57.5567
G1 X141.9510 Y107.4880 E57.5722
G1 X142.1830 Y107.5030 E57.5806
G1 X127.1740 Y122.5120 E58.3430
G1 X127.8530 Y122.5120 E58.3674
G1 X142.7800 Y107.5850 E59.1257
G1 X142.9080 Y107.6110 E59.1304
G1 X143.3000 Y107.7440 E59.1453
G1 X128.5320 Y122.5120 E59.8955
G1 X129.2100 Y122.5120 E59.9199
G1 X143.7590 Y107.9630 E60.6589
G1 X143.7690 Y107.9680 E60.6593
G1 X144.0140 Y108.1240 E60.6698
G1 X144.1630 Y108.2390 E60.6765
G1 X129.8890 Y122.5120 E61.4016
G1 X130.5680 Y122.5120 E61.4260
G1 X144.5170 Y108.5630 E62.1346
G1 X144.5870 Y108.6290 E62.1381
G1 X144.8280 Y108.9300 E62.1519
G1 X131.2470 Y122.5120 E62.8419
G1 X131.9260 Y122.5120 E62.8663
G1 X145.0930 Y109.3450 E63.5351
G1 X145.1740 Y109.5020 E63.5415
G1 X145.2970 Y109.8190 E63.5537
G1 X132.6040 Y122.5120 E64.1985
G1 X133.2830 Y122.5120 E64.2229
G1 X145.4460 Y110.3500 E64.8407
G1 X145.4590 Y110.4060 E64.8428
G1 X145.4970 Y110.6940 E64.8532
G1 X145.5090 Y110.9650 E64.8630
G1 X133.9620 Y122.5120 E65.4496
G1 X134.6410 Y122.5120 E65.4740
G1 X145.5120 Y111.6410 E66.0262
G1 X145.5120 Y112.3200 E66.0506
G1 X135.3200 Y122.5120 E66.5684
G1 X135.9990 Y122.5120 E66.5927
G1 X145.5120 Y112.9990 E67.0760
G1 X145.5120 Y113.6770 E67.1004
G1 X136.6770 Y122.5120 E67.5492
G1 X137.3560 Y122.5120 E67.5736
G1 X145.5120 Y114.3560 E67.9879
G1 X145.5120 Y115.0350 E68.0123
G1 X138.0350 Y122.5120 E68.3921
G1 X138.7140 Y122.5120 E68.4165
G1 X145.5120 Y115.7140 E68.7618
G1 X145.5120 Y116.3930 E68.7862
G1 X139.3930 Y122.5120 E69.0971
G1 X140.0720 Y122.5120 E69.1215
G1 X145.5120 Y117.0720 E69.3978
G1 X145.5120 Y117.7500 E69.4222
G1 X140.7500 Y122.5120 E69.6641
G1 X141.4290 Y122.5120 E69.6885
G1 X145.5120 Y118.4290 E69.8959
G1 X145.5120 Y118.9510 E69.9147
G1 X145.5010 Y119.1190 E69.9207
G1 X142.1140 Y122.5060 E70.0927
G1 X142.3060 Y122.4970 E70.0996
G1 X142.6100 Y122.4570 E70.1106
G1 X142.8930 Y122.3940 E70.1210
G1 X142.9100 Y122.3880 E70.1217
G1 X145.3870 Y119.9120 E70.2475
G92 E0.0000
G1 E-5 F1800 ; custom retraction - A
;layer 3, Z = 0.600
;fan3;
G1 Z0.600 F1200
G1 X88.0260 Y107.2000 F6000
G1 E0 F1800 ; custom un-retraction/prime - A
G92 E0.0000
G1 X141.9610 Y107.2000 E1.9374 F2880
G1 X142.4960 Y107.2350 E1.9566
G1 X142.9830 Y107.3320 E1.9745
G1 X143.4530 Y107.4920 E1.9923
G1 X143.9110 Y107.7170 E2.0106
G1 X144.1790 Y107.8880 E2.0221
G1 X144.4310 Y108.0820 E2.0335
G1 X144.8000 Y108.4340 E2.0518
G1 X145.1190 Y108.8320 E2.0701
G1 X145.2900 Y109.1010 E2.0816
G1 X145.4370 Y109.3830 E2.0930
G1 X145.6220 Y109.8580 E2.1113
G1 X145.7430 Y110.3530 E2.1296
G1 X145.7840 Y110.6690 E2.1411
G1 X145.8000 Y111.0260 E2.1539
G1 X145.8000 Y118.9610 E2.4389
G1 X145.7640 Y119.5090 E2.4587
G1 X145.7090 Y119.8220 E2.4701
G1 X145.6230 Y120.1420 E2.4820
G1 X145.5100 Y120.4540 E2.4939
G1 X145.3700 Y120.7540 E2.5058
G1 X145.2040 Y121.0410 E2.5177
G1 X145.0140 Y121.3130 E2.5296
G1 X144.8010 Y121.5670 E2.5415
G1 X144.5670 Y121.8010 E2.5534
G1 X144.3130 Y122.0140 E2.5653
G1 X144.0410 Y122.2040 E2.5772
G1 X143.7540 Y122.3700 E2.5891
G1 X143.4660 Y122.5040 E2.6006
G1 X142.9700 Y122.6720 E2.6194
G1 X142.6600 Y122.7410 E2.6308
G1 X142.3310 Y122.7840 E2.6427
G1 X141.9740 Y122.8000 E2.6555
G1 X88.0390 Y122.8000 E4.5929
G1 X87.5040 Y122.7650 E4.6122
G1 X87.0170 Y122.6680 E4.6300
G1 X86.5340 Y122.5040 E4.6483
G1 X86.2460 Y122.3700 E4.6598
G1 X85.9700 Y122.2100 E4.6712
G1 X85.5590 Y121.9090 E4.6895
G1 X85.2000 Y121.5660 E4.7074
G1 X84.8810 Y121.1680 E4.7257
G1 X84.7100 Y120.8990 E4.7371
G1 X84.5630 Y120.6170 E4.7485
G1 X84.3780 Y120.1420 E4.7669
G1 X84.2600 Y119.6600 E4.7847
G1 X84.2050 Y119.1520 E4.8030
G1 X84.2050 Y110.8340 E5.1018
G1 X84.2340 Y110.5040 E5.1137
G1 X84.2910 Y110.1780 E5.1256
G1 X84.3770 Y109.8580 E5.1375
G1 X84.4900 Y109.5460 E5.1494
G1 X84.6300 Y109.2460 E5.1613
G1 X84.7960 Y108.9590 E5.1732
G1 X84.9860 Y108.6870 E5.1851
G1 X85.1990 Y108.4330 E5.1970
G1 X85.4340 Y108.1990 E5.2089
G1 X85.6770 Y107.9950 E5.2204
G1 X86.1120 Y107.7040 E5.2392
G1 X86.3950 Y107.5570 E5.2506
G1 X86.7010 Y107.4300 E5.2625
G1 X87.0170 Y107.3310 E5.2744
G1 X87.3400 Y107.2590 E5.2863
G1 X87.6690 Y107.2160 E5.2982
G1 X88.0260 Y107.2000 E5.3111
G1 X88.0160 Y106.7200 F6000
G92 E0.0000
G1 X141.9770 Y106.7200 E1.9383 F2880
G1 X142.5580 Y106.7580 E1.9593
G1 X143.1070 Y106.8670 E1.9794
G1 X143.6370 Y107.0470 E1.9995
G1 X144.1460 Y107.2980 E2.0199
G1 X144.4540 Y107.4950 E2.0330
G1 X144.7440 Y107.7170 E2.0461
G1 X145.1540 Y108.1090 E2.0665
G1 X145.5100 Y108.5520 E2.0869
G1 X145.7060 Y108.8600 E2.1000
G1 X145.8750 Y109.1850 E2.1132
G1 X146.0800 Y109.7130 E2.1335
G1 X146.2150 Y110.2650 E2.1539
G1 X146.2630 Y110.6270 E2.1670
G1 X146.2800 Y111.0160 E2.1810
G1 X146.2800 Y118.9770 E2.4670
G1 X146.2410 Y119.5660 E2.4882
G1 X146.1780 Y119.9260 E2.5013
G1 X146.0810 Y120.2870 E2.5147
G1 X145.9540 Y120.6380 E2.5282
G1 X145.7960 Y120.9760 E2.5416
G1 X145.6090 Y121.2990 E2.5550
G1 X145.3950 Y121.6050 E2.5684
G1 X145.1550 Y121.8910 E2.5818
G1 X144.8910 Y122.1550 E2.5952
G1 X144.6050 Y122.3950 E2.6086
G1 X144.2990 Y122.6090 E2.6220
G1 X143.9760 Y122.7960 E2.6354
G1 X143.6450 Y122.9500 E2.6486
G1 X143.1000 Y123.1350 E2.6692
G1 X142.7430 Y123.2140 E2.6824
G1 X142.3730 Y123.2630 E2.6958
G1 X141.9840 Y123.2800 E2.7097
G1 X88.0230 Y123.2800 E4.6481
G1 X87.4420 Y123.2420 E4.6690
G1 X86.8930 Y123.1330 E4.6891
G1 X86.3550 Y122.9500 E4.7095
G1 X86.0240 Y122.7960 E4.7226
G1 X85.7080 Y122.6130 E4.7358
G1 X85.2500 Y122.2780 E4.7561
G1 X84.8460 Y121.8900 E4.7763
G1 X84.4900 Y121.4480 E4.7966
G1 X84.2940 Y121.1400 E4.8098
G1 X84.1250 Y120.8160 E4.8229
G1 X83.9200 Y120.2860 E4.8433
G1 X83.7870 Y119.7430 E4.8634
G1 X83.7250 Y119.1790 E4.8838
G1 X83.7250 Y110.8130 E5.1843
G1 X83.7570 Y110.4420 E5.1977
G1 X83.8220 Y110.0740 E5.2111
G1 X83.9190 Y109.7130 E5.2245
G1 X84.0460 Y109.3620 E5.2379
G1 X84.2040 Y109.0240 E5.2513
G1 X84.3910 Y108.7010 E5.2647
G1 X84.6050 Y108.3950 E5.2781
G1 X84.8450 Y108.1090 E5.2915
G1 X85.1090 Y107.8450 E5.3050
G1 X85.3890 Y107.6100 E5.3181
G1 X85.8670 Y107.2900 E5.3388
G1 X86.1920 Y107.1220 E5.3519
G1 X86.5370 Y106.9790 E5.3653
G1 X86.8920 Y106.8670 E5.3787
G1 X87.2570 Y106.7860 E5.3921
G1 X87.6270 Y106.7370 E5.4055
G1 X88.0160 Y106.7200 E5.4195
G1 X88.0050 Y106.2400 F6000
G92 E0.0000
G1 X141.9920 Y106.2400 E1.9393 F2160
G1 X142.6210 Y106.2810 E1.9619
G1 X143.2320 Y106.4030 E1.9843
G1 X143.8210 Y106.6030 E2.0066
G1 X144.3820 Y106.8790 E2.0291
G1 X144.7300 Y107.1010 E2.0439
G1 X145.0570 Y107.3520 E2.0587
G1 X145.5090 Y107.7850 E2.0812
G1 X145.9000 Y108.2720 E2.1036
G1 X146.1220 Y108.6200 E2.1185
G1 X146.3130 Y108.9860 E2.1333
G1 X146.5390 Y109.5690 E2.1558
G1 X146.6880 Y110.1760 E2.1782
G1 X146.7420 Y110.5850 E2.1930
G1 X146.7600 Y111.0050 E2.2081
G1 X146.7600 Y118.9920 E2.4950
G1 X146.7190 Y119.6240 E2.5178
G1 X146.6470 Y120.0300 E2.5326
G1 X146.5390 Y120.4310 E2.5475
G1 X146.3970 Y120.8220 E2.5624
G1 X146.2220 Y121.1980 E2.5773
G1 X146.0140 Y121.5570 E2.5923
G1 X145.7760 Y121.8980 E2.6072
G1 X145.5090 Y122.2160 E2.6221
G1 X145.2160 Y122.5090 E2.6370
G1 X144.8980 Y122.7760 E2.6519
G1 X144.5570 Y123.0140 E2.6668
G1 X144.1980 Y123.2220 E2.6817
G1 X143.8240 Y123.3960 E2.6966
G1 X143.2290 Y123.5980 E2.7191
G1 X142.8270 Y123.6870 E2.7339
G1 X142.4150 Y123.7420 E2.7489
G1 X141.9950 Y123.7600 E2.7640
G1 X88.0080 Y123.7600 E4.7032
G1 X87.3790 Y123.7190 E4.7259
G1 X86.7680 Y123.5970 E4.7482
G1 X86.1760 Y123.3960 E4.7707
G1 X85.8020 Y123.2220 E4.7855
G1 X85.4450 Y123.0160 E4.8003
G1 X84.9410 Y122.6460 E4.8228
G1 X84.4910 Y122.2150 E4.8452
G1 X84.1000 Y121.7280 E4.8676
G1 X83.8780 Y121.3800 E4.8824
G1 X83.6870 Y121.0140 E4.8973
G1 X83.4610 Y120.4310 E4.9197
G1 X83.3130 Y119.8260 E4.9421
G1 X83.2450 Y119.2050 E4.9645
G1 X83.2450 Y110.7920 E5.2667
G1 X83.2810 Y110.3790 E5.2816
G1 X83.3530 Y109.9700 E5.2966
G1 X83.4600 Y109.5690 E5.3115
G1 X83.6030 Y109.1790 E5.3264
G1 X83.7780 Y108.8020 E5.3413
G1 X83.9860 Y108.4420 E5.3562
G1 X84.2240 Y108.1020 E5.3711
G1 X84.4910 Y107.7840 E5.3860
G1 X84.7840 Y107.4910 E5.4010
G1 X85.1000 Y107.2250 E5.4158
G1 X85.6220 Y106.8770 E5.4383
G1 X85.9880 Y106.6860 E5.4532
G1 X86.3720 Y106.5270 E5.4681
G1 X86.7680 Y106.4020 E5.4830
G1 X87.1730 Y106.3130 E5.4979
G1 X87.5850 Y106.2580 E5.5128
G1 X88.0050 Y106.2400 E5.5279
G1 X87.0900 Y122.3890 F6000
G92 E0.0000
G1 X84.6200 Y119.9190 E0.1255 F2880
G1 X84.5440 Y119.6090 E0.1369
G1 X84.4930 Y119.1370 E0.1540
G1 X84.4930 Y119.1130 E0.1548
G1 X87.8810 Y122.5010 E0.3270
G1 X88.0490 Y122.5120 E0.3330
G1 X88.5710 Y122.5120 E0.3518
G1 X84.4930 Y118.4340 E0.5589
G1 X84.4930 Y117.7550 E0.5833
G1 X89.2500 Y122.5120 E0.8250
G1 X89.9290 Y122.5120 E0.8494
G1 X84.4930 Y117.0760 E1.1255
G1 X84.4930 Y116.3970 E1.1499
G1 X90.6070 Y122.5120 E1.4605
G1 X91.2860 Y122.5120 E1.4849
G1 X84.4930 Y115.7190 E1.8300
G1 X84.4930 Y115.0400 E1.8544
G1 X91.9650 Y122.5120 E2.2340
G1 X92.6440 Y122.5120 E2.2583
G1 X84.4930 Y114.3610 E2.6724
G1 X84.4930 Y113.6820 E2.6968
G1 X93.3230 Y122.5120 E3.1454
G1 X94.0010 Y122.5120 E3.1697
G1 X84.4930 Y113.0030 E3.6528
G1 X84.4930 Y112.3240 E3.6772
G1 X94.6800 Y122.5120 E4.1947
G1 X95.3590 Y122.5120 E4.2191
G1 X84.4930 Y111.6460 E4.7711
G1 X84.4930 Y110.9670 E4.7955
G1 X96.0380 Y122.5120 E5.3820
G1 X96.7170 Y122.5120 E5.4063
G1 X84.5530 Y110.3490 E6.0242
G1 X84.5730 Y110.2400 E6.0282
G1 X84.6520 Y109.9440 E6.0392
G1 X84.6990 Y109.8150 E6.0441
G1 X97.3960 Y122.5120 E6.6891
G1 X98.0740 Y122.5120 E6.7135
G1 X84.9060 Y109.3440 E7.3824
G1 X85.0390 Y109.1140 E7.3920
G1 X85.1690 Y108.9280 E7.4001
G1 X98.7530 Y122.5120 E8.0902
G1 X99.4320 Y122.5120 E8.1146
G1 X85.4800 Y108.5600 E8.8233
G1 X85.6280 Y108.4120 E8.8309
G1 X85.8360 Y108.2370 E8.8406
G1 X100.1110 Y122.5120 E9.5658
G1 X100.7900 Y122.5120 E9.5902
G1 X86.2420 Y107.9640 E10.3292
G1 X86.2590 Y107.9520 E10.3300
G1 X86.5160 Y107.8180 E10.3404
G1 X86.6990 Y107.7430 E10.3475
G1 X101.4690 Y122.5120 E11.0978
G1 X102.1470 Y122.5120 E11.1222
G1 X87.2170 Y107.5810 E11.8806
G1 X87.3900 Y107.5430 E11.8870
G1 X87.6940 Y107.5030 E11.8980
G1 X87.8120 Y107.4980 E11.9023
G1 X102.8260 Y122.5120 E12.6650
G1 X103.5050 Y122.5120 E12.6894
G1 X88.4810 Y107.4880 E13.4526
G1 X89.1600 Y107.4880 E13.4770
G1 X104.1840 Y122.5120 E14.2402
G1 X104.8630 Y122.5120 E14.2646
G1 X89.8390 Y107.4880 E15.0278
G1 X90.5170 Y107.4880 E15.0522
G1 X105.5410 Y122.5120 E15.8154
G1 X106.2200 Y122.5120 E15.8398
G1 X91.1960 Y107.4880 E16.6030
G1 X91.8750 Y107.4880 E16.6274
G1 X106.8990 Y122.5120 E17.3906
G1 X107.5780 Y122.5120 E17.4150
G1 X92.5540 Y107.4880 E18.1782
G1 X93.2330 Y107.4880 E18.2026
G1 X108.2570 Y122.5120 E18.9658
G1 X108.9360 Y122.5120 E18.9902
G1 X93.9120 Y107.4880 E19.7534
G1 X94.5900 Y107.4880 E19.7778
G1 X109.6140 Y122.5120 E20.5410
G1 X110.2930 Y122.5120 E20.5654
G1 X95.2690 Y107.4880 E21.3286
G1 X95.9480 Y107.4880 E21.3530
G1 X110.9720 Y122.5120 E22.1162
G1 X111.6510 Y122.5120 E22.1406
G1 X96.6270 Y107.4880 E22.9038
G1 X97.3060 Y107.4880 E22.9282
G1 X112.3300 Y122.5120 E23.6914
G1 X113.0080 Y122.5120 E23.7158
G1 X97.9840 Y107.4880 E24.4790
G1 X98.6630 Y107.4880 E24.5034
G1 X113.6870 Y122.5120 E25.2666
G1 X114.3660 Y122.5120 E25.2910
G1 X99.3420 Y107.4880 E26.0542
G1 X100.0210 Y107.4880 E26.0786
G1 X115.0450 Y122.5120 E26.8418
G1 X115.7240 Y122.5120 E26.8662
G1 X100.7000 Y107.4880 E27.6294
G1 X101.3790 Y107.4880 E27.6538
G1 X116.4030 Y122.5120 E28.4170
G1 X117.0810 Y122.5120 E28.4414
G1 X102.0570 Y107.4880 E29.2046
G1 X102.7360 Y107.4880 E29.2290
G1 X117.7600 Y122.5120 E29.9922
G1 X118.4390 Y122.5120 E30.0166
G1 X103.4150 Y107.4880 E30.7798
G1 X104.0940 Y107.4880 E30.8042
G1 X119.1180 Y122.5120 E31.5674
G1 X119.7970 Y122.5120 E31.5918
G1 X104.7730 Y107.4880 E32.3550
G1 X105.4520 Y107.4880 E32.3794
G1 X120.4760 Y122.5120 E33.1426
G1 X121.1540 Y122.5120 E33.1670
G1 X106.1300 Y107.4880 E33.9302
G1 X106.8090 Y107.4880 E33.9546
G1 X121.8330 Y122.5120 E34.7178
G1 X122.5120 Y122.5120 E34.7422
G1 X107.4880 Y107.4880 E35.5054
G1 X108.1670 Y107.4880 E35.5298
G1 X123.1910 Y122.5120 E36.2930
G1 X123.8700 Y122.5120 E36.3174
G1 X108.8460 Y107.4880 E37.0806
G1 X109.5240 Y107.4880 E37.1050
G1 X124.5480 Y122.5120 E37.8682
G1 X125.2270 Y122.5120 E37.8926
G1 X110.2030 Y107.4880 E38.6558
G1 X110.8820 Y107.4880 E38.6802
G1 X125.9060 Y122.5120 E39.4434
G1 X126.5850 Y122.5120 E39.4678
G1 X111.5610 Y107.4880 E40.2310
G1 X112.2400 Y107.4880 E40.2554
G1 X127.2640 Y122.5120 E41.0186
G1 X127.9430 Y122.5120 E41.0430
G1 X112.9190 Y107.4880 E41.8062
G1 X113.5970 Y107.4880 E41.8306
G1 X128.6210 Y122.5120 E42.5938
G1 X129.3000 Y122.5120 E42.6182
G1 X114.2760 Y107.4880 E43.3814
G1 X114.9550 Y107.4880 E43.4058
G1 X129.9790 Y122.5120 E44.1690
G1 X130.6580 Y122.5120 E44.1934
G1 X115.6340 Y107.4880 E44.9567
G1 X116.3130 Y107.4880 E44.9810
G1 X131.3370 Y122.5120 E45.7443
G1 X132.0160 Y122.5120 E45.7686
G1 X116.9920 Y107.4880 E46.5319
G1 X117.6700 Y107.4880 E46.5562
G1 X132.6940 Y122.5120 E47.3195
G1 X133.3730 Y122.5120 E47.3438
G1 X118.3490 Y107.4880 E48.1071
G1 X119.0280 Y107.4880 E48.1314
G1 X134.0520 Y122.5120 E48.8947
G1 X134.7310 Y122.5120 E48.9190
G1 X119.7070 Y107.4880 E49.6823
G1 X120.3860 Y107.4880 E49.7066
G1 X135.4100 Y122.5120 E50.4699
G1 X136.0880 Y122.5120 E50.4942
G1 X121.0640 Y107.4880 E51.2575
G1 X121.7430 Y107.4880 E51.2818
G1 X136.7670 Y122.5120 E52.0451
G1 X137.4460 Y122.5120 E52.0694
G1 X122.4220 Y107.4880 E52.8327
G1 X123.1010 Y107.4880 E52.8570
G1 X138.1250 Y122.5120 E53.6203
G1 X138.8040 Y122.5120 E53.6447
G1 X123.7800 Y107.4880 E54.4079
G1 X124.4590 Y107.4880 E54.4323
G1 X139.4830 Y122.5120 E55.1955
G1 X140.1610 Y122.5120 E55.2199
G1 X125.1370 Y107.4880 E55.9831
G1 X125.8160 Y107.4880 E56.0075
G1 X140.8400 Y122.5120 E56.7707
G1 X141.5190 Y122.5120 E56.7951
G1 X126.4950 Y107.4880 E57.5583
G1 X127.1740 Y107.4880 E57.5827
G1 X142.1880 Y122.5020 E58.3454
G1 X142.3060 Y122.4970 E58.3496
G1 X142.6100 Y122.4570 E58.3606
G1 X142.7830 Y122.4190 E58.3670
G1 X127.8530 Y107.4880 E59.1255
G1 X128.5320 Y107.4880 E59.1499
G1 X143.3000 Y122.2560 E59.9001
G1 X143.3580 Y122.2360 E59.9023
G1 X143.6210 Y122.1140 E59.9127
G1 X143.7570 Y122.0350 E59.9184
G1 X129.2100 Y107.4880 E60.6574
G1 X129.8890 Y107.4880 E60.6818
G1 X144.1640 Y121.7630 E61.4069
G1 X144.3720 Y121.5880 E61.4167
G1 X144.5200 Y121.4400 E61.4242
G1 X130.5680 Y107.4880 E62.1330
G1 X131.2470 Y107.4880 E62.1573
G1 X144.8310 Y121.0720 E62.8474
G1 X144.9610 Y120.8860 E62.8556
G1 X145.0940 Y120.6560 E62.8651
G1 X131.9260 Y107.4880 E63.5340
G1 X132.6040 Y107.4880 E63.5584
G1 X145.3010 Y120.1850 E64.2034
G1 X145.3480 Y120.0560 E64.2083
G1 X145.4270 Y119.7600 E64.2193
G1 X145.4470 Y119.6510 E64.2233
G1 X133.2830 Y107.4880 E64.8412
G1 X133.9620 Y107.4880 E64.8656
G1 X145.5070 Y119.0330 E65.4520
G1 X145.5120 Y118.9510 E65.4550
G1 X145.5120 Y118.3590 E65.4762
G1 X134.6410 Y107.4880 E66.0285
G1 X135.3200 Y107.4880 E66.0529
G1 X145.5120 Y117.6800 E66.5706
G1 X145.5120 Y117.0010 E66.5950
G1 X135.9990 Y107.4880 E67.0783
G1 X136.6770 Y107.4880 E67.1027
G1 X145.5120 Y116.3230 E67.5515
G1 X145.5120 Y115.6440 E67.5759
G1 X137.3560 Y107.4880 E67.9902
G1 X138.0350 Y107.4880 E68.0146
G1 X145.5120 Y114.9650 E68.3944
G1 X145.5120 Y114.2860 E68.4188
G1 X138.7140 Y107.4880 E68.7641
G1 X139.3930 Y107.4880 E68.7885
G1 X145.5120 Y113.6070 E69.0994
G1 X145.5120 Y112.9290 E69.1238
G1 X140.0710 Y107.4880 E69.4001
G1 X140.7500 Y107.4880 E69.4245
G1 X145.5120 Y112.2500 E69.6664
G1 X145.5120 Y111.5710 E69.6908
G1 X141.4290 Y107.4880 E69.8982
G1 X141.9510 Y107.4880 E69.9170
G1 X142.1190 Y107.4990 E69.9230
G1 X145.5060 Y110.8860 E70.0950
G1 X145.4970 Y110.6940 E70.1019
G1 X145.4590 Y110.4060 E70.1123
G1 X145.3800 Y110.0810 E70.1244
G1 X142.9100 Y107.6110 E70.2498
G92 E0.0000
G1 E-5 F1800 ; custom retraction - A
;layer 4, Z = 0.800
;fan4;
G1 Z0.800 F1200
G1 X88.0260 Y107.2000 F6000
G1 E0 F1800 ; custom un-retraction/prime - A
G92 E0.0000
G1 X141.9610 Y107.2000 E1.9374 F2880
G1 X142.4960 Y107.2350 E1.9566
G1 X142.9830 Y107.3320 E1.9745
G1 X143.4530 Y107.4920 E1.9923
G1 X143.9110 Y107.7170 E2.0106
G1 X144.1790 Y107.8880 E2.0221
G1 X144.4310 Y108.0820 E2.0335
G1 X144.8000 Y108.4340 E2.0518
G1 X145.1190 Y108.8320 E2.0701
G1 X145.2900 Y109.1010 E2.0816
G1 X145.4370 Y109.3830 E2.0930
G1 X145.6220 Y109.8580 E2.1113
G1 X145.7430 Y110.3530 E2.1296
G1 X145.7840 Y110.6690 E2.1411
G1 X145.8000 Y111.0260 E2.1539
G1 X145.8000 Y118.9610 E2.4389
G1 X145.7640 Y119.5090 E2.4587
G1 X145.7090 Y119.8220 E2.4701
G1 X145.6230 Y120.1420 E2.4820
G1 X145.5100 Y120.4540 E2.4939
G1 X145.3700 Y120.7540 E2.5058
G1 X145.2040 Y121.0410 E2.5177
G1 X145.0140 Y121.3130 E2.5296
G1 X144.8010 Y121.5670 E2.5415
G1 X144.5670 Y121.8010 E2.5534
G1 X144.3130 Y122.0140 E2.5653
G1 X144.0410 Y122.2040 E2.5772
G1 X143.7540 Y122.3700 E2.5891
G1 X143.4660 Y122.5040 E2.6006
G1 X142.9700 Y122.6720 E2.6194
G1 X142.6600 Y122.7410 E2.6308
G1 X142.3310 Y122.7840 E2.6427
G1 X141.9740 Y122.8000 E2.6555
G1 X88.0390 Y122.8000 E4.5929
G1 X87.5040 Y122.7650 E4.6122
G1 X87.0170 Y122.6680 E4.6300
G1 X86.5340 Y122.5040 E4.6483
G1 X86.2460 Y122.3700 E4.6598
G1 X85.9700 Y122.2100 E4.6712
G1 X85.5590 Y121.9090 E4.6895
G1 X85.2000 Y121.5660 E4.7074
G1 X84.8810 Y121.1680 E4.7257
G1 X84.7100 Y120.8990 E4.7371
G1 X84.5630 Y120.6170 E4.7485
G1 X84.3780 Y120.1420 E4.7669
G1 X84.2600 Y119.6600 E4.7847
G1 X84.2050 Y119.1520 E4.8030
G1 X84.2050 Y110.8340 E5.1018
G1 X84.2340 Y110.5040 E5.1137
G1 X84.2910 Y110.1780 E5.1256
G1 X84.3770 Y109.8580 E5.1375
G1 X84.4900 Y109.5460 E5.1494
G1 X84.6300 Y109.2460 E5.1613
G1 X84.7960 Y108.9590 E5.1732
G1 X84.9860 Y108.6870 E5.1851
G1 X85.1990 Y108.4330 E5.1970
G1 X85.4340 Y108.1990 E5.2089
G1 X85.6770 Y107.9950 E5.2204
G1 X86.1120 Y107.7040 E5.2392
G1 X86.3950 Y107.5570 E5.2506
G1 X86.7010 Y107.4300 E5.2625
G1 X87.0170 Y107.3310 E5.2744
G1 X87.3400 Y107.2590 E5.2863
G1 X87.6690 Y107.2160 E5.2982
G1 X88.0260 Y107.2000 E5.3111
G1 X88.0160 Y106.7200 F6000
G92 E0.0000
G1 X141.9770 Y106.7200 E1.9383 F2880
G1 X142.5580 Y106.7580 E1.9593
G1 X143.1070 Y106.8670 E1.9794
G1 X143.6370 Y107.0470 E1.9995
G1 X144.1460 Y107.2980 E2.0199
G1 X144.4540 Y107.4950 E2.0330
G1 X144.7440 Y107.7170 E2.0461
G1 X145.1540 Y108.1090 E2.0665
G1 X145.5100 Y108.5520 E2.0869
G1 X145.7060 Y108.8600 E2.1000
G1 X145.8750 Y109.1850 E2.1132
G1 X146.0800 Y109.7130 E2.1335
G1 X146.2150 Y110.2650 E2.1539
G1 X146.2630 Y110.6270 E2.1670
G1 X146.2800 Y111.0160 E2.1810
G1 X146.2800 Y118.9770 E2.4670
G1 X146.2410 Y119.5660 E2.4882
G1 X146.1780 Y119.9260 E2.5013
G1 X146.0810 Y120.2870 E2.5147
G1 X145.9540 Y120.6380 E2.5282
G1 X145.7960 Y120.9760 E2.5416
G1 X145.6090 Y121.2990 E2.5550
G1 X145.3950 Y121.6050 E2.5684
G1 X145.1550 Y121.8910 E2.5818
G1 X144.8910 Y122.1550 E2.5952
G1 X144.6050 Y122.3950 E2.6086
G1 X144.2990 Y122.6090 E2.6220
G1 X143.9760 Y122.7960 E2.6354
G1 X143.6450 Y122.9500 E2.6486
G1 X143.1000 Y123.1350 E2.6692
G1 X142.7430 Y123.2140 E2.6824
G1 X142.3730 Y123.2630 E2.6958
G1 X141.9840 Y123.2800 E2.7097
G1 X88.0230 Y123.2800 E4.6481
G1 X87.4420 Y123.2420 E4.6690
G1 X86.8930 Y123.1330 E4.6891
G1 X86.3550 Y122.9500 E4.7095
G1 X86.0240 Y122.7960 E4.7226
G1 X85.7080 Y122.6130 E4.7358
G1 X85.2500 Y122.2780 E4.7561
G1 X84.8460 Y121.8900 E4.7763
G1 X84.4900 Y121.4480 E4.7966
G1 X84.2940 Y121.1400 E4.8098
G1 X84.1250 Y120.8160 E4.8229
G1 X83.9200 Y120.2860 E4.8433
G1 X83.7870 Y119.7430 E4.8634
G1 X83.7250 Y119.1790 E4.8838
G1 X83.7250 Y110.8130 E5.1843
G1 X83.7570 Y110.4420 E5.1977
G1 X83.8220 Y110.0740 E5.2111
G1 X83.9190 Y109.7130 E5.2245
G1 X84.0460 Y109.3620 E5.2379
G1 X84.2040 Y109.0240 E5.2513
G1 X84.3910 Y108.7010 E5.2647
G1 X84.6050 Y108.3950 E5.2781
G1 X84.8450 Y108.1090 E5.2915
G1 X85.1090 Y107.8450 E5.3050
G1 X85.3890 Y107.6100 E5.3181
G1 X85.8670 Y107.2900 E5.3388
G1 X86.1920 Y107.1220 E5.3519
G1 X86.5370 Y106.9790 E5.3653
G1 X86.8920 Y106.8670 E5.3787
G1 X87.2570 Y106.7860 E5.3921
G1 X87.6270 Y106.7370 E5.4055
G1 X88.0160 Y106.7200 E5.4195
G1 X88.0050 Y106.2400 F6000
G92 E0.0000
G1 X141.9920 Y106.2400 E1.9393 F2160
G1 X142.6210 Y106.2810 E1.9619
G1 X143.2320 Y106.4030 E1.9843
G1 X143.8210 Y106.6030 E2.0066
G1 X144.3820 Y106.8790 E2.0291
G1 X144.7300 Y107.1010 E2.0439
G1 X145.0570 Y107.3520 E2.0587
G1 X145.5090 Y107.7850 E2.0812
G1 X145.9000 Y108.2720 E2.1036
G1 X146.1220 Y108.6200 E2.1185
G1 X146.3130 Y108.9860 E2.1333
G1 X146.5390 Y109.5690 E2.1558
G1 X146.6880 Y110.1760 E2.1782
G1 X146.7420 Y110.5850 E2.1930
G1 X146.7600 Y111.0050 E2.2081
G1 X146.7600 Y118.9920 E2.4950
G1 X146.7190 Y119.6240 E2.5178
G1 X146.6470 Y120.0300 E2.5326
G1 X146.5390 Y120.4310 E2.5475
G1 X146.3970 Y120.8220 E2.5624
G1 X146.2220 Y121.1980 E2.5773
G1 X146.0140 Y121.5570 E2.5923
G1 X145.7760 Y121.8980 E2.6072
G1 X145.5090 Y122.2160 E2.6221
G1 X145.2160 Y122.5090 E2.6370
G1 X144.8980 Y122.7760 E2.6519
G1 X144.5570 Y123.0140 E2.6668
G1 X144.1980 Y123.2220 E2.6817
G1 X143.8240 Y123.3960 E2.6966
G1 X143.2290 Y123.5980 E2.7191
G1 X142.8270 Y123.6870 E2.7339
G1 X142.4150 Y123.7420 E2.7489
G1 X141.9950 Y123.7600 E2.7640
G1 X88.0080 Y123.7600 E4.7032
G1 X87.3790 Y123.7190 E4.7259
G1 X86.7680 Y123.5970 E4.7482
G1 X86.1760 Y123.3960 E4.7707
G1 X85.8020 Y123.2220 E4.7855
G1 X85.4450 Y123.0160 E4.8003
G1 X84.9410 Y122.6460 E4.8228
G1 X84.4910 Y122.2150 E4.8452
G1 X84.1000 Y121.7280 E4.8676
G1 X83.8780 Y121.3800 E4.8824
G1 X83.6870 Y121.0140 E4.8973
G1 X83.4610 Y120.4310 E4.9197
G1 X83.3130 Y119.8260 E4.9421
G1 X83.2450 Y119.2050 E4.9645
G1 X83.2450 Y110.7920 E5.2667
G1 X83.2810 Y110.3790 E5.2816
G1 X83.3530 Y109.9700 E5.2966
G1 X83.4600 Y109.5690 E5.3115
G1 X83.6030 Y109.1790 E5.3264
G1 X83.7780 Y108.8020 E5.3413
G1 X83.9860 Y108.4420 E5.3562
G1 X84.2240 Y108.1020 E5.3711
G1 X84.4910 Y107.7840 E5.3860
G1 X84.7840 Y107.4910 E5.4010
G1 X85.1000 Y107.2250 E5.4158
G1 X85.6220 Y106.8770 E5.4383
G1 X85.9880 Y106.6860 E5.4532
G1 X86.3720 Y106.5270 E5.4681
G1 X86.7680 Y106.4020 E5.4830
G1 X87.1730 Y106.3130 E5.4979
G1 X87.5850 Y106.2580 E5.5128
G1 X88.0050 Y106.2400 E5.5279
G1 X84.6130 Y110.0880 F6000
G92 E0.0000
G1 X87.0920 Y107.6090 E0.1259 F2880
G1 X87.3900 Y107.5430 E0.1369
G1 X87.6940 Y107.5030 E0.1479
G1 X87.8860 Y107.4940 E0.1548
G1 X84.4930 Y110.8870 E0.3271
G1 X84.4930 Y111.5660 E0.3515
G1 X88.5710 Y107.4880 E0.5587
G1 X89.2500 Y107.4880 E0.5831
G1 X84.4930 Y112.2450 E0.8247
G1 X84.4930 Y112.9240 E0.8491
G1 X89.9290 Y107.4880 E1.1253
G1 X90.6070 Y107.4880 E1.1496
G1 X84.4930 Y113.6030 E1.4603
G1 X84.4930 Y114.2810 E1.4847
G1 X91.2860 Y107.4880 E1.8298
G1 X91.9650 Y107.4880 E1.8541
G1 X84.4930 Y114.9600 E2.2337
G1 X84.4930 Y115.6390 E2.2581
G1 X92.6440 Y107.4880 E2.6722
G1 X93.3230 Y107.4880 E2.6966
G1 X88.7550 Y112.0560 E2.9286
G1 X87.7720 Y112.3750 E2.9657
G1 X87.7720 Y113.0390 E2.9896
G1 X84.4930 Y116.3180 E3.1562
G1 X84.4930 Y116.9970 E3.1805
G1 X87.7720 Y113.7180 E3.3471
G1 X87.7720 Y114.3960 E3.3715
G1 X84.4930 Y117.6760 E3.5381
G1 X84.4930 Y118.3540 E3.5625
G1 X87.7720 Y115.0750 E3.7291
G1 X87.7720 Y115.6130 E3.7484
G1 X87.8780 Y115.6480 E3.7524
G1 X84.4930 Y119.0330 E3.9244
G1 X84.4930 Y119.1370 E3.9281
G1 X84.5440 Y119.6090 E3.9452
G1 X84.5550 Y119.6500 E3.9467
G1 X88.3910 Y115.8140 E4.1416
G1 X88.9030 Y115.9810 E4.1609
G1 X84.7030 Y120.1810 E4.3743
G1 X84.8260 Y120.4980 E4.3865
G1 X84.9070 Y120.6550 E4.3929
G1 X89.4150 Y116.1470 E4.6219
G1 X89.9280 Y116.3130 E4.6412
G1 X85.1720 Y121.0700 E4.8829
G1 X85.4130 Y121.3700 E4.8967
G1 X85.4830 Y121.4370 E4.9002
G1 X90.4400 Y116.4800 E5.1520
G1 X90.8510 Y116.6130 E5.1675
G1 X92.2980 Y114.6230 E5.2559
G1 X99.4320 Y107.4880 E5.6184
G1 X100.1110 Y107.4880 E5.6427
G1 X85.8410 Y121.7580 E6.3677
G1 X86.1280 Y121.9690 E6.3805
G1 X86.2430 Y122.0350 E6.3852
G1 X100.7900 Y107.4880 E7.1242
G1 X101.4690 Y107.4880 E7.1486
G1 X86.7000 Y122.2560 E7.8988
G1 X87.0920 Y122.3890 E7.9137
G1 X87.2210 Y122.4150 E7.9184
G1 X102.1470 Y107.4880 E8.6767
G1 X102.8260 Y107.4880 E8.7011
G1 X87.8170 Y122.4970 E9.4635
G1 X88.0490 Y122.5120 E9.4718
G1 X88.4810 Y122.5120 E9.4874
G1 X103.5050 Y107.4880 E10.2506
G1 X104.1840 Y107.4880 E10.2750
G1 X89.1600 Y122.5120 E11.0382
G1 X89.8390 Y122.5120 E11.0626
G1 X104.8630 Y107.4880 E11.8258
G1 X105.5410 Y107.4880 E11.8502
G1 X90.5170 Y122.5120 E12.6134
G1 X91.1960 Y122.5120 E12.6378
G1 X106.2200 Y107.4880 E13.4010
G1 X106.8990 Y107.4880 E13.4254
G1 X91.8750 Y122.5120 E14.1886
G1 X92.5540 Y122.5120 E14.2130
G1 X107.5780 Y107.4880 E14.9762
G1 X108.2570 Y107.4880 E15.0006
G1 X93.2330 Y122.5120 E15.7638
G1 X93.9120 Y122.5120 E15.7882
G1 X108.9360 Y107.4880 E16.5514
G1 X109.6140 Y107.4880 E16.5758
G1 X94.5900 Y122.5120 E17.3390
G1 X95.2690 Y122.5120 E17.3634
G1 X110.2930 Y107.4880 E18.1266
G1 X110.9720 Y107.4880 E18.1510
G1 X95.9480 Y122.5120 E18.9142
G1 X96.6270 Y122.5120 E18.9386
G1 X111.6510 Y107.4880 E19.7018
G1 X112.3300 Y107.4880 E19.7262
G1 X97.3060 Y122.5120 E20.4894
G1 X97.9850 Y122.5120 E20.5138
G1 X113.0090 Y107.4880 E21.2770
G1 X113.6870 Y107.4880 E21.3014
G1 X98.6630 Y122.5120 E22.0646
G1 X99.3420 Y122.5120 E22.0890
G1 X114.3660 Y107.4880 E22.8522
G1 X115.0450 Y107.4880 E22.8766
G1 X100.0210 Y122.5120 E23.6398
G1 X100.7000 Y122.5120 E23.6642
G1 X115.7240 Y107.4880 E24.4274
G1 X116.4030 Y107.4880 E24.4518
G1 X101.3790 Y122.5120 E25.2150
G1 X102.0570 Y122.5120 E25.2394
G1 X117.0810 Y107.4880 E26.0026
G1 X117.7600 Y107.4880 E26.0270
G1 X102.7360 Y122.5120 E26.7902
G1 X103.4150 Y122.5120 E26.8146
G1 X118.4390 Y107.4880 E27.5778
G1 X119.1180 Y107.4880 E27.6022
G1 X104.0940 Y122.5120 E28.3654
G1 X104.7730 Y122.5120 E28.3898
G1 X119.7970 Y107.4880 E29.1530
G1 X120.4760 Y107.4880 E29.1774
G1 X105.4520 Y122.5120 E29.9406
G1 X106.1300 Y122.5120 E29.9650
G1 X121.1540 Y107.4880 E30.7282
G1 X121.8330 Y107.4880 E30.7526
G1 X106.8090 Y122.5120 E31.5158
G1 X107.4880 Y122.5120 E31.5402
G1 X122.5120 Y107.4880 E32.3034
G1 X123.1910 Y107.4880 E32.3278
G1 X108.1670 Y122.5120 E33.0910
G1 X108.8460 Y122.5120 E33.1154
G1 X123.8700 Y107.4880 E33.8786
G1 X124.5490 Y107.4880 E33.9030
G1 X109.5250 Y122.5120 E34.6662
G1 X110.2030 Y122.5120 E34.6906
G1 X125.2270 Y107.4880 E35.4538
G1 X125.9060 Y107.4880 E35.4782
G1 X110.8820 Y122.5120 E36.2414
G1 X111.5610 Y122.5120 E36.2658
G1 X126.5850 Y107.4880 E37.0290
G1 X127.2640 Y107.4880 E37.0534
G1 X112.2400 Y122.5120 E37.8166
G1 X112.9190 Y122.5120 E37.8410
G1 X127.9430 Y107.4880 E38.6042
G1 X128.6210 Y107.4880 E38.6286
G1 X113.5970 Y122.5120 E39.3918
G1 X114.2760 Y122.5120 E39.4162
G1 X129.3000 Y107.4880 E40.1794
G1 X129.9790 Y107.4880 E40.2038
G1 X114.9550 Y122.5120 E40.9670
G1 X115.6340 Y122.5120 E40.9914
G1 X130.6580 Y107.4880 E41.7546
G1 X131.3370 Y107.4880 E41.7790
G1 X116.3130 Y122.5120 E42.5423
G1 X116.9920 Y122.5120 E42.5666
G1 X132.0160 Y107.4880 E43.3299
G1 X132.6940 Y107.4880 E43.3542
G1 X117.6700 Y122.5120 E44.1175
G1 X118.3490 Y122.5120 E44.1418
G1 X133.3730 Y107.4880 E44.9051
G1 X134.0520 Y107.4880 E44.9294
G1 X119.0280 Y122.5120 E45.6927
G1 X119.7070 Y122.5120 E45.7170
G1 X134.7310 Y107.4880 E46.4803
G1 X135.4100 Y107.4880 E46.5046
G1 X120.3860 Y122.5120 E47.2679
G1 X121.0640 Y122.5120 E47.2922
G1 X136.0880 Y107.4880 E48.0555
G1 X136.7670 Y107.4880 E48.0798
G1 X121.7430 Y122.5120 E48.8431
G1 X122.4220 Y122.5120 E48.8674
G1 X137.4460 Y107.4880 E49.6307
G1 X138.1250 Y107.4880 E49.6550
G1 X123.1010 Y122.5120 E50.4183
G1 X123.7800 Y122.5120 E50.4426
G1 X138.8040 Y107.4880 E51.2059
G1 X139.4830 Y107.4880 E51.2303
G1 X124.4590 Y122.5120 E51.9935
G1 X125.1370 Y122.5120 E52.0179
G1 X140.1610 Y107.4880 E52.7811
G1 X140.8400 Y107.4880 E52.8055
G1 X125.8160 Y122.5120 E53.5687
G1 X126.4950 Y122.5120 E53.5931
G1 X141.5190 Y107.4880 E54.3563
G1 X141.9510 Y107.4880 E54.3718
G1 X142.1830 Y107.5030 E54.3801
G1 X127.1740 Y122.5120 E55.1426
G1 X127.8530 Y122.5120 E55.1670
G1 X142.7800 Y107.5850 E55.9252
G1 X142.9080 Y107.6110 E55.9300
G1 X143.3000 Y107.7440 E55.9448
G1 X139.5410 Y111.5020 E56.1357
G1 X139.1490 Y111.3750 E56.1506
G1 X137.7680 Y113.2750 E56.2349
G1 X128.5320 Y122.5120 E56.7042
G1 X129.2100 Y122.5120 E56.7285
G1 X137.4490 Y114.2730 E57.1471
G1 X137.7350 Y114.6670 E57.1645
G1 X129.8890 Y122.5120 E57.5631
G1 X130.5680 Y122.5120 E57.5874
G1 X138.0200 Y115.0600 E57.9660
G1 X138.3060 Y115.4530 E57.9835
G1 X131.2470 Y122.5120 E58.3421
G1 X131.9260 Y122.5120 E58.3665
G1 X138.5910 Y115.8460 E58.7051
G1 X138.8770 Y116.2390 E58.7225
G1 X132.6040 Y122.5120 E59.0412
G1 X133.2830 Y122.5120 E59.0656
G1 X139.1980 Y116.5980 E59.3660
G1 X140.2030 Y116.2710 E59.4040
G1 X133.9620 Y122.5120 E59.7210
G1 X134.6410 Y122.5120 E59.7454
G1 X141.2090 Y115.9440 E60.0791
G1 X142.2140 Y115.6170 E60.1171
G1 X135.3200 Y122.5120 E60.4673
G1 X135.9990 Y122.5120 E60.4917
G1 X145.5120 Y112.9990 E60.9750
G1 X145.5120 Y113.6770 E60.9993
G1 X136.6770 Y122.5120 E61.4481
G1 X137.3560 Y122.5120 E61.4725
G1 X145.5120 Y114.3560 E61.8868
G1 X145.5120 Y115.0350 E61.9112
G1 X138.0350 Y122.5120 E62.2911
G1 X138.7140 Y122.5120 E62.3154
G1 X145.5120 Y115.7140 E62.6608
G1 X145.5120 Y116.3930 E62.6852
G1 X139.3930 Y122.5120 E62.9960
G1 X140.0720 Y122.5120 E63.0204
G1 X145.5120 Y117.0720 E63.2968
G1 X145.5120 Y117.7500 E63.3212
G1 X140.7500 Y122.5120 E63.5631
G1 X141.4290 Y122.5120 E63.5874
G1 X145.5120 Y118.4290 E63.7949
G1 X145.5120 Y118.9510 E63.8136
G1 X145.5010 Y119.1190 E63.8196
G1 X142.1140 Y122.5060 E63.9917
G1 X142.3060 Y122.4970 E63.9986
G1 X142.6100 Y122.4570 E64.0096
G1 X142.7520 Y122.4260 E64.0148
G1 X142.8930 Y122.3940 E64.0200
G1 X142.9100 Y122.3890 E64.0207
G1 X145.3870 Y119.9120 E64.1464
G1 X142.2280 Y115.6040 F6000
G92 E0.0000
G1 X145.5120 Y112.3200 E0.1668 F2880
G1 X145.5120 Y111.6410 E0.1912
G1 X142.2280 Y114.9250 E0.3580
G1 X142.2280 Y114.2460 E0.3824
G1 X145.5090 Y110.9650 E0.5491
G1 X145.4970 Y110.6940 E0.5588
G1 X145.4590 Y110.4060 E0.5693
G1 X145.4460 Y110.3500 E0.5713
G1 X142.2280 Y113.5670 E0.7348
G1 X142.2280 Y112.8880 E0.7592
G1 X145.2970 Y109.8190 E0.9151
G1 X145.1740 Y109.5020 E0.9273
G1 X145.1100 Y109.3790 E0.9323
G1 X145.0930 Y109.3450 E0.9337
G1 X142.1030 Y112.3350 E1.0855
G1 X141.5910 Y112.1680 E1.1049
G1 X144.8280 Y108.9300 E1.2694
G1 X144.5870 Y108.6290 E1.2832
G1 X144.5170 Y108.5630 E1.2867
G1 X141.0780 Y112.0020 E1.4614
G1 X140.5660 Y111.8350 E1.4808
G1 X144.1630 Y108.2390 E1.6635
G1 X144.0140 Y108.1240 E1.6702
G1 X143.8680 Y108.0310 E1.6764
G1 X143.7690 Y107.9690 E1.6806
G1 X143.7590 Y107.9630 E1.6810
G1 X140.0540 Y111.6690 E1.8693
G1 X92.5410 Y113.7010 F6000
G92 E0.0000
G1 X98.7530 Y107.4880 E0.3156 F2880
G1 X98.0740 Y107.4880 E0.3400
G1 X92.2550 Y113.3070 E0.6356
G1 X91.9690 Y112.9140 E0.6531
G1 X97.3960 Y107.4880 E0.9287
G1 X96.7170 Y107.4880 E0.9531
G1 X91.6840 Y112.5210 E1.2088
G1 X91.3980 Y112.1280 E1.2262
G1 X96.0380 Y107.4880 E1.4619
G1 X95.3590 Y107.4880 E1.4863
G1 X91.1120 Y111.7350 E1.7020
G1 X90.8510 Y111.3750 E1.7180
G1 X90.7660 Y111.4030 E1.7212
G1 X94.6800 Y107.4880 E1.9201
G1 X94.0010 Y107.4880 E1.9445
G1 X89.7600 Y111.7290 E2.1600
G92 E0.0000
G1 E-5 F1800 ; custom retraction - A
;layer 5, Z = 1.000
;fan5;
;
G1 Z1.000 F1200
G1 X88.0260 Y107.2000 F6000
G1 E0 F1800 ; custom un-retraction/prime - A
G92 E0.0000
G1 X141.9610 Y107.2000 E1.9374 F2880
G1 X142.4960 Y107.2350 E1.9566
G1 X142.9830 Y107.3320 E1.9745
G1 X143.4530 Y107.4920 E1.9923
G1 X143.9110 Y107.7170 E2.0106
G1 X144.1790 Y107.8880 E2.0221
G1 X144.4310 Y108.0820 E2.0335
G1 X144.8000 Y108.4340 E2.0518
G1 X145.1190 Y108.8320 E2.0701
G1 X145.2900 Y109.1010 E2.0816
G1 X145.4370 Y109.3830 E2.0930
G1 X145.6220 Y109.8580 E2.1113
G1 X145.7430 Y110.3530 E2.1296
G1 X145.7840 Y110.6690 E2.1411
G1 X145.8000 Y111.0260 E2.1539
G1 X145.8000 Y118.9610 E2.4389
G1 X145.7640 Y119.5090 E2.4587
G1 X145.7090 Y119.8220 E2.4701
G1 X145.6230 Y120.1420 E2.4820
G1 X145.5100 Y120.4540 E2.4939
G1 X145.3700 Y120.7540 E2.5058
G1 X145.2040 Y121.0410 E2.5177
G1 X145.0140 Y121.3130 E2.5296
G1 X144.8010 Y121.5670 E2.5415
G1 X144.5670 Y121.8010 E2.5534
G1 X144.3130 Y122.0140 E2.5653
G1 X144.0410 Y122.2040 E2.5772
G1 X143.7540 Y122.3700 E2.5891
G1 X143.4660 Y122.5040 E2.6006
G1 X142.9700 Y122.6720 E2.6194
G1 X142.6600 Y122.7410 E2.6308
G1 X142.3310 Y122.7840 E2.6427
G1 X141.9740 Y122.8000 E2.6555
G1 X88.0390 Y122.8000 E4.5929
G1 X87.5040 Y122.7650 E4.6122
G1 X87.0170 Y122.6680 E4.6300
G1 X86.5340 Y122.5040 E4.6483
G1 X86.2460 Y122.3700 E4.6598
G1 X85.9700 Y122.2100 E4.6712
G1 X85.5590 Y121.9090 E4.6895
G1 X85.2000 Y121.5660 E4.7074
G1 X84.8810 Y121.1680 E4.7257
G1 X84.7100 Y120.8990 E4.7371
G1 X84.5630 Y120.6170 E4.7485
G1 X84.3780 Y120.1420 E4.7669
G1 X84.2600 Y119.6600 E4.7847
G1 X84.2050 Y119.1520 E4.8030
G1 X84.2050 Y110.8340 E5.1018
G1 X84.2340 Y110.5040 E5.1137
G1 X84.2910 Y110.1780 E5.1256
G1 X84.3770 Y109.8580 E5.1375
G1 X84.4900 Y109.5460 E5.1494
G1 X84.6300 Y109.2460 E5.1613
G1 X84.7960 Y108.9590 E5.1732
G1 X84.9860 Y108.6870 E5.1851
G1 X85.1990 Y108.4330 E5.1970
G1 X85.4340 Y108.1990 E5.2089
G1 X85.6770 Y107.9950 E5.2204
G1 X86.1120 Y107.7040 E5.2392
G1 X86.3950 Y107.5570 E5.2506
G1 X86.7010 Y107.4300 E5.2625
G1 X87.0170 Y107.3310 E5.2744
G1 X87.3400 Y107.2590 E5.2863
G1 X87.6690 Y107.2160 E5.2982
G1 X88.0260 Y107.2000 E5.3111
G1 X88.0160 Y106.7200 F6000
G92 E0.0000
G1 X141.9770 Y106.7200 E1.9383 F2880
G1 X142.5580 Y106.7580 E1.9593
G1 X143.1070 Y106.8670 E1.9794
G1 X143.6370 Y107.0470 E1.9995
G1 X144.1460 Y107.2980 E2.0199
G1 X144.4540 Y107.4950 E2.0330
G1 X144.7440 Y107.7170 E2.0461
G1 X145.1540 Y108.1090 E2.0665
G1 X145.5100 Y108.5520 E2.0869
G1 X145.7060 Y108.8600 E2.1000
G1 X145.8750 Y109.1850 E2.1132
G1 X146.0800 Y109.7130 E2.1335
G1 X146.2150 Y110.2650 E2.1539
G1 X146.2630 Y110.6270 E2.1670
G1 X146.2800 Y111.0160 E2.1810
G1 X146.2800 Y118.9770 E2.4670
G1 X146.2410 Y119.5660 E2.4882
G1 X146.1780 Y119.9260 E2.5013
G1 X146.0810 Y120.2870 E2.5147
G1 X145.9540 Y120.6380 E2.5282
G1 X145.7960 Y120.9760 E2.5416
G1 X145.6090 Y121.2990 E2.5550
G1 X145.3950 Y121.6050 E2.5684
G1 X145.1550 Y121.8910 E2.5818
G1 X144.8910 Y122.1550 E2.5952
G1 X144.6050 Y122.3950 E2.6086
G1 X144.2990 Y122.6090 E2.6220
G1 X143.9760 Y122.7960 E2.6354
G1 X143.6450 Y122.9500 E2.6486
G1 X143.1000 Y123.1350 E2.6692
G1 X142.7430 Y123.2140 E2.6824
G1 X142.3730 Y123.2630 E2.6958
G1 X141.9840 Y123.2800 E2.7097
G1 X88.0230 Y123.2800 E4.6481
G1 X87.4420 Y123.2420 E4.6690
G1 X86.8930 Y123.1330 E4.6891
G1 X86.3550 Y122.9500 E4.7095
G1 X86.0240 Y122.7960 E4.7226
G1 X85.7080 Y122.6130 E4.7358
G1 X85.2500 Y122.2780 E4.7561
G1 X84.8460 Y121.8900 E4.7763
G1 X84.4900 Y121.4480 E4.7966
G1 X84.2940 Y121.1400 E4.8098
G1 X84.1250 Y120.8160 E4.8229
G1 X83.9200 Y120.2860 E4.8433
G1 X83.7870 Y119.7430 E4.8634
G1 X83.7250 Y119.1790 E4.8838
G1 X83.7250 Y110.8130 E5.1843
G1 X83.7570 Y110.4420 E5.1977
G1 X83.8220 Y110.0740 E5.2111
G1 X83.9190 Y109.7130 E5.2245
G1 X84.0460 Y109.3620 E5.2379
G1 X84.2040 Y109.0240 E5.2513
G1 X84.3910 Y108.7010 E5.2647
G1 X84.6050 Y108.3950 E5.2781
G1 X84.8450 Y108.1090 E5.2915
G1 X85.1090 Y107.8450 E5.3050
G1 X85.3890 Y107.6100 E5.3181
G1 X85.8670 Y107.2900 E5.3388
G1 X86.1920 Y107.1220 E5.3519
G1 X86.5370 Y106.9790 E5.3653
G1 X86.8920 Y106.8670 E5.3787
G1 X87.2570 Y106.7860 E5.3921
G1 X87.6270 Y106.7370 E5.4055
G1 X88.0160 Y106.7200 E5.4195
G1 X88.0050 Y106.2400 F6000
G92 E0.0000
G1 X141.9920 Y106.2400 E1.9393 F2160
G1 X142.6210 Y106.2810 E1.9619
G1 X143.2320 Y106.4030 E1.9843
G1 X143.8210 Y106.6030 E2.0066
G1 X144.3820 Y106.8790 E2.0291
G1 X144.7300 Y107.1010 E2.0439
G1 X145.0570 Y107.3520 E2.0587
G1 X145.5090 Y107.7850 E2.0812
G1 X145.9000 Y108.2720 E2.1036
G1 X146.1220 Y108.6200 E2.1185
G1 X146.3130 Y108.9860 E2.1333
G1 X146.5390 Y109.5690 E2.1558
G1 X146.6880 Y110.1760 E2.1782
G1 X146.7420 Y110.5850 E2.1930
G1 X146.7600 Y111.0050 E2.2081
G1 X146.7600 Y118.9920 E2.4950
G1 X146.7190 Y119.6240 E2.5178
G1 X146.6470 Y120.0300 E2.5326
G1 X146.5390 Y120.4310 E2.5475
G1 X146.3970 Y120.8220 E2.5624
G1 X146.2220 Y121.1980 E2.5773
G1 X146.0140 Y121.5570 E2.5923
G1 X145.7760 Y121.8980 E2.6072
G1 X145.5090 Y122.2160 E2.6221
G1 X145.2160 Y122.5090 E2.6370
G1 X144.8980 Y122.7760 E2.6519
G1 X144.5570 Y123.0140 E2.6668
G1 X144.1980 Y123.2220 E2.6817
G1 X143.8240 Y123.3960 E2.6966
G1 X143.2290 Y123.5980 E2.7191
G1 X142.8270 Y123.6870 E2.7339
G1 X142.4150 Y123.7420 E2.7489
G1 X141.9950 Y123.7600 E2.7640
G1 X88.0080 Y123.7600 E4.7032
G1 X87.3790 Y123.7190 E4.7259
G1 X86.7680 Y123.5970 E4.7482
G1 X86.1760 Y123.3960 E4.7707
G1 X85.8020 Y123.2220 E4.7855
G1 X85.4450 Y123.0160 E4.8003
G1 X84.9410 Y122.6460 E4.8228
G1 X84.4910 Y122.2150 E4.8452
G1 X84.1000 Y121.7280 E4.8676
G1 X83.8780 Y121.3800 E4.8824
G1 X83.6870 Y121.0140 E4.8973
G1 X83.4610 Y120.4310 E4.9197
G1 X83.3130 Y119.8260 E4.9421
G1 X83.2450 Y119.2050 E4.9645
G1 X83.2450 Y110.7920 E5.2667
G1 X83.2810 Y110.3790 E5.2816
G1 X83.3530 Y109.9700 E5.2966
G1 X83.4600 Y109.5690 E5.3115
G1 X83.6030 Y109.1790 E5.3264
G1 X83.7780 Y108.8020 E5.3413
G1 X83.9860 Y108.4420 E5.3562
G1 X84.2240 Y108.1020 E5.3711
G1 X84.4910 Y107.7840 E5.3860
G1 X84.7840 Y107.4910 E5.4010
G1 X85.1000 Y107.2250 E5.4158
G1 X85.6220 Y106.8770 E5.4383
G1 X85.9880 Y106.6860 E5.4532
G1 X86.3720 Y106.5270 E5.4681
G1 X86.7680 Y106.4020 E5.4830
G1 X87.1730 Y106.3130 E5.4979
G1 X87.5850 Y106.2580 E5.5128
G1 X88.0050 Y106.2400 E5.5279
G1 X92.5510 Y114.2730 F6000
G92 E0.0000
G1 X100.7900 Y122.5120 E0.4185 F2880
G1 X100.1110 Y122.5120 E0.4429
G1 X92.2650 Y114.6670 E0.8414
G1 X91.9800 Y115.0600 E0.8589
G1 X99.4320 Y122.5120 E1.2375
G1 X98.7530 Y122.5120 E1.2619
G1 X91.6940 Y115.4530 E1.6205
G1 X91.4090 Y115.8460 E1.6379
G1 X98.0740 Y122.5120 E1.9765
G1 X97.3960 Y122.5120 E2.0009
G1 X91.1230 Y116.2390 E2.3196
G1 X90.8510 Y116.6130 E2.3362
G1 X90.8020 Y116.5980 E2.3380
G1 X96.7170 Y122.5120 E2.6385
G1 X96.0380 Y122.5120 E2.6629
G1 X89.7970 Y116.2710 E2.9799
G1 X88.7910 Y115.9440 E3.0179
G1 X95.3590 Y122.5120 E3.3515
G1 X94.6800 Y122.5120 E3.3759
G1 X87.7860 Y115.6170 E3.7261
G1 X87.0900 Y122.3890 F6000
G92 E0.0000
G1 X84.6200 Y119.9190 E0.1255 F2880
G1 X84.5440 Y119.6090 E0.1369
G1 X84.4930 Y119.1370 E0.1540
G1 X84.4930 Y119.1130 E0.1548
G1 X87.8810 Y122.5010 E0.3270
G1 X88.0490 Y122.5120 E0.3330
G1 X88.5710 Y122.5120 E0.3518
G1 X84.4930 Y118.4340 E0.5589
G1 X84.4930 Y117.7550 E0.5833
G1 X89.2500 Y122.5120 E0.8250
G1 X89.9290 Y122.5120 E0.8494
G1 X84.4930 Y117.0760 E1.1255
G1 X84.4930 Y116.3970 E1.1499
G1 X90.6070 Y122.5120 E1.4605
G1 X91.2860 Y122.5120 E1.4849
G1 X84.4930 Y115.7190 E1.8300
G1 X84.4930 Y115.0400 E1.8544
G1 X91.9650 Y122.5120 E2.2340
G1 X92.6440 Y122.5120 E2.2583
G1 X84.4930 Y114.3610 E2.6724
G1 X84.4930 Y113.6820 E2.6968
G1 X93.3230 Y122.5120 E3.1454
G1 X94.0010 Y122.5120 E3.1697
G1 X84.4930 Y113.0030 E3.6528
G1 X84.4930 Y112.3240 E3.6772
G1 X87.7720 Y115.6040 E3.8437
G1 X87.7720 Y114.9250 E3.8681
G1 X84.4930 Y111.6460 E4.0347
G1 X84.4930 Y110.9670 E4.0591
G1 X87.7720 Y114.2460 E4.2257
G1 X87.7720 Y113.5670 E4.2501
G1 X84.5530 Y110.3490 E4.4136
G1 X84.5730 Y110.2400 E4.4175
G1 X84.6520 Y109.9440 E4.4285
G1 X84.6990 Y109.8150 E4.4335
G1 X87.7720 Y112.8880 E4.5896
G1 X87.7720 Y112.3750 E4.6080
G1 X87.8970 Y112.3350 E4.6127
G1 X84.9060 Y109.3440 E4.7647
G1 X85.0390 Y109.1140 E4.7742
G1 X85.1690 Y108.9280 E4.7823
G1 X88.4090 Y112.1680 E4.9469
G1 X88.9220 Y112.0020 E4.9663
G1 X85.4800 Y108.5600 E5.1411
G1 X85.6280 Y108.4120 E5.1487
G1 X85.7590 Y108.3020 E5.1548
G1 X85.8360 Y108.2370 E5.1584
G1 X89.4340 Y111.8350 E5.3412
G1 X89.9470 Y111.6690 E5.3605
G1 X86.2420 Y107.9640 E5.5488
G1 X86.2500 Y107.9590 E5.5491
G1 X86.2590 Y107.9520 E5.5495
G1 X86.3810 Y107.8890 E5.5544
G1 X86.5160 Y107.8180 E5.5599
G1 X86.6990 Y107.7430 E5.5670
G1 X90.4590 Y111.5020 E5.7580
G1 X90.8510 Y111.3750 E5.7728
G1 X92.2320 Y113.2750 E5.8572
G1 X101.4690 Y122.5120 E6.3264
G1 X102.1470 Y122.5120 E6.3508
G1 X87.2170 Y107.5810 E7.1093
G1 X87.3900 Y107.5430 E7.1157
G1 X87.6940 Y107.5030 E7.1267
G1 X87.8120 Y107.4980 E7.1309
G1 X102.8260 Y122.5120 E7.8937
G1 X103.5050 Y122.5120 E7.9181
G1 X88.4810 Y107.4880 E8.6813
G1 X89.1600 Y107.4880 E8.7057
G1 X104.1840 Y122.5120 E9.4689
G1 X104.8630 Y122.5120 E9.4933
G1 X89.8390 Y107.4880 E10.2565
G1 X90.5170 Y107.4880 E10.2809
G1 X105.5410 Y122.5120 E11.0441
G1 X106.2200 Y122.5120 E11.0685
G1 X91.1960 Y107.4880 E11.8317
G1 X91.8750 Y107.4880 E11.8561
G1 X106.8990 Y122.5120 E12.6193
G1 X107.5780 Y122.5120 E12.6437
G1 X92.5540 Y107.4880 E13.4069
G1 X93.2330 Y107.4880 E13.4313
G1 X108.2570 Y122.5120 E14.1945
G1 X108.9360 Y122.5120 E14.2189
G1 X93.9120 Y107.4880 E14.9821
G1 X94.5900 Y107.4880 E15.0065
G1 X109.6140 Y122.5120 E15.7697
G1 X110.2930 Y122.5120 E15.7941
G1 X95.2690 Y107.4880 E16.5573
G1 X95.9480 Y107.4880 E16.5817
G1 X110.9720 Y122.5120 E17.3449
G1 X111.6510 Y122.5120 E17.3693
G1 X96.6270 Y107.4880 E18.1325
G1 X97.3060 Y107.4880 E18.1569
G1 X112.3300 Y122.5120 E18.9201
G1 X113.0080 Y122.5120 E18.9445
G1 X97.9840 Y107.4880 E19.7077
G1 X98.6630 Y107.4880 E19.7321
G1 X113.6870 Y122.5120 E20.4953
G1 X114.3660 Y122.5120 E20.5197
G1 X99.3420 Y107.4880 E21.2829
G1 X100.0210 Y107.4880 E21.3073
G1 X115.0450 Y122.5120 E22.0705
G1 X115.7240 Y122.5120 E22.0949
G1 X100.7000 Y107.4880 E22.8581
G1 X101.3790 Y107.4880 E22.8825
G1 X116.4030 Y122.5120 E23.6457
G1 X117.0810 Y122.5120 E23.6701
G1 X102.0570 Y107.4880 E24.4333
G1 X102.7360 Y107.4880 E24.4577
G1 X117.7600 Y122.5120 E25.2209
G1 X118.4390 Y122.5120 E25.2453
G1 X103.4150 Y107.4880 E26.0085
G1 X104.0940 Y107.4880 E26.0329
G1 X119.1180 Y122.5120 E26.7961
G1 X119.7970 Y122.5120 E26.8205
G1 X104.7730 Y107.4880 E27.5837
G1 X105.4520 Y107.4880 E27.6081
G1 X120.4760 Y122.5120 E28.3713
G1 X121.1540 Y122.5120 E28.3957
G1 X106.1300 Y107.4880 E29.1589
G1 X106.8090 Y107.4880 E29.1833
G1 X121.8330 Y122.5120 E29.9465
G1 X122.5120 Y122.5120 E29.9709
G1 X107.4880 Y107.4880 E30.7341
G1 X108.1670 Y107.4880 E30.7585
G1 X123.1910 Y122.5120 E31.5217
G1 X123.8700 Y122.5120 E31.5461
G1 X108.8460 Y107.4880 E32.3093
G1 X109.5240 Y107.4880 E32.3337
G1 X124.5480 Y122.5120 E33.0969
G1 X125.2270 Y122.5120 E33.1213
G1 X110.2030 Y107.4880 E33.8845
G1 X110.8820 Y107.4880 E33.9089
G1 X125.9060 Y122.5120 E34.6721
G1 X126.5850 Y122.5120 E34.6965
G1 X111.5610 Y107.4880 E35.4597
G1 X112.2400 Y107.4880 E35.4841
G1 X127.2640 Y122.5120 E36.2473
G1 X127.9430 Y122.5120 E36.2717
G1 X112.9190 Y107.4880 E37.0349
G1 X113.5970 Y107.4880 E37.0593
G1 X128.6210 Y122.5120 E37.8225
G1 X129.3000 Y122.5120 E37.8469
G1 X114.2760 Y107.4880 E38.6101
G1 X114.9550 Y107.4880 E38.6345
G1 X129.9790 Y122.5120 E39.3977
G1 X130.6580 Y122.5120 E39.4221
G1 X115.6340 Y107.4880 E40.1853
G1 X116.3130 Y107.4880 E40.2097
G1 X131.3370 Y122.5120 E40.9729
G1 X132.0160 Y122.5120 E40.9973
G1 X116.9920 Y107.4880 E41.7605
G1 X117.6700 Y107.4880 E41.7849
G1 X132.6940 Y122.5120 E42.5481
G1 X133.3730 Y122.5120 E42.5725
G1 X118.3490 Y107.4880 E43.3357
G1 X119.0280 Y107.4880 E43.3601
G1 X134.0520 Y122.5120 E44.1233
G1 X134.7310 Y122.5120 E44.1477
G1 X119.7070 Y107.4880 E44.9109
G1 X120.3860 Y107.4880 E44.9353
G1 X135.4100 Y122.5120 E45.6985
G1 X136.0880 Y122.5120 E45.7229
G1 X121.0640 Y107.4880 E46.4861
G1 X121.7430 Y107.4880 E46.5105
G1 X136.7670 Y122.5120 E47.2737
G1 X137.4460 Y122.5120 E47.2981
G1 X122.4220 Y107.4880 E48.0613
G1 X123.1010 Y107.4880 E48.0857
G1 X138.1250 Y122.5120 E48.8489
G1 X138.8040 Y122.5120 E48.8733
G1 X123.7800 Y107.4880 E49.6365
G1 X124.4590 Y107.4880 E49.6609
G1 X139.4830 Y122.5120 E50.4241
G1 X140.1610 Y122.5120 E50.4485
G1 X125.1370 Y107.4880 E51.2117
G1 X125.8160 Y107.4880 E51.2361
G1 X140.8400 Y122.5120 E51.9993
G1 X141.5190 Y122.5120 E52.0237
G1 X126.4950 Y107.4880 E52.7870
G1 X127.1740 Y107.4880 E52.8113
G1 X142.1880 Y122.5020 E53.5741
G1 X142.3060 Y122.4970 E53.5783
G1 X142.6100 Y122.4570 E53.5893
G1 X142.7520 Y122.4260 E53.5946
G1 X142.7830 Y122.4190 E53.5957
G1 X127.8530 Y107.4880 E54.3542
G1 X128.5320 Y107.4880 E54.3786
G1 X143.3000 Y122.2560 E55.1288
G1 X143.3580 Y122.2360 E55.1310
G1 X143.3870 Y122.2230 E55.1321
G1 X143.6210 Y122.1140 E55.1414
G1 X143.7220 Y122.0560 E55.1456
G1 X143.7570 Y122.0350 E55.1471
G1 X129.2100 Y107.4880 E55.8861
G1 X129.8890 Y107.4880 E55.9104
G1 X144.1640 Y121.7630 E56.6356
G1 X144.3720 Y121.5880 E56.6453
G1 X144.5200 Y121.4400 E56.6529
G1 X139.5600 Y116.4800 E56.9049
G1 X139.1490 Y116.6130 E56.9204
G1 X137.7020 Y114.6220 E57.0088
G1 X130.5680 Y107.4880 E57.3712
G1 X131.2470 Y107.4880 E57.3956
G1 X137.4590 Y113.7010 E57.7112
G1 X137.7450 Y113.3070 E57.7286
G1 X131.9260 Y107.4880 E58.0243
G1 X132.6040 Y107.4880 E58.0486
G1 X138.0310 Y112.9140 E58.3243
G1 X138.3160 Y112.5210 E58.3418
G1 X133.2830 Y107.4880 E58.5974
G1 X133.9620 Y107.4880 E58.6218
G1 X138.6020 Y112.1280 E58.8575
G1 X138.8880 Y111.7350 E58.8750
G1 X134.6410 Y107.4880 E59.0907
G1 X135.3200 Y107.4880 E59.1151
G1 X139.2340 Y111.4030 E59.3140
G1 X140.2400 Y111.7290 E59.3519
G1 X135.9990 Y107.4880 E59.5674
G1 X136.6770 Y107.4880 E59.5918
G1 X141.2460 Y112.0560 E59.8238
G1 X142.2280 Y112.3750 E59.8610
G1 X142.2280 Y113.0390 E59.8848
G1 X145.5120 Y116.3230 E60.0516
G1 X145.5120 Y115.6440 E60.0760
G1 X137.3560 Y107.4880 E60.4903
G1 X138.0350 Y107.4880 E60.5147
G1 X145.5120 Y114.9650 E60.8945
G1 X145.5120 Y114.2860 E60.9189
G1 X138.7140 Y107.4880 E61.2642
G1 X139.3930 Y107.4880 E61.2886
G1 X145.5120 Y113.6070 E61.5995
G1 X145.5120 Y112.9290 E61.6239
G1 X140.0710 Y107.4880 E61.9002
G1 X140.7500 Y107.4880 E61.9246
G1 X145.5120 Y112.2500 E62.1665
G1 X145.5120 Y111.5710 E62.1909
G1 X141.4290 Y107.4880 E62.3983
G1 X141.9510 Y107.4880 E62.4171
G1 X142.1190 Y107.4990 E62.4231
G1 X145.5060 Y110.8860 E62.5951
G1 X145.4970 Y110.6940 E62.6020
G1 X145.4590 Y110.4060 E62.6125
G1 X145.3800 Y110.0810 E62.6245
G1 X142.9100 Y107.6110 E62.7499
G1 X142.2280 Y113.7180 F6000
G92 E0.0000
G1 X145.5120 Y117.0010 E0.1668 F2880
G1 X145.5120 Y117.6800 E0.1912
G1 X142.2280 Y114.3960 E0.3580
G1 X142.2280 Y115.0750 E0.3824
G1 X145.5120 Y118.3590 E0.5492
G1 X145.5120 Y118.9510 E0.5705
G1 X145.5070 Y119.0330 E0.5734
G1 X142.1220 Y115.6480 E0.7454
G1 X141.6090 Y115.8140 E0.7647
G1 X145.4470 Y119.6510 E0.9597
G1 X145.4270 Y119.7600 E0.9636
G1 X145.3480 Y120.0560 E0.9746
G1 X145.3010 Y120.1850 E0.9796
G1 X141.0970 Y115.9810 E1.1931
G1 X140.5850 Y116.1470 E1.2125
G1 X145.0940 Y120.6560 E1.4416
G1 X144.9610 Y120.8860 E1.4511
G1 X144.8800 Y121.0020 E1.4562
G1 X144.8310 Y121.0720 E1.4592
G1 X140.0720 Y116.3130 E1.7010
G92 E0.0000
G1 E-5 F1800 ; custom retraction - A
;layer 6, Z = 1.200
;fan6;
G1 Z1.200 F1200
G1 X137.4830 Y113.9940 F6000
G1 E0 F1800 ; custom un-retraction/prime - A
G92 E0.0000
G1 X139.2220 Y111.6010 E0.1063 F2880
G1 X142.0360 Y112.5150 E0.2125
G1 X142.0360 Y115.4730 E0.3188
G1 X139.2220 Y116.3880 E0.4251
G1 X137.4830 Y113.9940 E0.5314
G1 X136.8900 Y113.9940 F6000
G92 E0.0000
G1 X139.0390 Y111.0360 E0.1313 F2880
G1 X142.5160 Y112.1660 E0.2627
G1 X142.5160 Y115.8220 E0.3940
G1 X139.0390 Y116.9520 E0.5253
G1 X136.8900 Y113.9940 E0.6566
G1 X136.2970 Y113.9940 F6000
G92 E0.0000
G1 X138.8560 Y110.4720 E0.1564 F2160
G1 X142.9960 Y111.8170 E0.3128
G1 X142.9960 Y116.1710 E0.4691
G1 X138.8560 Y117.5160 E0.6255
G1 X136.2970 Y113.9940 E0.7819
G92 E0.0000
G1 E-5 F1800 ; custom retraction - A
;zhop1
G1 X92.5170 Y113.9940 F6000
G1 Z1.200 F1200
G1 E0 F1800 ; custom un-retraction/prime - A
G92 E0.0000
G1 X90.7780 Y116.3880 E0.1063 F2880
G1 X87.9640 Y115.4730 E0.2125
G1 X87.9640 Y112.5150 E0.3188
G1 X90.7780 Y111.6010 E0.4251
G1 X92.5170 Y113.9940 E0.5314
G1 X93.1100 Y113.9940 F6000
G92 E0.0000
G1 X90.9610 Y116.9520 E0.1313 F2880
G1 X87.4840 Y115.8220 E0.2627
G1 X87.4840 Y112.1660 E0.3940
G1 X90.9610 Y111.0360 E0.5253
G1 X93.1100 Y113.9940 E0.6566
G1 X93.7030 Y113.9940 F6000
G92 E0.0000
G1 X91.1440 Y117.5160 E0.1564 F2160
G1 X87.0040 Y116.1710 E0.3128
G1 X87.0040 Y111.8170 E0.4691
G1 X91.1440 Y110.4720 E0.6255
G1 X93.7030 Y113.9940 E0.7819
G92 E0.0000
G1 E-5 F1800 ; custom retraction - A
;layer 7, Z = 1.400
;fan7;
G1 Z1.400 F1200
G1 X92.5170 Y113.9940 F6000
G1 E0 F1800 ; custom un-retraction/prime - A
G92 E0.0000
G1 X90.7780 Y116.3880 E0.1063 F2880
G1 X87.9640 Y115.4730 E0.2125
G1 X87.9640 Y112.5150 E0.3188
G1 X90.7780 Y111.6010 E0.4251
G1 X92.5170 Y113.9940 E0.5314
G1 X93.1100 Y113.9940 F6000
G92 E0.0000
G1 X90.9610 Y116.9520 E0.1313 F2880
G1 X87.4840 Y115.8220 E0.2627
G1 X87.4840 Y112.1660 E0.3940
G1 X90.9610 Y111.0360 E0.5253
G1 X93.1100 Y113.9940 E0.6566
G1 X93.7030 Y113.9940 F6000
G92 E0.0000
G1 X91.1440 Y117.5160 E0.1564 F2160
G1 X87.0040 Y116.1710 E0.3128
G1 X87.0040 Y111.8170 E0.4691
G1 X91.1440 Y110.4720 E0.6255
G1 X93.7030 Y113.9940 E0.7819
G92 E0.0000
G1 E-5 F1800 ; custom retraction - A
;zhop1
G1 X137.4830 Y113.9940 F6000
G1 Z1.400 F1200
G1 E0 F1800 ; custom un-retraction/prime - A
G92 E0.0000
G1 X139.2220 Y111.6010 E0.1063 F2880
G1 X142.0360 Y112.5150 E0.2125
G1 X142.0360 Y115.4730 E0.3188
G1 X139.2220 Y116.3880 E0.4251
G1 X137.4830 Y113.9940 E0.5314
G1 X136.8900 Y113.9940 F6000
G92 E0.0000
G1 X139.0390 Y111.0360 E0.1313 F2880
G1 X142.5160 Y112.1660 E0.2627
G1 X142.5160 Y115.8220 E0.3940
G1 X139.0390 Y116.9520 E0.5253
G1 X136.8900 Y113.9940 E0.6566
G1 X136.2970 Y113.9940 F6000
G92 E0.0000
G1 X138.8560 Y110.4720 E0.1564 F2160
G1 X142.9960 Y111.8170 E0.3128
G1 X142.9960 Y116.1710 E0.4691
G1 X138.8560 Y117.5160 E0.6255
G1 X136.2970 Y113.9940 E0.7819
G92 E0.0000
G1 E-5 F1800 ; custom retraction - A
;layer 8, Z = 1.600
;fan8;
G1 Z1.600 F1200
G1 X137.4830 Y113.9940 F6000
G1 E0 F1800 ; custom un-retraction/prime - A
G92 E0.0000
G1 X139.2220 Y111.6010 E0.1063 F2880
G1 X142.0360 Y112.5150 E0.2125
G1 X142.0360 Y115.4730 E0.3188
G1 X139.2220 Y116.3880 E0.4251
G1 X137.4830 Y113.9940 E0.5314
G1 X136.8900 Y113.9940 F6000
G92 E0.0000
G1 X139.0390 Y111.0360 E0.1313 F2880
G1 X142.5160 Y112.1660 E0.2627
G1 X142.5160 Y115.8220 E0.3940
G1 X139.0390 Y116.9520 E0.5253
G1 X136.8900 Y113.9940 E0.6566
G1 X136.2970 Y113.9940 F6000
G92 E0.0000
G1 X138.8560 Y110.4720 E0.1564 F2160
G1 X142.9960 Y111.8170 E0.3128
G1 X142.9960 Y116.1710 E0.4691
G1 X138.8560 Y117.5160 E0.6255
G1 X136.2970 Y113.9940 E0.7819
G92 E0.0000
G1 E-5 F1800 ; custom retraction - A
;zhop1
G1 X92.5170 Y113.9940 F6000
G1 Z1.600 F1200
G1 E0 F1800 ; custom un-retraction/prime - A
G92 E0.0000
G1 X90.7780 Y116.3880 E0.1063 F2880
G1 X87.9640 Y115.4730 E0.2125
G1 X87.9640 Y112.5150 E0.3188
G1 X90.7780 Y111.6010 E0.4251
G1 X92.5170 Y113.9940 E0.5314
G1 X93.1100 Y113.9940 F6000
G92 E0.0000
G1 X90.9610 Y116.9520 E0.1313 F2880
G1 X87.4840 Y115.8220 E0.2627
G1 X87.4840 Y112.1660 E0.3940
G1 X90.9610 Y111.0360 E0.5253
G1 X93.1100 Y113.9940 E0.6566
G1 X93.7030 Y113.9940 F6000
G92 E0.0000
G1 X91.1440 Y117.5160 E0.1564 F2160
G1 X87.0040 Y116.1710 E0.3128
G1 X87.0040 Y111.8170 E0.4691
G1 X91.1440 Y110.4720 E0.6255
G1 X93.7030 Y113.9940 E0.7819
G92 E0.0000
G1 E-5 F1800 ; custom retraction - A
;layer 9, Z = 1.800
;fan9;
G1 Z1.800 F1200
G1 X92.5170 Y113.9940 F6000
G1 E0 F1800 ; custom un-retraction/prime - A
G92 E0.0000
G1 X90.7780 Y116.3880 E0.1063 F2880
G1 X87.9640 Y115.4730 E0.2125
G1 X87.9640 Y112.5150 E0.3188
G1 X90.7780 Y111.6010 E0.4251
G1 X92.5170 Y113.9940 E0.5314
G1 X93.1100 Y113.9940 F6000
G92 E0.0000
G1 X90.9610 Y116.9520 E0.1313 F2880
G1 X87.4840 Y115.8220 E0.2627
G1 X87.4840 Y112.1660 E0.3940
G1 X90.9610 Y111.0360 E0.5253
G1 X93.1100 Y113.9940 E0.6566
G1 X93.7030 Y113.9940 F6000
G92 E0.0000
G1 X91.1440 Y117.5160 E0.1564 F2160
G1 X87.0040 Y116.1710 E0.3128
G1 X87.0040 Y111.8170 E0.4691
G1 X91.1440 Y110.4720 E0.6255
G1 X93.7030 Y113.9940 E0.7819
G92 E0.0000
G1 E-5 F1800 ; custom retraction - A
;zhop1
G1 X137.4830 Y113.9940 F6000
G1 Z1.800 F1200
G1 E0 F1800 ; custom un-retraction/prime - A
G92 E0.0000
G1 X139.2220 Y111.6010 E0.1063 F2880
G1 X142.0360 Y112.5150 E0.2125
G1 X142.0360 Y115.4730 E0.3188
G1 X139.2220 Y116.3880 E0.4251
G1 X137.4830 Y113.9940 E0.5314
G1 X136.8900 Y113.9940 F6000
G92 E0.0000
G1 X139.0390 Y111.0360 E0.1313 F2880
G1 X142.5160 Y112.1660 E0.2627
G1 X142.5160 Y115.8220 E0.3940
G1 X139.0390 Y116.9520 E0.5253
G1 X136.8900 Y113.9940 E0.6566
G1 X136.2970 Y113.9940 F6000
G92 E0.0000
G1 X138.8560 Y110.4720 E0.1564 F2160
G1 X142.9960 Y111.8170 E0.3128
G1 X142.9960 Y116.1710 E0.4691
G1 X138.8560 Y117.5160 E0.6255
G1 X136.2970 Y113.9940 E0.7819
G92 E0.0000
G1 E-5 F1800 ; custom retraction - A
;layer 10, Z = 2.000
;fan10;
G1 Z2.000 F1200
G1 X137.4830 Y113.9940 F6000
G1 E0 F1800 ; custom un-retraction/prime - A
G92 E0.0000
G1 X139.2220 Y111.6010 E0.1063 F2880
G1 X142.0360 Y112.5150 E0.2125
G1 X142.0360 Y115.4730 E0.3188
G1 X139.2220 Y116.3880 E0.4251
G1 X137.4830 Y113.9940 E0.5314
G1 X136.8900 Y113.9940 F6000
G92 E0.0000
G1 X139.0390 Y111.0360 E0.1313 F2880
G1 X142.5160 Y112.1660 E0.2627
G1 X142.5160 Y115.8220 E0.3940
G1 X139.0390 Y116.9520 E0.5253
G1 X136.8900 Y113.9940 E0.6566
G1 X136.2970 Y113.9940 F6000
G92 E0.0000
G1 X138.8560 Y110.4720 E0.1564 F2160
G1 X142.9960 Y111.8170 E0.3128
G1 X142.9960 Y116.1710 E0.4691
G1 X138.8560 Y117.5160 E0.6255
G1 X136.2970 Y113.9940 E0.7819
G92 E0.0000
G1 E-5 F1800 ; custom retraction - A
;zhop1
G1 X92.5170 Y113.9940 F6000
G1 Z2.000 F1200
G1 E0 F1800 ; custom un-retraction/prime - A
G92 E0.0000
G1 X90.7780 Y116.3880 E0.1063 F2880
G1 X87.9640 Y115.4730 E0.2125
G1 X87.9640 Y112.5150 E0.3188
G1 X90.7780 Y111.6010 E0.4251
G1 X92.5170 Y113.9940 E0.5314
G1 X93.1100 Y113.9940 F6000
G92 E0.0000
G1 X90.9610 Y116.9520 E0.1313 F2880
G1 X87.4840 Y115.8220 E0.2627
G1 X87.4840 Y112.1660 E0.3940
G1 X90.9610 Y111.0360 E0.5253
G1 X93.1100 Y113.9940 E0.6566
G1 X93.7030 Y113.9940 F6000
G92 E0.0000
G1 X91.1440 Y117.5160 E0.1564 F2160
G1 X87.0040 Y116.1710 E0.3128
G1 X87.0040 Y111.8170 E0.4691
G1 X91.1440 Y110.4720 E0.6255
G1 X93.7030 Y113.9940 E0.7819
G92 E0.0000
G1 E-5 F1800 ; custom retraction - A
;process Process-2
;layer 11, Z = 2.200
;fan11;
G1 Z2.200 F1200
G1 X92.5170 Y113.9940 F6000
G1 E0 F1800 ; custom un-retraction/prime - A
G92 E0.0000
G1 X90.7780 Y116.3880 E0.1063 F2880
G1 X87.9640 Y115.4730 E0.2125
G1 X87.9640 Y112.5150 E0.3188
G1 X90.7780 Y111.6010 E0.4251
G1 X92.5170 Y113.9940 E0.5314
G1 X93.1100 Y113.9940 F6000
G92 E0.0000
G1 X90.9610 Y116.9520 E0.1313 F2880
G1 X87.4840 Y115.8220 E0.2627
G1 X87.4840 Y112.1660 E0.3940
G1 X90.9610 Y111.0360 E0.5253
G1 X93.1100 Y113.9940 E0.6566
G1 X93.7030 Y113.9940 F6000
G92 E0.0000
G1 X91.1440 Y117.5160 E0.1564 F2160
G1 X87.0040 Y116.1710 E0.3128
G1 X87.0040 Y111.8170 E0.4691
G1 X91.1440 Y110.4720 E0.6255
G1 X93.7030 Y113.9940 E0.7819
G92 E0.0000
G1 E-5 F1800 ; custom retraction - A
;zhop1
G1 X137.4830 Y113.9940 F6000
G1 Z2.200 F1200
G1 E0 F1800 ; custom un-retraction/prime - A
G92 E0.0000
G1 X139.2220 Y111.6010 E0.1063 F2880
G1 X142.0360 Y112.5150 E0.2125
G1 X142.0360 Y115.4730 E0.3188
G1 X139.2220 Y116.3880 E0.4251
G1 X137.4830 Y113.9940 E0.5314
G1 X136.8900 Y113.9940 F6000
G92 E0.0000
G1 X139.0390 Y111.0360 E0.1313 F2880
G1 X142.5160 Y112.1660 E0.2627
G1 X142.5160 Y115.8220 E0.3940
G1 X139.0390 Y116.9520 E0.5253
G1 X136.8900 Y113.9940 E0.6566
G1 X136.2970 Y113.9940 F6000
G92 E0.0000
G1 X138.8560 Y110.4720 E0.1564 F2160
G1 X142.9960 Y111.8170 E0.3128
G1 X142.9960 Y116.1710 E0.4691
G1 X138.8560 Y117.5160 E0.6255
G1 X136.2970 Y113.9940 E0.7819
G92 E0.0000
G1 E-5 F1800 ; custom retraction - A
;layer 12, Z = 2.400
;fan12;
G1 Z2.400 F1200
G1 X137.4830 Y113.9940 F6000
G1 E0 F1800 ; custom un-retraction/prime - A
G92 E0.0000
G1 X139.2220 Y111.6010 E0.1063 F2880
G1 X142.0360 Y112.5150 E0.2125
G1 X142.0360 Y115.4730 E0.3188
G1 X139.2220 Y116.3880 E0.4251
G1 X137.4830 Y113.9940 E0.5314
G1 X136.8900 Y113.9940 F6000
G92 E0.0000
G1 X139.0390 Y111.0360 E0.1313 F2880
G1 X142.5160 Y112.1660 E0.2627
G1 X142.5160 Y115.8220 E0.3940
G1 X139.0390 Y116.9520 E0.5253
G1 X136.8900 Y113.9940 E0.6566
G1 X136.2970 Y113.9940 F6000
G92 E0.0000
G1 X138.8560 Y110.4720 E0.1564 F2160
G1 X142.9960 Y111.8170 E0.3128
G1 X142.9960 Y116.1710 E0.4691
G1 X138.8560 Y117.5160 E0.6255
G1 X136.2970 Y113.9940 E0.7819
G92 E0.0000
G1 E-5 F1800 ; custom retraction - A
;zhop1
G1 X92.5170 Y113.9940 F6000
G1 Z2.400 F1200
G1 E0 F1800 ; custom un-retraction/prime - A
G92 E0.0000
G1 X90.7780 Y116.3880 E0.1063 F2880
G1 X87.9640 Y115.4730 E0.2125
G1 X87.9640 Y112.5150 E0.3188
G1 X90.7780 Y111.6010 E0.4251
G1 X92.5170 Y113.9940 E0.5314
G1 X93.1100 Y113.9940 F6000
G92 E0.0000
G1 X90.9610 Y116.9520 E0.1313 F2880
G1 X87.4840 Y115.8220 E0.2627
G1 X87.4840 Y112.1660 E0.3940
G1 X90.9610 Y111.0360 E0.5253
G1 X93.1100 Y113.9940 E0.6566
G1 X93.7030 Y113.9940 F6000
G92 E0.0000
G1 X91.1440 Y117.5160 E0.1564 F2160
G1 X87.0040 Y116.1710 E0.3128
G1 X87.0040 Y111.8170 E0.4691
G1 X91.1440 Y110.4720 E0.6255
G1 X93.7030 Y113.9940 E0.7819
G92 E0.0000
G1 E-5 F1800 ; custom retraction - A
;layer 13, Z = 2.600
;fan13;
G1 Z2.600 F1200
G1 X92.5170 Y113.9940 F6000
G1 E0 F1800 ; custom un-retraction/prime - A
G92 E0.0000
G1 X90.7780 Y116.3880 E0.1063 F2880
G1 X87.9640 Y115.4730 E0.2125
G1 X87.9640 Y112.5150 E0.3188
G1 X90.7780 Y111.6010 E0.4251
G1 X92.5170 Y113.9940 E0.5314
G1 X93.1100 Y113.9940 F6000
G92 E0.0000
G1 X90.9610 Y116.9520 E0.1313 F2880
G1 X87.4840 Y115.8220 E0.2627
G1 X87.4840 Y112.1660 E0.3940
G1 X90.9610 Y111.0360 E0.5253
G1 X93.1100 Y113.9940 E0.6566
G1 X93.7030 Y113.9940 F6000
G92 E0.0000
G1 X91.1440 Y117.5160 E0.1564 F2160
G1 X87.0040 Y116.1710 E0.3128
G1 X87.0040 Y111.8170 E0.4691
G1 X91.1440 Y110.4720 E0.6255
G1 X93.7030 Y113.9940 E0.7819
G92 E0.0000
G1 E-5 F1800 ; custom retraction - A
;zhop1
G1 X137.4830 Y113.9940 F6000
G1 Z2.600 F1200
G1 E0 F1800 ; custom un-retraction/prime - A
G92 E0.0000
G1 X139.2220 Y111.6010 E0.1063 F2880
G1 X142.0360 Y112.5150 E0.2125
G1 X142.0360 Y115.4730 E0.3188
G1 X139.2220 Y116.3880 E0.4251
G1 X137.4830 Y113.9940 E0.5314
G1 X136.8900 Y113.9940 F6000
G92 E0.0000
G1 X139.0390 Y111.0360 E0.1313 F2880
G1 X142.5160 Y112.1660 E0.2627
G1 X142.5160 Y115.8220 E0.3940
G1 X139.0390 Y116.9520 E0.5253
G1 X136.8900 Y113.9940 E0.6566
G1 X136.2970 Y113.9940 F6000
G92 E0.0000
G1 X138.8560 Y110.4720 E0.1564 F2160
G1 X142.9960 Y111.8170 E0.3128
G1 X142.9960 Y116.1710 E0.4691
G1 X138.8560 Y117.5160 E0.6255
G1 X136.2970 Y113.9940 E0.7819
G92 E0.0000
G1 E-5 F1800 ; custom retraction - A
;layer 14, Z = 2.800
;fan14;
G1 Z2.800 F1200
G1 X137.4830 Y113.9940 F6000
G1 E0 F1800 ; custom un-retraction/prime - A
G92 E0.0000
G1 X139.2220 Y111.6010 E0.1063 F2880
G1 X142.0360 Y112.5150 E0.2125
G1 X142.0360 Y115.4730 E0.3188
G1 X139.2220 Y116.3880 E0.4251
G1 X137.4830 Y113.9940 E0.5314
G1 X136.8900 Y113.9940 F6000
G92 E0.0000
G1 X139.0390 Y111.0360 E0.1313 F2880
G1 X142.5160 Y112.1660 E0.2627
G1 X142.5160 Y115.8220 E0.3940
G1 X139.0390 Y116.9520 E0.5253
G1 X136.8900 Y113.9940 E0.6566
G1 X136.2970 Y113.9940 F6000
G92 E0.0000
G1 X138.8560 Y110.4720 E0.1564 F2160
G1 X142.9960 Y111.8170 E0.3128
G1 X142.9960 Y116.1710 E0.4691
G1 X138.8560 Y117.5160 E0.6255
G1 X136.2970 Y113.9940 E0.7819
G92 E0.0000
G1 E-5 F1800 ; custom retraction - A
;zhop1
G1 X92.5170 Y113.9940 F6000
G1 Z2.800 F1200
G1 E0 F1800 ; custom un-retraction/prime - A
G92 E0.0000
G1 X90.7780 Y116.3880 E0.1063 F2880
G1 X87.9640 Y115.4730 E0.2125
G1 X87.9640 Y112.5150 E0.3188
G1 X90.7780 Y111.6010 E0.4251
G1 X92.5170 Y113.9940 E0.5314
G1 X93.1100 Y113.9940 F6000
G92 E0.0000
G1 X90.9610 Y116.9520 E0.1313 F2880
G1 X87.4840 Y115.8220 E0.2627
G1 X87.4840 Y112.1660 E0.3940
G1 X90.9610 Y111.0360 E0.5253
G1 X93.1100 Y113.9940 E0.6566
G1 X93.7030 Y113.9940 F6000
G92 E0.0000
G1 X91.1440 Y117.5160 E0.1564 F2160
G1 X87.0040 Y116.1710 E0.3128
G1 X87.0040 Y111.8170 E0.4691
G1 X91.1440 Y110.4720 E0.6255
G1 X93.7030 Y113.9940 E0.7819
G92 E0.0000
G1 E-5 F1800 ; custom retraction - A
;layer 15, Z = 3.000
;fan15;
G1 Z3.000 F1200
G1 X92.5170 Y113.9940 F6000
G1 E0 F1800 ; custom un-retraction/prime - A
G92 E0.0000
G1 X90.7780 Y116.3880 E0.1063 F2880
G1 X87.9640 Y115.4730 E0.2125
G1 X87.9640 Y112.5150 E0.3188
G1 X90.7780 Y111.6010 E0.4251
G1 X92.5170 Y113.9940 E0.5314
G1 X93.1100 Y113.9940 F6000
G92 E0.0000
G1 X90.9610 Y116.9520 E0.1313 F2880
G1 X87.4840 Y115.8220 E0.2627
G1 X87.4840 Y112.1660 E0.3940
G1 X90.9610 Y111.0360 E0.5253
G1 X93.1100 Y113.9940 E0.6566
G1 X93.7030 Y113.9940 F6000
G92 E0.0000
G1 X91.1440 Y117.5160 E0.1564 F2160
G1 X87.0040 Y116.1710 E0.3128
G1 X87.0040 Y111.8170 E0.4691
G1 X91.1440 Y110.4720 E0.6255
G1 X93.7030 Y113.9940 E0.7819
G92 E0.0000
G1 E-5 F1800 ; custom retraction - A
;zhop1
G1 X137.4830 Y113.9940 F6000
G1 Z3.000 F1200
G1 E0 F1800 ; custom un-retraction/prime - A
G92 E0.0000
G1 X139.2220 Y111.6010 E0.1063 F2880
G1 X142.0360 Y112.5150 E0.2125
G1 X142.0360 Y115.4730 E0.3188
G1 X139.2220 Y116.3880 E0.4251
G1 X137.4830 Y113.9940 E0.5314
G1 X136.8900 Y113.9940 F6000
G92 E0.0000
G1 X139.0390 Y111.0360 E0.1313 F2880
G1 X142.5160 Y112.1660 E0.2627
G1 X142.5160 Y115.8220 E0.3940
G1 X139.0390 Y116.9520 E0.5253
G1 X136.8900 Y113.9940 E0.6566
G1 X136.2970 Y113.9940 F6000
G92 E0.0000
G1 X138.8560 Y110.4720 E0.1564 F2160
G1 X142.9960 Y111.8170 E0.3128
G1 X142.9960 Y116.1710 E0.4691
G1 X138.8560 Y117.5160 E0.6255
G1 X136.2970 Y113.9940 E0.7819
G92 E0.0000
G1 E-5 F1800 ; custom retraction - A
;layer 16, Z = 3.200
;fan16;
G1 Z3.200 F1200
G1 X137.4830 Y113.9940 F6000
G1 E0 F1800 ; custom un-retraction/prime - A
G92 E0.0000
G1 X139.2220 Y111.6010 E0.1063 F2880
G1 X142.0360 Y112.5150 E0.2125
G1 X142.0360 Y115.4730 E0.3188
G1 X139.2220 Y116.3880 E0.4251
G1 X137.4830 Y113.9940 E0.5314
G1 X136.8900 Y113.9940 F6000
G92 E0.0000
G1 X139.0390 Y111.0360 E0.1313 F2880
G1 X142.5160 Y112.1660 E0.2627
G1 X142.5160 Y115.8220 E0.3940
G1 X139.0390 Y116.9520 E0.5253
G1 X136.8900 Y113.9940 E0.6566
G1 X136.2970 Y113.9940 F6000
G92 E0.0000
G1 X138.8560 Y110.4720 E0.1564 F2160
G1 X142.9960 Y111.8170 E0.3128
G1 X142.9960 Y116.1710 E0.4691
G1 X138.8560 Y117.5160 E0.6255
G1 X136.2970 Y113.9940 E0.7819
G92 E0.0000
G1 E-5 F1800 ; custom retraction - A
;zhop1
G1 X92.5170 Y113.9940 F6000
G1 Z3.200 F1200
G1 E0 F1800 ; custom un-retraction/prime - A
G92 E0.0000
G1 X90.7780 Y116.3880 E0.1063 F2880
G1 X87.9640 Y115.4730 E0.2125
G1 X87.9640 Y112.5150 E0.3188
G1 X90.7780 Y111.6010 E0.4251
G1 X92.5170 Y113.9940 E0.5314
G1 X93.1100 Y113.9940 F6000
G92 E0.0000
G1 X90.9610 Y116.9520 E0.1313 F2880
G1 X87.4840 Y115.8220 E0.2627
G1 X87.4840 Y112.1660 E0.3940
G1 X90.9610 Y111.0360 E0.5253
G1 X93.1100 Y113.9940 E0.6566
G1 X93.7030 Y113.9940 F6000
G92 E0.0000
G1 X91.1440 Y117.5160 E0.1564 F2160
G1 X87.0040 Y116.1710 E0.3128
G1 X87.0040 Y111.8170 E0.4691
G1 X91.1440 Y110.4720 E0.6255
G1 X93.7030 Y113.9940 E0.7819
G92 E0.0000
G1 E-5 F1800 ; custom retraction - A
;layer 17, Z = 3.400
;fan17;
G1 Z3.400 F1200
G1 X92.5170 Y113.9940 F6000
G1 E0 F1800 ; custom un-retraction/prime - A
G92 E0.0000
G1 X90.7780 Y116.3880 E0.1063 F2880
G1 X87.9640 Y115.4730 E0.2125
G1 X87.9640 Y112.5150 E0.3188
G1 X90.7780 Y111.6010 E0.4251
G1 X92.5170 Y113.9940 E0.5314
G1 X93.1100 Y113.9940 F6000
G92 E0.0000
G1 X90.9610 Y116.9520 E0.1313 F2880
G1 X87.4840 Y115.8220 E0.2627
G1 X87.4840 Y112.1660 E0.3940
G1 X90.9610 Y111.0360 E0.5253
G1 X93.1100 Y113.9940 E0.6566
G1 X93.7030 Y113.9940 F6000
G92 E0.0000
G1 X91.1440 Y117.5160 E0.1564 F2160
G1 X87.0040 Y116.1710 E0.3128
G1 X87.0040 Y111.8170 E0.4691
G1 X91.1440 Y110.4720 E0.6255
G1 X93.7030 Y113.9940 E0.7819
G92 E0.0000
G1 E-5 F1800 ; custom retraction - A
;zhop1
G1 X137.4830 Y113.9940 F6000
G1 Z3.400 F1200
G1 E0 F1800 ; custom un-retraction/prime - A
G92 E0.0000
G1 X139.2220 Y111.6010 E0.1063 F2880
G1 X142.0360 Y112.5150 E0.2125
G1 X142.0360 Y115.4730 E0.3188
G1 X139.2220 Y116.3880 E0.4251
G1 X137.4830 Y113.9940 E0.5314
G1 X136.8900 Y113.9940 F6000
G92 E0.0000
G1 X139.0390 Y111.0360 E0.1313 F2880
G1 X142.5160 Y112.1660 E0.2627
G1 X142.5160 Y115.8220 E0.3940
G1 X139.0390 Y116.9520 E0.5253
G1 X136.8900 Y113.9940 E0.6566
G1 X136.2970 Y113.9940 F6000
G92 E0.0000
G1 X138.8560 Y110.4720 E0.1564 F2160
G1 X142.9960 Y111.8170 E0.3128
G1 X142.9960 Y116.1710 E0.4691
G1 X138.8560 Y117.5160 E0.6255
G1 X136.2970 Y113.9940 E0.7819
G92 E0.0000
G1 E-5 F1800 ; custom retraction - A
;layer 18, Z = 3.600
;fan18;
G1 Z3.600 F1200
G1 X137.4830 Y113.9940 F6000
G1 E0 F1800 ; custom un-retraction/prime - A
G92 E0.0000
G1 X139.2220 Y111.6010 E0.1063 F2880
G1 X142.0360 Y112.5150 E0.2125
G1 X142.0360 Y115.4730 E0.3188
G1 X139.2220 Y116.3880 E0.4251
G1 X137.4830 Y113.9940 E0.5314
G1 X136.8900 Y113.9940 F6000
G92 E0.0000
G1 X139.0390 Y111.0360 E0.1313 F2880
G1 X142.5160 Y112.1660 E0.2627
G1 X142.5160 Y115.8220 E0.3940
G1 X139.0390 Y116.9520 E0.5253
G1 X136.8900 Y113.9940 E0.6566
G1 X136.2970 Y113.9940 F6000
G92 E0.0000
G1 X138.8560 Y110.4720 E0.1564 F2160
G1 X142.9960 Y111.8170 E0.3128
G1 X142.9960 Y116.1710 E0.4691
G1 X138.8560 Y117.5160 E0.6255
G1 X136.2970 Y113.9940 E0.7819
G92 E0.0000
G1 E-5 F1800 ; custom retraction - A
;zhop1
G1 X92.5170 Y113.9940 F6000
G1 Z3.600 F1200
G1 E0 F1800 ; custom un-retraction/prime - A
G92 E0.0000
G1 X90.7780 Y116.3880 E0.1063 F2880
G1 X87.9640 Y115.4730 E0.2125
G1 X87.9640 Y112.5150 E0.3188
G1 X90.7780 Y111.6010 E0.4251
G1 X92.5170 Y113.9940 E0.5314
G1 X93.1100 Y113.9940 F6000
G92 E0.0000
G1 X90.9610 Y116.9520 E0.1313 F2880
G1 X87.4840 Y115.8220 E0.2627
G1 X87.4840 Y112.1660 E0.3940
G1 X90.9610 Y111.0360 E0.5253
G1 X93.1100 Y113.9940 E0.6566
G1 X93.7030 Y113.9940 F6000
G92 E0.0000
G1 X91.1440 Y117.5160 E0.1564 F2160
G1 X87.0040 Y116.1710 E0.3128
G1 X87.0040 Y111.8170 E0.4691
G1 X91.1440 Y110.4720 E0.6255
G1 X93.7030 Y113.9940 E0.7819
G92 E0.0000
G1 E-5 F1800 ; custom retraction - A
;layer 19, Z = 3.800
;fan19;
G1 Z3.800 F1200
G1 X92.5170 Y113.9940 F6000
G1 E0 F1800 ; custom un-retraction/prime - A
G92 E0.0000
G1 X90.7780 Y116.3880 E0.1063 F2880
G1 X87.9640 Y115.4730 E0.2125
G1 X87.9640 Y112.5150 E0.3188
G1 X90.7780 Y111.6010 E0.4251
G1 X92.5170 Y113.9940 E0.5314
G1 X93.1100 Y113.9940 F6000
G92 E0.0000
G1 X90.9610 Y116.9520 E0.1313 F2880
G1 X87.4840 Y115.8220 E0.2627
G1 X87.4840 Y112.1660 E0.3940
G1 X90.9610 Y111.0360 E0.5253
G1 X93.1100 Y113.9940 E0.6566
G1 X93.7030 Y113.9940 F6000
G92 E0.0000
G1 X91.1440 Y117.5160 E0.1564 F2160
G1 X87.0040 Y116.1710 E0.3128
G1 X87.0040 Y111.8170 E0.4691
G1 X91.1440 Y110.4720 E0.6255
G1 X93.7030 Y113.9940 E0.7819
G92 E0.0000
G1 E-5 F1800 ; custom retraction - A
;zhop1
G1 X137.4830 Y113.9940 F6000
G1 Z3.800 F1200
G1 E0 F1800 ; custom un-retraction/prime - A
G92 E0.0000
G1 X139.2220 Y111.6010 E0.1063 F2880
G1 X142.0360 Y112.5150 E0.2125
G1 X142.0360 Y115.4730 E0.3188
G1 X139.2220 Y116.3880 E0.4251
G1 X137.4830 Y113.9940 E0.5314
G1 X136.8900 Y113.9940 F6000
G92 E0.0000
G1 X139.0390 Y111.0360 E0.1313 F2880
G1 X142.5160 Y112.1660 E0.2627
G1 X142.5160 Y115.8220 E0.3940
G1 X139.0390 Y116.9520 E0.5253
G1 X136.8900 Y113.9940 E0.6566
G1 X136.2970 Y113.9940 F6000
G92 E0.0000
G1 X138.8560 Y110.4720 E0.1564 F2160
G1 X142.9960 Y111.8170 E0.3128
G1 X142.9960 Y116.1710 E0.4691
G1 X138.8560 Y117.5160 E0.6255
G1 X136.2970 Y113.9940 E0.7819
G92 E0.0000
G1 E-5 F1800 ; custom retraction - A
;layer 20, Z = 4.000
;fan20;
G1 Z4.000 F1200
G1 X137.4830 Y113.9940 F6000
G1 E0 F1800 ; custom un-retraction/prime - A
G92 E0.0000
G1 X139.2220 Y111.6010 E0.1063 F2880
G1 X142.0360 Y112.5150 E0.2125
G1 X142.0360 Y115.4730 E0.3188
G1 X139.2220 Y116.3880 E0.4251
G1 X137.4830 Y113.9940 E0.5314
G1 X136.8900 Y113.9940 F6000
G92 E0.0000
G1 X139.0390 Y111.0360 E0.1313 F2880
G1 X142.5160 Y112.1660 E0.2627
G1 X142.5160 Y115.8220 E0.3940
G1 X139.0390 Y116.9520 E0.5253
G1 X136.8900 Y113.9940 E0.6566
G1 X136.2970 Y113.9940 F6000
G92 E0.0000
G1 X138.8560 Y110.4720 E0.1564 F2160
G1 X142.9960 Y111.8170 E0.3128
G1 X142.9960 Y116.1710 E0.4691
G1 X138.8560 Y117.5160 E0.6255
G1 X136.2970 Y113.9940 E0.7819
G92 E0.0000
G1 E-5 F1800 ; custom retraction - A
;zhop1
G1 X92.5170 Y113.9940 F6000
G1 Z4.000 F1200
G1 E0 F1800 ; custom un-retraction/prime - A
G92 E0.0000
G1 X90.7780 Y116.3880 E0.1063 F2880
G1 X87.9640 Y115.4730 E0.2125
G1 X87.9640 Y112.5150 E0.3188
G1 X90.7780 Y111.6010 E0.4251
G1 X92.5170 Y113.9940 E0.5314
G1 X93.1100 Y113.9940 F6000
G92 E0.0000
G1 X90.9610 Y116.9520 E0.1313 F2880
G1 X87.4840 Y115.8220 E0.2627
G1 X87.4840 Y112.1660 E0.3940
G1 X90.9610 Y111.0360 E0.5253
G1 X93.1100 Y113.9940 E0.6566
G1 X93.7030 Y113.9940 F6000
G92 E0.0000
G1 X91.1440 Y117.5160 E0.1564 F2160
G1 X87.0040 Y116.1710 E0.3128
G1 X87.0040 Y111.8170 E0.4691
G1 X91.1440 Y110.4720 E0.6255
G1 X93.7030 Y113.9940 E0.7819
G92 E0.0000
G1 E-5 F1800 ; custom retraction - A
;layer 21, Z = 4.200
;fan21;
G1 Z4.200 F1200
G1 X92.5170 Y113.9940 F6000
G1 E0 F1800 ; custom un-retraction/prime - A
G92 E0.0000
G1 X90.7780 Y116.3880 E0.1063 F2880
G1 X87.9640 Y115.4730 E0.2125
G1 X87.9640 Y112.5150 E0.3188
G1 X90.7780 Y111.6010 E0.4251
G1 X92.5170 Y113.9940 E0.5314
G1 X93.1100 Y113.9940 F6000
G92 E0.0000
G1 X90.9610 Y116.9520 E0.1313 F2880
G1 X87.4840 Y115.8220 E0.2627
G1 X87.4840 Y112.1660 E0.3940
G1 X90.9610 Y111.0360 E0.5253
G1 X93.1100 Y113.9940 E0.6566
G1 X93.7030 Y113.9940 F6000
G92 E0.0000
G1 X91.1440 Y117.5160 E0.1564 F2160
G1 X87.0040 Y116.1710 E0.3128
G1 X87.0040 Y111.8170 E0.4691
G1 X91.1440 Y110.4720 E0.6255
G1 X93.7030 Y113.9940 E0.7819
G92 E0.0000
G1 E-5 F1800 ; custom retraction - A
;zhop1
G1 X137.4830 Y113.9940 F6000
G1 Z4.200 F1200
G1 E0 F1800 ; custom un-retraction/prime - A
G92 E0.0000
G1 X139.2220 Y111.6010 E0.1063 F2880
G1 X142.0360 Y112.5150 E0.2125
G1 X142.0360 Y115.4730 E0.3188
G1 X139.2220 Y116.3880 E0.4251
G1 X137.4830 Y113.9940 E0.5314
G1 X136.8900 Y113.9940 F6000
G92 E0.0000
G1 X139.0390 Y111.0360 E0.1313 F2880
G1 X142.5160 Y112.1660 E0.2627
G1 X142.5160 Y115.8220 E0.3940
G1 X139.0390 Y116.9520 E0.5253
G1 X136.8900 Y113.9940 E0.6566
G1 X136.2970 Y113.9940 F6000
